/* XPM */
static char *xpm_[] = {
/* columns rows colors chars-per-pixel */
"32 32 11 1 ",
"  c #0F663B",
". c #8A2450",
"X c #AD284B",
"o c #CC3542",
"O c #E65C5C",
"+ c #208030",
"@ c #47A632",
"# c #F29179",
"$ c #8DC746",
"% c #F7C088",
"& c None",
/* pixels */
"&&&&&&&&&&&&&&&&&&&&&&&&&&&&&&&&",
"&&&&&&&&&&&&&&&&&&&&&&&&&&&&&&&&",
"&&&&&&&&&&&&&&&&&&&&&&&&&@+&&&&&",
"&&&&&&&&&&&&&&&&&&&&&&&&@$ &&&&&",
"&&&&&&&&&&&&&&&&&&&&&&&@$ &&&&&&",
"&&&&&&&&&&&&&&&&&&&&&&+$+ &&&&&&",
"&&&&&&&&&&&&&&&&&&&&&+@$ &&&&&&&",
"&&&&&&&&&&&&&&&&&&&&X +@ &&&&&&&",
"&&&&&&&&&&&&&&&&&&&ooXX.+ &&&&&&",
"&&&&&&&&&&&&&&&&&&oO#OoX. &&&&&&",
"&&&&&&&&&&&&&&&&&&o#%#o.X.&&&&&&",
"&&&&&&&&&&&&&&&&&&oO#Oo.X.&&&&&&",
"&&&&&&&&&&&&&&&&&&X#OoX.X.&&&&&&",
"&&&&&&&&&&&&&&&&&Xo#OoX.X.&&&&&&",
"&&&&&&&&&&&&&&&&&XO#oX.X.&&&&&&&",
"&&&&&&&&&&&&&&&&&X#OoX.X.&&&&&&&",
"&&&&&&&&&&&&&&&&Xo#Oo.X.&&&&&&&&",
"&&&&&&&&&&&&&&&&XO#oX.X.&&&&&&&&",
"&&&&&&&&&&&&&&&Xo#Oo.X.&&&&&&&&&",
"&&&&&&&&&&&&&&&XO#oX.X.&&&&&&&&&",
"&&&&&&&&&&&&&&Xo#Oo.X.&&&&&&&&&&",
"&&&&&&&&&&&&&&X#OoX.X.&&&&&&&&&&",
"&&&&&.X&&&&&&X#OoX.X.&&&&&&&&&&&",
"&&&&&XOX&&&XX#OoX.X.&&&&&&&&&&&&",
"&&&&&.oOXXXoOOoX.X.&&&&&&&&&&&&&",
"&&&&&.XoOOOOoo..X.&&&&&&&&&&&&&&",
"&&&&&&.XoooX..XX.&&&&&&&&&&&&&&&",
"&&&&&&&..XXXXX..&&&&&&&&&&&&&&&&",
"&&&&&&&&&.....&&&&&&&&&&&&&&&&&&",
"&&&&&&&&&&&&&&&&&&&&&&&&&&&&&&&&",
"&&&&&&&&&&&&&&&&&&&&&&&&&&&&&&&&",
"&&&&&&&&&&&&&&&&&&&&&&&&&&&&&&&&"
};
