/* XPM */
static char *xpm_[] = {
/* columns rows colors chars-per-pixel */
"32 32 6 1 ",
"  c #0F663B",
". c #208030",
"X c #47A632",
"o c #8DC746",
"O c #CEEB5E",
"+ c None",
/* pixels */
"++++++++++++++++++++++++++++++++",
"++++++++++++ .......+++++   ++++",
"+++++++++ ...XooX.XX.... . +++++",
"+++++++ ..XXX.XOoXooX   . ++++++",
"++++++ .oXOoOooOOoo..Oo. .++++++",
"+++++ XooooXXOOoOX.Oo .o X.+++++",
"++++ .oXoXXXoOooX.OX XoX .. ++++",
"+++ .oX.X.XXOOOX.oX .   OoX. +++",
"+++ XX.X.ooOOoX.   .Xo..oOoX. ++",
"++ X..XoXOoXooOoXXoXoOoOXoXoX ++",
"++ ..XXOooXooOOOoOOoOOOoXXXoX ++",
"++ X.XooX.XXOoXoOOOOooOOooXXo. +",
"+ .XoooX.XXooXXXooXOoXXoOX.X.X +",
"+ .XXoXXXoOoX.XoOXXoXXXXooX..X +",
"+ ..ooo.XXoXXXoOoX.ooX.XoXoX . +",
"+  .oX.XooooXXXoX.XXooX.XoXX.X +",
"+ .XX.X.XoXX.XXooXXoOo.XoXo. . +",
"+  XX..XooX.XXoOoXoOoXXXXXo .X +",
"+ .X..Xooo.X.oOXoXXXoo.X.oX. X +",
"+ XXX..XoXX.XooXX.XooXX.X.XX.X +",
"++.X. .XXoX..Xoo.X.oooX...X.X ++",
"++ X...XX...XooXX.XXoX...XX X ++",
"++ X. ..XX. ..XX....X. . .X.X ++",
"+++ X. XX. . XX....XXX. .XX. +++",
"+++ X ...XX .XXX. ..XX   X.X +++",
"++++ X .XX .X.X. . ..X. X.X. +++",
"+++++ X XX. .XXX. ..XX .XX. ++++",
"++++++ X.XX  .XXX. ..X.X.. +++++",
"+++++++  .XX  XX.   XXX.  ++++++",
"+++++++++   X..XXX.X.   ++++++++",
"++++++++++++         +++++++++++",
"++++++++++++++++++++++++++++++++"
};
