/* XPM */
static char *xpm_[] = {
/* columns rows colors chars-per-pixel */
"480 480 70 1 ",
"  c #6F6B6A",
". c #716D6C",
"X c #74706F",
"o c #767271",
"O c #797675",
"+ c #7B7877",
"@ c #7E7C7B",
"# c #817E7D",
"$ c #82807F",
"% c #858382",
"& c #888584",
"* c #888585",
"= c #898685",
"- c #888686",
"; c #888786",
": c #8A8786",
"> c #8A8787",
", c #898887",
"< c #8C8A87",
"1 c #898888",
"2 c #8A8989",
"3 c #8B8989",
"4 c #8B8A88",
"5 c #8C8988",
"6 c #8C8989",
"7 c #8C8A88",
"8 c #8D8A89",
"9 c #8C8B8A",
"0 c #8C8B8B",
"q c #8D8C8B",
"w c #8D8C8C",
"e c #8E8D8D",
"r c #8F8D8D",
"t c gray56",
"y c #908E8D",
"u c #908E8E",
"i c #918F8F",
"p c #8F908F",
"a c #91908F",
"s c #918F90",
"d c #919090",
"f c #929392",
"g c #949292",
"h c #959393",
"j c #939493",
"k c #959493",
"l c #949394",
"z c #959394",
"x c gray58",
"c c #959595",
"v c #969595",
"b c #969797",
"n c #989797",
"m c #979897",
"M c #989897",
"N c #979798",
"B c #989798",
"V c #979898",
"C c #99999A",
"Z c #9A999A",
"A c #999A9A",
"S c #9A9B9A",
"D c #9A9A9B",
"F c #9C9A9A",
"G c #9B9C9B",
"H c #9B9B9C",
"J c #9B9C9C",
"K c gray61",
"L c #9C9C9D",
"P c #9D9D9D",
/* pixels */
"77777367776<776777737777*@*77w3w37777377w%@o...#@@%Bz77777777376777%@%03766#@37777w3777766633767777w36777733777w%@%377777773776777767377777777ww%@*77777776777677%@o..X@#@%Fs777w3777377377-@%77737#@777w377777767*7777w377777766666777w%@-7<<37737377777736677777w7777w%@%76777777776777$@X..o#@@7Bs7733777777777w#@*3777*##3777737730367777w777777776667377777#@*w7777337777776667777777w77737#@*73777777w37777$@...o@@@wH777777776377777$@37773*#%337777w3733777767777777766677377677%@-7737q",
"77777w776w3w773w777w7730*@*7777777737w776*@o...##@*Fx37777767w777773@%w7777##377w777773w777777777773w77777777730*@*77777w37777773w767w7777w3w73w%@*67377773w773w3%@X..X@#@*Hz77777737w77w7w-@%w37w3##3w77777773w63w77777676777w377777777%@*w77w7777777w33ww7777777w3773w%@*73w77w773w3777#@X..X##@7Zs7u7773w77w7773*@*0w773#%ww377w777w77377637376777377w7w77777%@37733w7w7777ww666w77773w3777w7%#67w7773w7767777#@.X.o$$@wHs677w7737w7777w#@3w77w*#%7337777777777w3w73w773w737777w77777%@*37q<3",
"73777w7767w777u677737773*@*37777w77w77w3773##O+sxlduw0w7w7w3767ww77*@%7w737%$3733037w77737w77377677w3767636oooooO@*377w73ww303767363677ww3773777%#*7w0w7w7w7w77w733@@+#lxgsuw3w77w3w3ww3777*@*37773##3777377w77w7ww77673w777w377773ooooo@@3w77733qw3677677777767w77w7w37%#37773w376w7767733@++%zlzsu777777737637w67#@*7777*#$7w7777777377w3w777w63w37w7736*ooooo@@*777773ww3w3w77777w77777777777##6737776673776777*@@@%zzgsw033w33700w77w67%@36777*@%37777w7w7w3w3773777w7677wu777%ooooo@@33777q",
"ww7773w77737777673www3w3*@*730ww37777776753%###xHHz37737777w77<377w*@*67733#@37w7w773777w7377ww37763w77773*oXXXXO#%337377777w7737w7ww76377777777%@*7773337363773733%##%zCHz77737777777773w7*@**qw3*#%77w7ww3373077377w7w373w776676%.XXXXO#%7777w<3q73w7w76w3w3w7777w7766##*w77776777w3w77<3$##%BHHs73ww7777ww3w777w*#*7w77*@%737w37773w7776776w37w7773w376%.XXXX@%*377w77777773777w6363w3w73w376##37w777777ww3w7777#@@%HCHs7w7777w7w3776776##*3777*@%w77773737777767w37737677667w3#.XXXX@#3377q3",
"3<377w030w67w7w3w7777w%.o@%q7q776377w7w377w7336$#7w377w3w376w7w337773&@*7+X@#3777w7773673776673w7w377w363Oo+@@@O*H3@%w3w7777777w637337w37q337q$.O#*7777w767773u67773333$%<w377w36373w776w377**@33O.##7777677777u36763w3w67w367w37o.@@@@O3C*@3373q37w037776773767w77777@.O#*w77w376773767777777%%%3q37q7w7677376777w77%#*7oo@$377766377w3677777u37677w37w*.o@@@@OuH%#3777w337777777w76777777w77@.@#w677w376773767<q3777*#%77w777777777w36w3763$$33oo@%777673w777ww3733w3w77w36736%.O@#@@@dH%$77w7",
"3qw773w7w77737u7777773%.O%*q77777w7736763w376w7#%773w7773w773776w7w37*@*7O.+@3776w667w3ww7w3776773w763w7<oo%%%%%7H3@*777w773w7737w7w77w73w7q7w$.O%3w7777w3w37w763w77333##37777777w7w37777777w*@%7o.@#7w7w3w37767w7w37777w7773w773oo%*$%%uC*@%w7wq<73w76w73w367w777w3q7@.@%77777773w367w773w37w3@%33w737773w367w73w36w$@3*oo@%077777ww37777w3766w77677767*.o%%%$*sB%@377777w73w77w636773w7u777<+.@%77777773w367w73q<u77*@%77777w7w3w6777777w33$@3%.o@%7<37767w373777w77773w7767w7%.O%%$%$sB$@7777",
"<77777w77637w7767w777w-@3Cs37777w36763773776777$#77w33777u677376w377w%@@@o.+@37767w3w767673w7w37767777773##zNHNBz7*@*7w73w3w3w3w7677u73777<37u%@uHu77777367w77773777773@%<77ww37767763w3w3337*@@@o.@#337367w737w37777w77377366737##NBNNHs7%@3737377ww777677w7637777w7q%@uCu777w7677w76377w77773@%7777w77677w76377777w%@@@o.@$333w3777377363w77w3w7w7w77u3@%HNHCHu7#@337w7377737337w377677w77qw%@zBw777w7677w7637373w7w*@%37www773677776777w77$@#@.o@%3337w373w77w377w37766737376*@%HNHCBw7##3777",
"q377w33776w737767w77**%@-Nd37w7w763w7w77w773w77$#7777q77663w7w7777w37*$$$OX%**3677773767776773w7w37676w3<$#zCNzNs7%@*w7777777777777667777773<%$@3Bw77ww3777773w7w773w77@#377377777677w77w7737*$$%oo%*3*777777w73w7777377777w777w*#%NHNzzs6%@37w777777777w77673w7777<--%@wB77w737w77673w73w773w3#$<77w077w77673w767763%$$#oO%%333773w7w77w777777737363667*#%HBxzzww$#37777ww37w7wu777763w7q77*%$@slw7w337w77673w7w77730*@%77777777763w3w73w77**$$@oO**33373w777777777u777777w7w7u3@3HlzNzu*##7w77",
"7773w777u777w7u6w777*.O@%3w77w7677w37w37w766w67#$77777w76<776w3777w777w33#@xB@#77667777777w6w377737777773%#NN7777u%+*w7w7663777ww77w70ww<0<q$.o#%0777677677w3ww677w7w33@$777w777w7w37673w7777w3w7##Cz##wu677777ww377w3w33qq<q7377#$Hl3w770%@%777q73wq7770377w7w7777u#.O@*7773w673w3677w7w7767w6@%0777377377w37677w3767777##Cs@%7w677w373636777w77777w7777@%Hx777w3$@33ww77w77777777u3ww33qq<@.O@33773w67377w3767w3737w%@%w7377776w37776w3w0377773@3Bs+*77w77w7w37777w37w7777777w*@3Cd77773##3337",
"w77w777*#%*****37777-oo@%w676w7377766367w77777w#$7666637777377w773w777777%@lH*%%3w7777w6677777777w77777%#@#zg77776*%*%%$677w7773$%**-%%3333<#.o#%w7773w6w77677763w37<6w@$76637773776767w373w77777$#xz%%**677w373777777777<33377%##$gsw377w%%3*%#33w7377*#%**%**77<7w# O@*u77777777776737367777*#%w77ww66w77367w77367w7733@%Hz#**3667777w7w673w0373ww777%#@%xa77777*%**##76w7777%#***%3-<3q<q@.@@*0w67777w77367w7777w73*@%770w77377w7637777u673w3*@%Hs$%*337<677677w3777ww7777w7##@-zuw777w%%-%##",
"37777w7%.o#@@@@*777w-.o@%667677w77w37w76w777777#$6w377w3703w7736q<3q77767$@zH73@#7w3777776w37w77w3777w7O @@3q7w37777%@..*67777w#.O#@@@@3<3<w-.o@%766677w3w37777777w7777@$3w3777w7376w373777777337#@VH3*@%667777w7w777373w37q7q7o.@#737773w37@@.X*777q37@.+#@@@#7q3<q#.O@*7ww7w367767677363w33w7@#3773uw6376w3w377w77377w7@$Cx7*@%377773ww777773w7777777..@#3737w76w7#O o7777w67+.O@@@@@777<w@ +@*w777w36376w7637777w73*@%37w377w77367w7777667w773@%Hz7%@%67577767w77wq3737377u*.o@%3*73q773*@@. ",
"6777737%.o#%333*%%%@@o@3*%3777737776777367766##@#6773w777w77w6773<q3w773%33ss7*****6663*777677337*333%@@O*<733q773w6*%OO*667w77%.o@*333*%<%@@o#w**30w7767767676w77376##@#0773ww*7w77776wu63w3333*33ga36%%%*6667377737w33773<3$@Oo3w773w77777**OO37777<3#.o#*333*%%%#@o%3***763w7w3w73w7w7w777@@@%7<66677677767677673337*%33zs7*%%%3w7777373w777737*33%#o@3377w737637*%O@3w66667+.@#*333**%$#@o%w**6763w7677773w73w773###%673w773w67773w6677736w%-3uss7%%%%36w7337773377*37333#@O@3733q<<7w77%%OO",
"7w0w3<w% o@qHHH%@@@ .@3Ku@*7w37ww367w37ww6776o.@#7w3w3666u773w3637q<777$@dJw3377*@$7w77uw077w077wwu67@.O#BCu<77w67733w$@77u767u# o@sFKH#@@O o@3J7@%77w67737776w377w73o @$37w77w7w36776776677w37$@xC3677w%+%77ww773737u7uw3u77O.@#BH377777777w3##77u7ww7#.O@xHHN@@@O o@wK*@*377773677677776676.X@%7776776673w777w7w3w777#@HH3677u*O&77ww77777w3770w777o.@%ZB7737q767376##7u777wu@ O@CJJx@@@O o@dK%@3767773w3w6w377777*.o@$7777w3w377w367777u6663@#Nx3677w%+7703u73ww377777ww7-..@%Jk3<7q3777773#@",
"++++@O@+O$watda33*%O@uwd*@*w7677763w7677w7u#++O7t777777763w67777q73q777%@sHu3w67*@@O+@++$%%%%%@O++O%7#o3uud7q373w7ww77$@++++O@++O*wsdds3%-%O@dud3@*w77777w777wu7776@OO@ww0733w37763w7767w777773%@xCw7777*##+++++%%%%%#O++@+%3@O3ssu777733w7776#@++++O@++O*pdssw*-%%O%pds*@37<3w37763w777776@+O@ww3w77w7w776776737377w77##xx33ww3*@@@+O++%%%%%#@O+++*7@O7uss77wq3767w76##+++++O++Owwdddu***$o%dad##7777w3677777w7773@OO$ww33w7777w77377633w73777@$Hkw3w77%#+O+++O%%%%*#+++++*<@@wwdu33q<33w7733@@",
"....   o@7Kk33377w7@*Hx7*@*<37w7w77773763wwO.+#BBww3w37367777767w3w7777%@dH77776*#O.....O@@@@@.....@u%#gHw77<3q3777w77%@...... o@wFsw37w37<@*Kxw%@*w7663w337776663wo @%HNw77777777w7w7w73677w77$@xG7776u%#o.....@@@##O.....#w%%xH73777www77773#@....   o@dFw337w3q*@3Js7%@*w3w6w6w3w3367ww7X.@*Hz3377w3w7w37677w7w7w777$#MC7773w*#o.....@#@@@O  ...%q$$BC<37q73qw3w776#+.......O#lHu337wwq%@wKd3$#77363w777777363w3 X@*Hg67w773w376w6w3w737w776#$Cxq7w77%@X.....@@@@@o.....*7#%Hx3<<<<qq737333@@",
"O+++O@O%xduw37q77%*ddww7***#3w773677w%o+o+O++7s3*776777w7763w3w77733w7w%@sHw3w777*%@++++wzzssw@OOO@oo+#sHw73q0q<777w3w**#+++O@O%zst7w777<%-sdpw7*3%%*u7w76w77%ooOOOO@ws**7763w7767373736u677366$@xC7<56633%+++++sdddg7+++++OO@+lH37777373u777w**@+++@O@3xdsw7777;%*xdww3**%%37677777w#oOo+o+@ss**0w7776773w7776377777w7##xC77773**#O+++@ssszz3O@O+@oo@$NB7q73773773777**++++O@+*lsw77777<$<jdwq7**$%w7777666u#oooOO@#su**67w3w77677777777w77766@$Cx77w776*#++++#dzzdx*O+++++o@$BC3<3q33<7w7w73--",
"######@*Hz677w777#$HN777w0%#*7773w777% ....+#zB%#7776777w377737777ww377%@sFs77w777-##%##sHBHBn####@O.O$zBu77w77w37776ww7$######3Hs7377777@%Hz7w76w%@*7w77w37w#.....@#xn@#77777q76373w7773qq<773#@xJ77q777w%####%gHCHHg#####o.+#zBu773w3w63737377######@wHs677777*@*Jx33<q0##367733777O ....@%Hz@%777777w377677677w37767%#zn7777w<q%####%xHHBHs@####..@#xC77w377ww377w3w3######@sCu<377<q*@3Fs377w7##77w77w677O.....#*Jd@%w777777773w3w3w3q3w773#%Mkq7777ww%##@#*BFHHC7@#@##X.#%HB767673w3w773067",
"3**6*3*77u7773766##Hl377776*%###$$oooo@@@@@7Bww6*#*73w67773w7w3ww777777%@sHw3w3677wxzlzzuuwuww*37*3#O7zwwu773w76w7737766*33**337ww7w77773@%Hz7376<36####$@oooO@@@@@wCuq3*$*73q377w7w37637<33773%@xC7777776szzzxxd7www77**33#@wzuw3w767777w7w7w763***36*7u767w377*@*Jk3q73q<<$#$#$@+oo@@@@@#dguw**#%w7w76w7w3767773w7w36##nn7777773szzzzzwuwuw7*3333#@szwu77w777377777767*63**336w3qq7q<w3@3Cl673773*#$%##@ooo+@@@@#xdwq3*@*3777377776777<773773@%MM33q7777gzzzzzwwwsw7333**#@dzww777776777777w77",
"77777777677373736$%Nx777w33w%@###@...o#%###sHu677#$37777w77773677777737%#sHw7773u7gHHNBHu3w*77w377w*@sFs76w3u<7737ww767777767w677777w03<*#%Bzww6w737%@##$@...O#####zCq<<*@%33<q<76777w7w77<q7q7%@CGw737wu6sBHZHC777ww7777w7%@zFu370377677677w3w3777w77ww7w37w7w3-#3Hd<77773<##@$@@...O####%zz37u*@%76u77673w77767677776##nB7w77777zHHBBBw7777777776%@NH7<77777776667w7w7773577ww773777<7-@wHs37ww7w7##@#@O.X.@$#@$%NN777%@*3777ww0677777q3w07w7#%Mk337w7w7zBHCHlw37767w7777$#NB737367w377w377736",
"77w6w77w3w7w7ww%#zz0w73w7776667673@@@*NNHznu77763@$33w7<36w37w777w777ww%@sHw677w773w737777777777777*@wHs<63w667767377w773w777w6<7777733$$Blw73777777333376@@@3BBHzBw3333<@%3q<3377677377w73q<33%@xC7qw73777u337777777777777%@sHw67w77677776776777u7766377777676@%Cl7q377q30333w73-@@@wHBCxN0w73w*@%w773w7773w3w3w376777##nBu03u7773w77w67773w77<777#@zN73777w3w7u7773636777<666777q73w*#-Cg777733737737*3*@@@sBBzBz07777*@%3w377736u7677q<77737#%CM<q737677w3w3377667777777##BB377w773w763w73ww7",
"7777767w6677777$#zNw3377777630777<%#$*CNNNNw67733#%%77w36673w7767777333%$sBw7777777ww3737777w366777%@wBu77w76w777767w77677w77663ww77w7w#$xz7777777377w3733#%#3HxNBBw673w-@%*337qw7w3777307q373<%%zlw377777w7776w77w7777766u%#sNw77763776w37776737777w367w77776*#%Bz7q7733q77777733#$#wNNxHxw7w37*#%36777776w7w7777<373*%%zz3777777777w377777w3667w3##sBu77773w373776673w7ww77737q7q3<33@-Hs7777ww77776773*##$sBBBCxw737w%#33337773677w33377773<%%xx77w7777773777w373w76ww6w##Nzw7w37367776777w37",
"w3w67w73u777w3w$#BF77w77767w7w777733737733773w7w773@%777<u7w3677w7w77%@uHs7777w77w73777w77w7777777w%@*77673760w3776w66773w36777w773w773#$HH77w7w77w773w7333737w7w7677773w7-@%73q3776777w037u7%@pHu3777w73w3677776637w3w7ww<%@3w77777w7w33w77<67w773ww7w73763w37@%Hl333qw307u77773303777w7777666<76*@*67773777777w773w%@zBu7ww3w6w3w77367w7w776u677w$#6w7w3w37777w7w3776773766ww703q<0<3@%Hd3737737667w3ww767777777737w73w7%@*w737w3w777wu7u7<$@xMq77<q3ww77377q7777w3767777##77w77w7w776w3767367",
"367777u63777367%#dz777w3w6767w363q377w3www777763w3*#%7ww773777w3%%%%w%@uCu<7w7777377w3737737w377w77%@-77677w677w7ww063w37763w377w777773@#gg77ww7ww3776<7777777w3673w7w7w773@%7777376777*%%%*q%@dH37777377763w66777w3w737776%#*w363w3673w66w3w3w7w7w7w677777w763#%zs77777<<737777773337w777777w7777%@%07w7w77777*%%%33%@zBw77367777377w7677377w77777$@*w7367w73w0673w7w6777w67677u737q<<@%Vd77q<377w3w767376777w3777wq77737*@*77ww767777*%%**q##Cmq77777737<q3q3<7766w36773w$#*77763637673w7w7w77",
"7773w776w3w6777#@373w77777767ww7<73q77777777677w7w3#$7773ww773w*...Ow*@wHu77777ww0w7777w773w7763w77%@*u76w77777776777w77677w773w3777773%#377773337<7w376w77777w77767737777-@%3777w7777u%...@w*@dC073w3w7677w776w3w77377777w%@*777w7777677u777737773777773w7w773##77u77777uq0w3w37733w7777w7776w77w*@%w7373w3w7u#...#w%@zN0w67763773w7673w3w77w77w6w$@36777777w73776773w777w7w37673q733-@%77w73qq3w773767w7773w77w77733w737%@37773767767# ..%q$#xxq77q7w7w73q<<3q77<6u7w77w3#@67773w7w77767737777",
"6w377777w76777u%#377w37373777u77q337777w667776777q*#%77<7u7w66%#ooOO%#@uCu7777763u77777w77w7w37w7***%*77777w7w37767w6777w7w3777777w3u76#@37w7w7ww777w7w777377w036777w3673<*@%773w36676%#Ooo@$#@dHu7777w7w7767w6w7367w377w7*%%*777677w7w37u6777777376ww7767w3736#%33w37w36w3w7776777q33<q7673777777*@*777777777##ooo@$$@xCq3<7w3w77777w6777777ww77**%%6u66776737w6777w37777u777777777773#@7777q3<667777w7w776w3767w7w67767u%@333<77677*##Ooo@%##VB6777w7737777w3777w7u6777**%%667677777w677w7w677",
"77w777w3w777736#@7w7777w7w773w67q<q77773u777773w7q*@#qqq6677w3..@@#O.o@wHs7377767<w7w67377377676w-@%ww77w7767777w6736w67377677673w77666#@3773077377337373ww777u76w677766<q*@%q7<766673..@@#O O@dHw7777676677777w7w677777w%@*u777776737767w6776667w77677667737w6@#73777776w777776773w7q<3<37w3w66w3*@%w777www7%.o@##o.O@xGq7777773w7777w777w373w77%@*7667w77<7w736w6777777667w673w766773@%37q73q7773w7737367773777773w7w6w3*O*7663w67u%.o#@@o @@HBw776w66w77377w76w3676777#@6w777w7w7677777677677",
"66366676u37w7w7*%%-37777737767w73773737ww6w3w77777<%%%*<7<##@@O@ww7*o%3usu7ww6667w77667w3777w77*%%%*7773737w6773777u7767767666737373w76%***37377777w6777737777777777w77u7q*%%%3q77###@O#wq7-o%3pdw77677766w3677773777w7*%%%*7773w7w7667667737376w377w376777w77**%%*77373677uw676w7q7<<q37ww7667777*%%%77w*##@@O@w00$o-qag<77777373776767w37777u**%%*67673w36737u7766w66767w7373ww77763**-%*3q7w7767737w777w37w66737w67w777**%%376*###@o%tw3@o33ss767677w37ww77377777776**%%63736366776w367767u67",
"7u77u3w76ww773w77##330w7u00w6w6777w0uw3077www36777qq*@%q7uo...@$HHKs@0Hs36776ww07w7776w0w76637w3@%wq73w07w6366uwu3w6w77ww6u76u7ww07w07777@@77wu76u763w3w7ww37u3ww77w36673077*@%wwwo...@%JJJw@pJp73w77ww67u3w7ww77w3w77u*@*s73w7w37367u3w7wwwww7u3w<66uwww377ww77*@%7w07ww7776ww003377qwq3w3777wwu73w*@*u77.. o@7HHH0@xGw730q73w0w0www3w773w3w37%@*u3w73w77u6uw76w77ww67ww776www777wu7ww7*@%w3703773ww307w76u777u7w7377w7w777$@37u*....#*FHF3@NH777u7w77w7703773ww77www7%#*ww77w7ww7776ww7ww3w366",
"7w67w376657767u67**%%3w3667w3w76w77777773777773w777w*@%w#O@OO+wssss3@*sw67677w3w7w777w77w373776*@%7w377w7w377ww6767w377w377w3677673w3777<*&%*3776w3667776373777w7w3w<33q<<q0*@%7#OO@O+wsdud*@*s777377w367777677u77w377w%@%w77w373w3w777w<<7777w757673<77w76677776**%*7w77677776w76777w77w366w777777u%@*7@+@OO@susss*@3dw7q37777w77773w377w3w773%@*7377w763736<777w3w7677677w6677w77773773**#*366w377w36737677w3777777w677w77%#*7OOOOo#sussw%#7u673776677777676777w3w3w7$@*7767773w3w76777w3w773w",
"733w76u77<73w7733w<##777767763773766773ww77777777w77*@%w@.O###BB777*@%6w777776776w66776w777w7773@%77777773w76w776677w776776377637767u77763*@#0w677773w677w7w77w37377qq<<q3<3%@*wO @#@%Bn337*@*37w7w763w77763w7733w773w7*@%7773w76777777366766637773ww7773777w3w777*@%7377u776377w3w377w7777737667730%@*wX.@@@3Kx337%@333<3q<7773w3w677777377w37%@*7767377w7w6677767773w367w3w77607667w7777*@*w7w773w763w767773w7w766773w763w%@67XX#%#*Fg337%@3767w776w77w673w3w77777777%@*ww77w367777w767677w777",
"77w777w7767w3w3w7@O@#7ww7w377w7777w3w777663w7ww3737w*#@oO@7xsguww67*@%777777777w67w3w767w3737w7*@%<777w776776w7777733w377w3w6w3w7w370w773OO@%77777677776w37767377w7737q3<3q0*@OOO@wxzssw773-@3<7ww3777776w3w3w3w736666w*@*377w3777673w7w5uw777w37<770377776<7337*oO#%676667w7w77367w7737w37777w3w770%@oo+@szzsww377%@333qq337w3w367777677w3w37w*@*776773767777w07777677w77366777w7w3w7w0&oO@&377w77777w7777676773w3w77w77773#@ooO$dxzsuw777%@*w63w7w7w76377w77363777w37%@377363w77673w7w77773777",
"77376703u6777777*o.@#77777677w763w773767u77773777w77*@O.O#sHCH7777w*@%73w3w76w7777773767777w7733@%77w337w376677777w077677777777773w73777*XX#%763w3w73w77767777u77773q7<3qq<3*@o @#gHCB77w<3%@%3<777776w3777777677w77773*@*337777767767733w373w77663ww7663w3w7w77*.o@%677<u3w73w6777773w777663w77377w%#o.#$xFCz7777w%@%333<<q77777763w3w77777777%@*773w7w773w777363w3w77773w7w77676773773%.o@*<w736676737w3w3w376777w676776w0##oX@%xHHz77777%#*w777733w73w773w677w773w77%@*w7w7777677677663w3w777",
"776677w73q77<3wO.o.@$777<33q3q7<67677w377777w766777w%.O@3luuww7777w*#%77777w3777w077777ww377777*@%q7<q<<7w7777773w73w777777777777677777Oo.o@%33337q7q377777w77w7737766<7777w#.o#uBuqquw37w0-@333u73w7377w77w7w777777777*@%7777<<7w77777w3773777773777777w37w373oo.o@*37w3w3w77w77777777w777677w3777w@.O@szuu7u3ww77%@3w777773w776w37w376777w37u%@%77777777773<0<<<q337qq3<77777w7773<q*oo.o#*7777777777777<<<33w777q3<<q0<3qOo@@kxuuqq77w37%@*77ww673u7777777w377773w36%+*u777w7777777w377777w77",
"w777773777773<3o..o#*777qq<7<773676777w777w777677673% o@wHw37777733*#%*37w77w7777373w37377766763@%3333<q77737773777w33w7w6766766w37677*o..o%%37<q73<7<77w37377377w3w63677777#.o#sHw77777773%@*3367777w7767777777777773w*#-w77q7q63<5w363w77w77737w3w77w3777776*...O@%377<7<337373w73w37377w37*77w777@ @#zZw77777377%@*7773w3777777w77676w773776%@*37w737w3w7<3<003q<w73<3q777w77777q<3%...O%%w77w773ww777q7qqq77777<qq33<q3qO O#VC777777737%#37777w7w776w73w7767777w773%@*7733337773w377777w3w77",
"w6ww77u7w33w0@.@@@@Nzww303u<q3q<ww3uww37qww7ww3uw77u%.O@wJw77wu77ww76*@&3ww3w33ww77ww7u6w3w7703*@%30q0qqw377w73wu7777u7703w3777uuww07O.#@@#Cz3w7w377q<37ww7wu7w777wwww77w37u#.+#sHww777www773%@-77w3w0w3w3w7w7qw7wwww37*@-wqw77w7373w77wu777wu7w6u6w7u0www377o.#@@*Zd77w7wqw7w7u7w0w77ww3uw77ww7q77w@ @@zFw76767w3773%@7www0w3w3770w77u70w3w777*@*w7w7733<0330qq<a0337q7777w7uw0qqq0<.o@@@3Cz37703w0w3w77wqw03377wq<0<0<030qO.@@MC7w737w7ww6*$#70w36w33w3w37w77wu70wwu7%@3u77773w77073w3ww7w7w33",
"77773w77q7<<%Oo#%%*Nz377q<773w3<377763w777373777377*#.O@uCu3777367377*@*777777773u77377677377w73@$<<3<337***3733767766767776w7777*33%oo%*%*xlw7777773qq377737736766677763w7*+.O#sBw7777777773%@3w767733376w7773q7377773-@%*3w77773*33*6377w7376767737737376**oX%%%7Bd77w7777777777377677q737777777*-O.@#dBw3w76777333%@3w7777777766666673777766%@*37377w3--<<;<333q<q737777w67737<3-%oo*%%7Ns7777777777773<3q<q<737wq33<3<;-oX@%kx777q7377377$#33777777777763673773337w%@**7w7773**373777777777w",
"w37u77w7w77#.@@xHFN377w7w777qqqq77776777<<77<w7qw3*.. o@37w7777w7w377*@*w37w373776w77377w3w73w3*@@@*33037o.@@@%377ww7w36w377377777u@.@#xHCB737773qq<q<<0777777w37w66676777% ..o$*w376u30777w3*@*w77777w7u6777773w77777w-@#@*qq77<oo@@@%77wu7u7w7776777w3<33O.+%BCZx77737qu<777w77777ww67q7737373ww#.. @@777w67w777773$@*677777w37w77w377u7w7w7w%@@@*77<w*.o@@@%3q<77w73776u3w37wqq<oX@%CNCz77777w37u33<7w77777737w37<<03q<@.. @@w77u77q377w73@#677777w377663u677777ww7<$@@#*ww3<%.o@@@-37w3w7777",
"%%%%%%%%%%%@.O@uxxxw777%%%%-%--%37776777u<773%%%%*%ooo@3*7377w6776w37*#**7773ww76u377w677737777<%$$%--%%*Oo*3%%33%%3***%%%%%%%%%%%*o.O#dxxg77w*%%%$%---3w7<37ww776677%%%%%@ooo@36777677ww7766*#**76w77376677q77w37w7770-#$$**%%%%oO**********%%%%*%**%$%%%%o.@#zzzg777*%%%%***%3w7777767777w7%%%%%#.oo#-77773w36w3w73*%**677737w773w763w673737s%$%$**%%%#oO----*--****%%%%%%%%%%%%#XX@$kxxd77w%%%%%%3%*337777<7qw377<%%%%%+Xoo%*3777w3q73w36<*%377<330w7777w66777377073-#%#***%*#o@**3--******%%",
"....X........O@*77777u*.....O@@@373366w7u<u7qo.....@@#7Ks337w77777w7776%@*777<777w76w77777q<q37q73q-@O   @#BHHs@@@#@#@XX.............@#*7uu77u#.X...O@@@677377ww77uu7o... o@@@sHs3676777777w676$@*77673w3w77<7<q7637773qw77*@o.. @%CCHs@+@@@@@X........X.....@#77u777w@.....@@@#3766637w77w7*.....o#@@sHu77777777737773##37w7377w77777w76676w77777<%#X..o@*HHC3@#@@@#@.............oX@$377777u+.....@@@%77w3<333u3uw%.....O$@@xCw377q73<77w7777@#6637777w36773777w77037q7w6#@....@3CHH-@@@@@@@..",
"oooXooooooooo%3**##%###oooo.-337*******%###$#+oooo+***wxw3w737w776w7w7w%%%*****37376373w7733q<737<<$OOOoO*3zzzu%%%%%%%+oooooOOooooooo***%#####@oooOo%3*<***&**%$%####oooOo@6*3uzw6777767u777777*%******77777<<qqw3w73q77337@OOoOo-3lsz7%%%%%%%ooooooooooOoooo-33%#%%##@ooooo*33****%*3%%%####OOOoo#333szw3w73w77773w7<5%%****%3766676737777737w7777#+oooO37ztz3%%%%$-#OooooOooooOoooo*3*%#%#%@+ooooo33******-%-$#%###oOooo$337dk7777373q6737w7**%*****33773w7w777777u777777@Oooo@7ugsg%%#%%%%%oo",
"##@@#@@@@@@@@dK*@...  o@@@@@sFKC$@@@@@@o.   .+@@@@%HKKz37w77w77736u<777w3#@@@@#7u77w777777w37773w0w@.O$@#zZw777766677w####@##@##@@@@@xH%@.....o@@@@@xHGM@@@@@#@o . ..@@@@@*JJKd377w7w3677777w77w7#@@@@#w3wq3q<<q363777w3wq7+.@@@%VV3777w3w7637%#@@#@@@@@@@@@%VH@@     O@@@@#BFHN@@@@@@@o  . .@@@@@3JHCu<77w7w3377ww3736w6#@@#@%7333377777w6777w377wO.@@@%Hz666763w7766#####@@#@#@@@@$Cx@O .   @@####HCFd@@@@@@@o ....#@@@@uFLJwq7777776w3ww67773<@@@@@*<w3377w377777w37uw73..@$@%Kx776777w676*@@",
"********uwu37pd33OOOOO@w7uwuddss##0wqww%OOOOO3wwww7wusw77773373ww76667777******%%&%%*777w3777<7<@@@+o%7qwss77u66773w7w**%%%*%%%*wuwwuds*%OOOOo$wwwwudsxw@%7w033%OOOOO7w7www3wdw77737763ww3w667777****%%%%%%%333377w7777*@@@+o*quwsd<73777w76w7*%********7ww77ds%%OOOOO%wwuuwdssw@*w7qw7@OOOO@77ww733wxw7773777w773777w736*%%%*%%%%-%77w76377w67%@@@OO3wwwgs67777777363%*%%***%%3uuwqudu*$OOOOO-ww7w7ssgw@%ww333@ooOo@7777ww7dd73w3w773777766777w3&&*&&%%%*%%373w77773w7##@@OO73wwdww777777w766*%",
"77w77w*dZKHHHd373##@@@*KHZHHd333@@HHJHKw@@@@@xJCCFx@%777w7www7u7373w77u7w3w7676@@@#O%qq777w3quu*...o@dJHFs676w7u7w7w77777w3w7u6sCGCFHw7w<##@@@7HHHFHu333@*KHJCH7@@@@%NCHHFsO%777w37w7377w7u6w3w77w07w7*@@@@@-0qq667u7uw% . +@xJZCw33w03wuw7w776u7w77w77zFHHHCwwq3@#@@@tKHCHCw77*@-HHHGH<@+@@#HHHKKu@%73ww377w777w7u77376u60w73*@@@@@377777wuwwu# ..O@zKJB77u7wwwww7w77w77ww7776gZCHJCq7q-@@@@@dKHCHHu77*@3HFJKJ*####*ZHHHF7@3333773u3w3wu77767u7<3w337&@@@@@*3777qqqu7u+.. @%NFFx77www3wwww3u60w",
"7737777wsuudsw773##wpdpuuussww7733%3usdw*****wudddw*%%*777373777w777w3767737776%****%$%%%%@+O+OOOOO%dussw0w7777777777w773w737w7waadud777*##utpuuuuss77w3***3dus3--%--wsswsu3%%*73w777w67767777w7w737777*%3**%#$%%%OO+OOOO@O*aauda3<q7773677777637337q77utswtd773*@*spptuuausw776---3duw3-<***dwdud7*%%*73w73366637776w777737737*--3*%%%%*#OOO+OOO@O7ssddu76w77776776w7w77776773uduudq7773@-pdwssssuu77773**7pwd***%%3susus3*%%337666w77767w766637373773-****%%%%%#+O+OO+OO@wtsssd777777376767737",
"773ww77w777777737#$HJKx777w7737737@$37w3w0w7773333wq*@%7w6u777777w337777737777www3ww%@@@@@......##@wKd777673736767<6w367777w307737777w7w7@*KHKx33777q<77w3@$777w3qqq7333777w%@%w7777673w777w37773ww7737ww7wu%@@@@@.....X##@dFw67333<q37w667w377w7q<337737733777w7@3HHHs3733<67763-@%33370wq3<3<qq<<q%@-w677w77w7w7w77367677776ww3wq7%@@@@@.....o###gHu337777w37377w637777777w777377<733w*@wJFJs7333777777*@&773w777u77777773%@367w7w7w3766777w7wqq3<w3qq7777@@@@#O. .  @###zB77677777w7w6667w367",
"777737733ww3w77@O@#wwuw73w36ww7733@#7777q3q<7q<3337<63*#*767w377777ww3w37w7767377w*#7gxsgs#@+++#gdxsu777767w7w7777<67w6773777w77777q773OO@$wwdw7q77733q7w*#$u777q3<<773www7733%#*6w77777w776q777w7377w<377*@wxzdgs@@++O*zsdds77377q<q<737<77w776q3<q0w7qq<3q777OO@%wwuw77u7773w33-@%73q733<3q73q3303<;%#3777663737377w677<w3767737%$wsdxguO@+++*gdsuw7777777777w7777w77673w7373w0wq37q*oO@*wuw7777377w77**@*w7777773777773w0*%%$637773w77773w373373q773773*%szxdkq@@@@O3zdguw07777737373776w763w",
"7w373ww33777777O.@@77w7777773u3733@$77w7qq<377qqq77777*@*67w73w37776377w77w3676377*@wHNHHH%###@*HCJs77w3w3w77u367w6uw7777w777ww37377w7*o.@#73u773<q3q<3<q-@%w3u3q333773w777737%@*63w7w77u6w337q<w677w77777*@uCCHHH%@###3HHHs037w7q33377w70373w37<33q773q3<3777*o.@%7777w777w7w763*@%37773<7q33<<<q7q3q%@*6w777w36776w777366w7776<3%@uHHCHz#####uHHNs376763w3w37776w6373w7w37777w773q77-.o@%737w7w3w377w37*@%w7377w7q77w37w7766$#*77776777w6w376w73<qw37777$@xHHHCg#@@#@dCHH77w7777www77w77w77377",
"73w777770w773w3O.@%w7777677766w733#$773733<<q33<7777776*%#%w7w773w73w77773w73w7w7w73*$373u3**<3*%%u3w777773767w7733w373w73w77377qw77773oo@$77777q3<<q33<q<@$777w<<3<3w7777777<33%#6773766776q<33767733w77377%$3u7377*6**#*ww777w77<q77777w7767677q3<3q<<3qw777*.o@%w77777u7776737*@%7377q377<qq3<3<3<3<<##373w776776373ww7677w<6333<%%<uu7*6*37%#3ww773w7w7777737776w77773w3w7733q<777-.O@%ww737777773w76%#*6ww7733w73w73w7w7733#%77w376777767777q<33w773w3*%%w7qq33333%#7u77673w777377777677w77",
"777w3<37w777***O.@#77737767w77737*##3w67w7w7w77777w37777*@*7777w7777777q33<q77w73077*@*776777w73@%<3q777w337777w7w3w377w3w363<7737733**oX@$7w07w377w3767w*#%73773q<3q7q3w36367ww%@*6777w3<3777<q777776737777%@*777w7w3w%$%76777776773w3w7w773qq7q777w3777w33**%oo##77777703w7w3w7*@$6w6w77767677q7q3677w$#*7737737777qq3<<q3w373<7q3$#<<7777w37%@*7w7377377w377ww3w373677w7w3777w77***%oO@%w777773777773u%@*7777w36u76777w36w667$$<0<33<773w3ww777w377777w7w##7677w7u77%+33<77ww63737377773w3w77",
"w36333773w<#.o.@@##7w7w7w363307w76@#7777w737376677w73w67$@*7ww73w3u7773w<q7377377w73%@*w73w3777%@%w77777q7q7q3737377w773777733773q7@..o@@@$77373w77367w77*@%777w3<q33<77777w6777##377w30q0q<3q3qw7w7767w3w66%@*w7636767*@%w777w777767777w0w7<73337w77777737O.oo@@@%77w777w3077777*@%6777w67373w337777u77$@37ww3ww777<377q3q<777w77<3$#333w77776%@*777w77w7773w3w77777w6777w7777*3w3o.oo@@@%377<37w3w777w7%@%773w77777663773w7677$$33qq<qw7u7777777773ww36376##667737776%@*u777377w7w7w7777777777",
"3w77*3%***3@Xoo#%%%673773w777w76**##7ww6667677w63q377767*@3w*33*3***w777737777737w7w%@*7677ww373%%*777773773777q7w77377w77663%%3&<*O.oo#%%*7w77w376w3w36*%@$w777qq<<w773w3777373%#*63*6**333<7q<6667w36367ww%@*7w37777w*@*667777w3667w777677q37w7737%%%***3OXoo%%%*77w3377777777*%#%7w77377w677w73777777##3<***33-*3q7737737767377qq$#*73777w7w*#*3677w377w77773w676w7777733*%*****OXXO%%%*77w337777776**%@*0w77w3777w3w7777w677$#3<3*3;-**77w7777w336777776##*7777373u%#*333777w377w3w37w37w377",
"7776.....o#@@@@lHCBu7w77w7767773o.@%637776763w777<3q776u$@*3$@#@#@@%w3w3ww773w7w7377%@*7w77677777%@%u7wwq37ww773777u777777u*..   o#@@@#xBHB737776777777*Xo@%7ww7<33q377377777w7w$@77##@@@@@%u7037ww7777w773w%@*u77776737w%@*wu7ww7u763777773q<7773w*.....O@@@@$NHHz6777w67u7777*.o#%7376w773w7777w773w76$@33#@@@@@@%w7qqw77773www337$#3ww77737037%@%w73w7737777w0377373w77w@.....@@@@@%CHHz7777ww73w767%.o@*377777767767w3w77776#$<<@#@@@#@*u37ww733w77777w3##773q7qw0767#@<0ww77677777773w77773",
"7w*%ooooo@**-*%dzzz7776337w66666oX@%766w77w6667w77777w37%$%*3**%*****%3%-37777777w37*#**3777w3737*#******777377777737777w3*#oooOo@***-%dzzz76663663w77w*Xo@$q377773w737737766777%$%-***%***-****367w777777w7%%**377376733*%%*****6773773777wq<<777%#ooooo$---%<dzzg3w76677wu666%.o#%777736667w37w3677w66%-***%*%3%--****-33<7777w7q3*%--777376776*$*%**3*7777777777766667<%@ooooo%***%3xzzs7737637w3776%.O#*w7777w36w7w736767776%#*****%**%*****-37w3w67733w%$3*7w3377737*$*3%3%66677773766677ww",
"00X.@@@@@3KGCCGu3w77w76ww7w07766..@#ww777wu77w77773w300wqq%@lHCHHFHs@@@#@*770w7uu7wq6u%@*u3w3w7www3-@@@@@7u7www77u7ww7w7w6XX#@@@@wJHJHHw777w7u7w76u7w377.X@%wq7u7ww77w3ww7u67ww6qw##BCHFHFKw@@@@@6777w77730777%@377w76uw777%@@@@#377w77w7wu3w7q7w*.X@@@@@aCJCHHww77w777ww77776u*.o@%3www7u7776w3wwwwu3u7<7@#FHHFKFH3@@@@#7w7773w073w<7#@37w0wwww7w7%#@@@#3w7www7uww77u77w%.o#@@@@dGKHCC36637ww76773ww7u%.o@%w7ww777uw307u7w0w7ww<<@*CKHHHZH*@@@@#7w77w6uww7776@#777ww3ww7w7$@@@@%7w77u7wwww7w777",
"##+O3*w3<wdkggk777733777377w77%#OO*7777777667w7777777777<7$#agskzszw%%%%%**7337777777w*%%%6677w77773%%%%***%***77w7777<<%#oO73337wdggdgw777377w6776777##o@37773777w37777666w67w3q<##gdgszdzw%%*%%**773777w37w7*%**w7776777w*%*%%*****%737766773<%#o@3333<wkakdd36766677w3w7w73##O@*36776637777777777677333#%dlsgssz3*%*%***777w7373777*%**3w3777777*%%%%%*%****766777376#@O@33337dkdgaaq67w737w3w7773*##.#66w767w6777767777w6677w*@%xdxdgdd3*%%*%%-77777377777*%**w70377777%*%%*%*%*%%*676777w77",
"..+#BHHHJd3337773w7w773w77777uo.@$HB3w73w77673w3w3w377w37q%@*3376777770w7#@*7w77ww77777w$@3777377777377q7@@@@@#u7wwww7qw..@%HHHHJd37733773ww777777w776X.@*Hx77q3w777773ww777777777%@33777*3777306#@77ww373w7777<#@373w77w33u7777*#@@#+%w7u77q333..@-HHHHHu3<3337w77u77737w6773.X@%Hz3w777w7763w37777677w33#$333733377<307@#3w337q7w77777##6777ww77777w7w3@@@@@*ww7ww7w7* o@3JJJJJw33<33<6u3777773667u%.o#7Hs376776w7663w66777w7733@$737373<33w777$@77ww77773w763@%37777w7w7www67*#@@#@*u76uw77w7",
"OO7usszsxw7773w3w3737777737w7wo.@%Ck37q30377w37w7776777377##*77777w667673%@3w7w7777w376w%@*65<773w3w77777******%%%%*%%%%OO7wddddduw<377w3w37677ww7w377o.@%Hz37ww6w6777w7w7w3w37377#@377w0w37776w7$#*77777w7w376u##7777w3777773777******%-%%%%%%%O@uwzsssaq7q33<q7773777w77737<.o@3Hk33<7377w377ww7777u73<3@%3<7736777w7w3##3w7773q37w377$#3677w777w367776%**%**$%%%%%%%%O@uwssdddw777w337w3776737777w%.o#7Hd7377777w7w673w30777733@%7<q37w3666673@%766w7w377w7w3@%3<w37777w73ww77%*****#%%%%%%%%",
"##xB7737777q7wq7777w3w3w7w7777O.@#Cn<7q<w777w777w673w77w7w%#*7w73ww6777<7#@337377u73777w%@*u773w7777w3w77w3077*@@@@@@@@@#$CBw77773770w7777w77w77377677o.@%Fx773777w777373676777w7q%#3777377763777#@6w3ww73736766#@777w77w773ww77733w37*@@#@@@#@#@%Zz77773<3w7q<3w7ww7677w3w07*.o@%Kx<377w777w776377373qq<3##33q7w77673777@#707w777777777@#3w7777w37777w37w77ww%@#@@@@@@#@*Fs3073q777777w7777777w77q7q%.o@3Fs33773w7w666w6770w7ww73@$q3q<73u67<3w*@$77w67773w3666@%3373776737<737777377#@##@@@#@@",
"3*wu7777w7773q37777763777777#O@Owswu733<373337w7377w3777#O@#3w3777w3777673*%%6w67w3ww766*6%%37777w773777777w773***3*3****7ws377w7777777767377w737376@OO@usuw37776636773w73767773@O@@37w7w7777w77w3*%%377776w6677**%%7773037w37w37777w7************su77w3777777q3777773773q7w@OO@sssw777777333w37777w7737@O@#3<3<3767767373*%%3737777<7733*%%33w7w77637776w7w77*3*********7du7777u77777773ww337777w7*+OO%ssww7777773w6777777w6677@@@#3q3<7ww777w7733#*777w777w767**#&777777w3777777ww773****%****",
"77w73w7u77u7<73w3www7w773w7uO.@#zHw77w3qw7w37737w773w77u@ +#%777773ww6w6<67#@67777777777w7##37w763730w73w377w3w77w7ww37ww7w77777777q30w76u7777uwuw77o.@%HH77w7777u773w777w7773wwO.@#7737373w73w6766##777w37777ww63##w7w0w73w77777ww37777w77w77www7730w77777773q<7ww3w0w37w7*o.@*Hz77w30ww77w77673w73w7w7o.@%qq3qw777w37w373@%7w7w3w763w337@#u777373www776776776wuww7w3ww7w77w77737w7w773u73ww7u7w37<.X@3Hz67s77w7777777777777<*3..@%7<3q77337737w7%#%w7637773777w*@&w7u33w3w7773w737777www7w7w7w",
"ww3777733q30qq037777*OOo#w37#Opdwd77q%o+OoO*76u7377ww777@.@#377w6777w777773$#77ww7w77367@ooo$%w7777w337w77<3337777777733777w7q7777w37q7777w3*ooo%77u#Osgwu<3<%oOOoo*w777w3w36777O.@@377w777w6777w77$#6ww0w77777w+ooo$%w73w3737777q3q77777w7w77777w77777733307w3777ww$OoO%777@@xdsw773#oOoOO*w7777377w377o.@$<q<337773ww77w3@%77737777ww3OOoO%%77777777677777w3w7677777777w33777w37w3w33w777u#oo+-w77@@dduw337@OOoO+6w777767w377*X.+%737w367w3w773u*#%7767777w77*OooO$*0w7367ww3w3w77ww377w337777",
"7777777w77703<q<7777*...+77u%#xCw77<3%... .%767776737ww3@.O#*7773w6733w7777#@7773737ww67O...@#777673<37777737qw73w33333w777377773w77q3737677%...#677##zB73337#. ...*777776776776O.@#77373w77w763377##33*37777766o..X@%77777733777373w3w7777*33w777773q77333377w77737#...%777#$Nx37737@... X336767w77w777o.@#33<qw7w37777773@$377w7776373...o@%7367w7w766w777<6777767*637373*3773777w7733777u+...-<77@%Cx333*3O....o33777w363w7w3XX##7w73w77773w767*@%w7w77u7367*...o#%w77ww7*37777w777w77773377*",
"$$%@Xo##%+X+$#%##Oooo@@@%377@.#%###@oo@@@@@@$3w3777w77#o..O@3w7777w77777w*7o.###%#%766#XO@@@3*7777w#o@$$%##<w7377w@ooo@$$$$@oo##$OoO#####oooo@@+%366Oo#%%%@@oO@@#@@$$33w77737w#X..@@3737w7776w3ww73oo$####%767+XO@@@3*7773w#o@$####333377w@ooo@$##$@X+$$$oo@$###@ooXO@@@3777oo$$$$#@oO@@@@@##666w77777@XXX@#733q3777777w77-oo#####*777OX@@@@*33373*OX#####%67*7776@ooo#$###@oO##%oo@#%@@+XXo+@@+*w7*oo%$###@XO@@@+@#%66<667777+X.X+%0w773773773777%.O$#$##*7w3oo@@@#3677773oo@$@$#%7733737Oooo##",
"#@$#Xo##%+.O$##%#o..o%#@%3*7+.@##%%#.o%#%$%##37667637*#.o.@%*77w730767w7733Oo###%#%7*6@.@%$%*36*3**#.+$$$$-*37*7*7@...@%@@$@.o%$%O.@%$$$#X.XO%##%33*O.####%@.O%%#$$$%3<*667w3*@.o.@%3777w777776763%oX$$$$$*763O.@%#%337*7--+.@%$$%%333*<**O.o.#$###@Xo$$%O.@$$#%#X..O%@@%7**XX$$$$%O.O%%%$$#%766373w3*O.XX@%7q3<w773w7777%-.o%%@%#*73*oo#$#%7333336oX#%##$%3333*3*o.XX$$##%@.@%#%o.@$#$%@...+%#@*7**oo#$#%%O @%%$%##%333667u77o.Xo#*3777w77w77w77*%oo$$$$$*6**oo%##*<67*6*6oX$$%$$*7**3*3*oXXo%#",
"333*##BBCw@wNVCVm$@@%Cp#@...@@dCBBHg@%CxHHnMB*@@#777%.O@@@sCw77w37w777773+.@@xCxCMa@O.O@uVHx%@@@...o#0BBBBz#@XXXX O@@@xm0373@*CmVq@wHHCCj@@@-Gu@o.o.@@xxHlHs@3HBCCJxj%@#%3qq#.O@@@gBu777u7w7w7777o.@%lCCVCq@O.@@xHHx##@O...@@sCBBCx#@.X...O@@@xH377*@*HCH%@jCCCMz@@@*H3@O.o.O$mCnMH7@uVVBBBBz#@@%7w0@.O@@#MM77777w3w367w3Xo@*BBHCC<#o.@@xCHs###O...@@zCCMCd#O...o.@@@#BB337*@3CHH%@xBnNHd@@@3C3@o.XX@%xVBBB3@wHlCCCCz@#@*733O.@@@$Hz37w377w377773.o@*NNCBB*@o.@@HzHw@@@O.o.O#lBBBHw@O.o.o.@@@%xV",
"7303$*xBH3O*Vxmmx%$$%dw@OXX.@%xxBBNs#*NzCxxnB*###3%3$.@3%%sN73773wq37773%Oo#*xmmxHa$@.@*dNVx%#%@XXX#%sBBBBx#@XXXoX@;%%jxw77*@*CxV3O3xxkBj%$$-j3@Oo.o$*xClCls@3BBnxMCx%#%@<%%@o@*%%gB63w66667677**OX%-zzmCxu#O.@*zNld%#%@ooo@*szBxBx@@oooo.@-%-xxw7q*#7xMn%OqxxMMz$%#*d-@O.oo%*jmMxCw@wHxnNnnz%#%%*--@o#%%-xxq7777677777*%oX%3BzCxl3#OX#-xBxs##%OoXo#*anMxCd@@ooooo#%%*zz737*#wzBx$@wznnNw$$#3d-@oXXo$3xVBzB3#uNNzNnxs%$#%33%Oo#%%*zg777777w777w*%Xo*3NMxBB*#oo%3lHHw#%%O..o%-lBCxCu@Oo.o.o$%%;Mx",
"7w3777ww7% O@-33q777-.o@@@@@dKu777w777ww7777w3w77#O.o@*CCH7677777<q<737+.O#xVq<<<<<3%@wJu777773-+##0Hs77737#@@@@@@3GCCw337w7w7u3q@ O@*3<7733$ o@@@@@dH03q37w3<77<73<773q3$OXo@pCCHw3677776w677uo.@#BB777<7q7%@dC007777w*@@@wCu3w7q7@@@@@@@tFHCw777777777q+.@@3<7q77w#.O@@@@@NC77777777777w73377w-@O.O@dZCCw77w7w7777677o.@%Bz777377q%@xJ7737377-@@@dCwq3qq*@@@@@@@xCHMw777w37777wO @#<7w777q@.O@#@@#Cnw77777777w77777777%#O.@@zHCB7777w777w7776X.@*Bz7777777##Bz3777773#@##zHw77w7%@@@@@@@xGGxqq",
"77777<%%%@o@*3337777-oO3----wdw377337777777777377@OoO*wzzzu677w3q33q7ww+.O#xHq333qq3*@uKu777773*%%#0xs7773**<***--3xkjqqw7777*%%%@o%*7w37733%o@*3***ud3<<377777777q<3q<0<OOo@-uxlzu67767w777777O.@#BNww7773w%@dCw773777*%%#uzu777***3***-3szll77w7777*%%%Oo$*377777w-.@--%--ddq77777777773ww<777-OOo#*dxgj77777766w7676o.@%BB7777773##xV7ww777<*#%%dx7<3q*-***3*--dxxgw73w777*%$%Oo%-377w777#o#****3ud7773w77w77777q3w77$OOo%-slzzw3w3377777<63XX@*Hz3773w77#$BN3777773%#%%sl3773%-<<***--xxxg<q",
"www77*.. o@uHs67q3u<7@*KGJJK3@-37w7w3w3wwwu7w3w3*.o@3Hz376wuww767777u7u+ O#zZ73wwqu7*@wKu3737wq7u77wq73qw#@CCCCGHHx7q77ww7w73%.. o@dJu7wwww7*@3GCCGC%@7<q7q0wwww7w7w30<0; o@3Kd73777w376w77s77uO.@#HBqw77q7w%@dKq77w303w<3w37w03<#$mCJCJHHu7673w0377u#...O#xJwqqq3wq*@pJCCCM$$7q7uq3w37ww37777<u%.O#wFs73w3ww77www6w667o.#%Bz7w3wq7w#@xCu777q0wq7q37<q30<@%GHHHZCCu3w37777w37@ ..+#HFw33777w%@dJHJCH@#7ww3u7w70w777u777u# O@sJw7767w67wwww677w6Xo@%Hx7w7w007#@NBu70www3ww3u67773<@;JHCCGHHu37777",
"7777*%OoO@3wzu777730<O@wpkdk<%%*w777777w77777777<.o@%su36337777373w677w+.@#gBu73<<73*%*w*-<3q377777737737#%xCxkdgzw7<<777773*%oOo$7alw777377*o%wdjdx*&*&77<377367777<33q%oo@*dww77w773w37676677O.O#BC777777q%%7a**777w77w<7w73w73#$Hxdxdgzw7776377w**#oOo%7ddw<<q777%O%pajja*$%*73<q3w733w777777#.o#3gw7777737737767777o.+%Bn7w7q<77**qw**3w<3q<773q3q<q;@%CNssxakq777w377333@oOo%7as77w7q7w%o*sdddd%%%*776637377w73w777# @@3xw776w3767777u7736X.@%Cz3777737**73%*370377737673w0-@<Cxdxdgd<q773q",
"7777@@@@@3Ks37w377qq-.o@%3337q$@*7w77777w7777w37-.o@%73qwww7667w77u677w@ O#zFw7w777w7q%@@@*0777q77737q<q7$#Vxw733337q777773*@@@@@qJp37w7777w% O@*777q3##<37q7777w7773<q0-.o@%3373w377w7776777uuO.@#zC777q7q37q#@@@*37777777777773@$Cx333773w7w7ww7u*@@@@@sKw7w77777q# O@*q33q<@#773<w77777w7777q%.o@%w<77w37777ww6777uuo.##Zz777777777#@@@777qq3<3<q7733<@%Jz37w3777777w77w*@@@@@jCu77777u77@ O@<0333<#$66777w7777703w3u#.O@*77777777767w7w67w6Xo@3Cz7777677w*@@@#77w7777w77777w-@-Gd773773<q<77",
"77@@@$uwusst7777w337%.o@%3777q$@7733w773w7w3777#@.o@$q77776777733ww7w%@OO$*ss7737w7777****-*77773q7q<33qq**37w3w777777q773@@@%uwwaaww7777w77%.o@-w77<3##qq<377w733w73<<@Ooo#*w7777777773w6w77%++O%*uu<77777777*%**%-w73w77w777w3w%-<q77q766773763*@@#%uwuudw7777777q$ O@%wqqq<@#77q733w77737w7*@O.O#%w7763w7777377767#+o+%*su777777q73*%*%-*<30wqq<37<3<<--377777q777w777%@@@*swwdd73w777w7w@.@#-0<3<<@%s7777377w37w77*+O.@@*q7766w6w73w3737w#+o@%7dww7w76ww77*%**%*777q73w3w7773%*377w777q<33q7",
"w3o.@%HHHg37w3767733-oO@%<77ww$@*7777w76w7w7w77o..o@%777777w776w73u67#.O#*w3377w73w7777u33##3777<3777777777@#76w777w6777w*.X@*FHZd33w777<7q7%.O@%q77q7##336777337777w7*...o@%377w37w3w37q<33q# +#37777w77777w7ww77#%*777q<73w777773@$333<3<q7w7w7*..#7HHHw3777w3<3<w$.@@*w77u*##777w7w76<77wwq*...o#*w6w7767777w777w0o ##6667773w7w3737773@$37773<77777w7w3@%77w77<q33<q7%.o#wFFKu77ww777w77#.O@<0<373@%777777763<7q7w$...O@33q<6777w37777ww7o.##*w77777777w7w3w73@%7w33777q77737w*@*777777w3w37",
"77o.@%wssu7777u673q3%.o@%77737*-%%%$%$#*7#OOOOOO+O@du77w7w7363777w667#.o#*77w777ww3777733q##3<q7q3777777w73@$7677w733w6733XX@%ssau7777w73<3w%.O@%qq777**%%%##%%*w#OOO+++@O%sw377q77377773qq<w+.+#66666373w77377773##7777w3q03777773@$<<0q0<37777w*.o@%ssau77w3773<qw# O#*w737***%%$$#%$37@OOOOO+OO*z77777677w36373770+.+#673w77ww7777w3w73@%773q3q77w77777%#%77*w73q<q73u%.o#*ssaq777777777w@.@#-30<77-%$%$$#%%33@OO+O+OOO<d330<3w67773w77u7uo.@$3777w7ww77376777*@%337qq373777w37*@%7w7w7777777",
"w7o.@#w7w77777w77733- o@%77773w7#@#@@@@%w@.....@#@-Cx7773w777w7777<77#.@#*w3773q3777777q<3$#<33<3w77w3q3773##677777w777773XX@#w77777w77733qw# o@%w77w7w7#@@#@@@%w@.....##@*Fk3<7377w7777w3777#.O#%w377w377q7777w77@$7*33777ww37733<@%37730q377*37*.o@%w337773q7733qw#.O@%7ww7776@@@@@@+*0o... .##@7Fs77777763w777q77w@.##*7w37373773w77773@%73q7<3qw637w7w3@%673337<3w77u%.o#%67q777w77ww7ww@.@@<q<<77w*@@@@#@@-<o....o@#@wKwq<3773ww77777777o.@#377<qw73w7777777*@%<3773w77<73<7w*@%*773w377777",
"oo+@*73307777307<@oOO@%xw77www77***3*3**##O@@@@sxxdww7w773w766w773w77@.O#*7777776u773w737q**#%3qw%ooo@%#$##3*$%777303w73+o@@3*37w777373w<OooO@&gw7777777*3***36%##O+O@@sxzsuu3777777w3w73w777@.O#3773w77w337ww77w7*3%-33w#ooo#$$$#%-*#%7<q777w73OO@#**733777773w<OooO@*xs77777663**3**3%#@@+@@#gzzsw0w77w3w377763q777o.O#773w7w7777w377777**$*3<q#ooo#%###%6%#337qq3777*oO+#*77777773730%ooo@O3z330<7<333*33*3%%#@O@@+-dxxduq3<q3w77366777777o.@#3773q37777773w377*%%*737@ooO##%%#%*%%377777w3w7",
".X+#677w370w7776- ...#*Vz7773u77w37w3w7*####$#$zHCM77777777777u77w767#.O#*777wu<7w3uq370q773##373#...@##$##66@%7w3777w63X.##6767733wwq3q*.. o#3Cg3w7w77w7ww7776%@#####%dCBg7777777760u6777773@.@#*67w6w7ww3ww77w77w*@%<37#...@##$@%3*@%3q3377773XX#%7u7w773wq3q<%o..O#uFs7777w0u36w0w7u%@#$###%CHHs36<67773w777w37773O.@#37777w7w70ww677q0w*@-333O ..@####$w*@*77777777*.X#%u7u73w0w7w37%...O#sHwq<77ww07w7w03w%@#####<CCCd7q773776777w7w333*o.#%3777wq3w077w37ww7w-#-w37o  o@%#@@%3*@**77673676",
"..+#667777w777u+o@@@%Vd%##*w77w73w77777673*3*63#$$%<7w$.XX%u77w77%o..o@6H*#*73<36766737w3773<*#@oo@@@7BBzw3376*####$####..@#77637w7737<oo@@@*Hw%##-3737377767666337333*%#%%7w7@o..*637667%XX.o@dB%#76w377776667733373-#OXo@+@sxBj33777*@#$#####@.X@$737777773q*oo@@O3V3###7w7337w777777733*3333##$37u6OXX.67w373w#.oo@@dB%$73337373736773q77**#@.O@@@szBz*777*%#####%@#@.o#%7777773777*oo@@O3N3###3<737766737777*73737%%#$*7<wOoXo6777360#..o@@xg#%773<373763w67w777*%@Oo+@@@zxxz33763%#########",
"XX@#6776ww3777woX@@$*Hz@##**73377776w3w77777776%#@$37*#.XX%3w7773%..XO%sN*@377qq3w<7<q3q<q7733%@.O$%#uZBNw7767%%%##$$#$$o.##737ww377<33oX@@$3Cw@##*33077w3w7w37u777w7w7####66*+.XX%u73773#o.X@$dC%#37776767766wu3<733*%@.+%$$dHNCq777q*%$#%##%##o.@%7w77w33377<X.##$3H3@#%**7w6w3777777637w73<3##@%33*+.XX6767w3<@.X.@%zz##7w37777w366773<3<3*#OX@%#%zHNN7w77w*#$$$$##$@.o@%77377w77w7*.o@##wH3@##73w77777ww73770w777w*##@*7**o..o77w373*@oXo@*Bx#$777qq7776766777777*$o.#%%-NNCz3777w*#$$#$$###",
"@@@#777w3777w77o.O$mx7w377%@*w773w777777w777w7*73@$q%.O@@@*w0w7*.o###6Bs7%@*q33<77773q<7<373333*@*HzCs73w73366ww77773677$###w077q773qq<X.@%Vk3w777%@703777377773777737373@%u#.o#@#3w7w7*.o@@@7Hu6##377767777<6663<7w777*@7nCBu3w7777777777<37733#@@%3w73w737w7*.o@%Cj37337##777777w37w7w*w73333<*@%w@.+@@$67776%.O@@@tHs3##w77733w777303q7<<q37%@wHCzu77w677777376w773w*#+@%www7737737*.o@7Hs37377##3u7777377ww3377777w7%@*qO.@##$777u7#.O#@@zBw3@$7w33<w37677677ww7777%@dNBxw33077777*6w3w77737",
"%%%%*377w77777qOo%%mz77w3w*$**3777w77677w7w377763@@-@X+%%%--3-3%oO-%%7Bs6#+37777737737777w77737*@-CCxd7777w3w7677w7w<33q%%%%3-w73777w37Oo%3ld7777w-#*77w377ww6ww777777766@#*@.@*%%*63%*$XO%%%sBu3##3777777w7777w77w773w%@3HVxu77637373776w733w77%%%%-3<77737773oo%*Hd3w377%%%*7676636376w7w7773w*@#*Oo@%%%*3<-%@o@%%%dCq6##7w67w7777w3736777w7w%@pHVxw7w377w7w30777w6776*%3--*3377777w*oO*wNs77w77%#3%773w3w3w777q3q7w3w%#%%+.#%%%333--@.@-%&kx7<#$33373777777777777q73%@sBBzw77337qw37367767377",
"BHHB##w733w7777$@VCq7777733w$@3w3w36776703773ww3<$@.o@3JHC%@+@..@%HHHg737%@3ww777w3ww7w363667w73@-Jd7777w3q777777777qq77BCHBO%w777w7777#%BB77ww73w37#@7777737767w3w777wu*#O.o#wFHB%@@@.o@*KCHs*77#@7w77w77373w7w77777wu*@wCd77777w7w7w776w7w7773MCZk+%773ww7w33#%Jx73777w33<##7w777w7w7w3737777w%#O.O@dHCC$@@+.o+<GCGw7<7@@w3w77773w777w6777w77*@sHw777w7773767ww363w77uHBFw@%73u777737@3Hs37<777777@%w36767677777737777*#o.+$sFHx@@@O O@wJCCu77;@$3wuw3w3w7w77777777qq%@gCu77677w<3777w67767w77",
"lzuu%%77u737777#@qw7w377q777%%--7777w7w7w37677w7;@OoO3wxzl3%%#oO%3zlzs7w7*%*%*337u7777777376%%%#@3zu377q773<6777w37737w3gzsw%%w77737w36@@uu73w77773w*%**777777ww77377766*+Oo@*uxzl%%%#o+*wxxzs737%%****u373<77777w67%#%#@7xw37777677w3776777w37wxxd7-%777777776O#uuu77w73w<3%%**w37776777777w377%Ooo@<dxjz%-%@o@-wxkxw777%%****776677777737*$%%#@7xw777777w377763w77776wzzs3%377w377773O#sw6w377w667%%*377777ww3q77w7777%+oo%*sxzz%%%@o@*wxxxq3w3%%<***337773777w77*%$%@#uz7w3w3q<q376w7737377w3",
"33##66u377w77wwO.O%373w737777w%@677737363w777737- o+<Gd<337733@%Cl37737733w$@@#7776u7u777wu6....@%737777773qwww7777wq7777*##7777w3w7776X.@#7773w77777w##w3w76777773w766u*.o#qCdw337w73@%Gg37777ww73@@@$ww3<3ww7uww7*...X@%7377w7776776667w7777777<@%ww77w377773.X@$777777730w3#$773w77773w73w777%.O%uKwq33373-@3Gj33qq7777*@#@%7w7ww7ww7w0u%...o@3737777w77773w77776766w7*@%377773w7w3%.o@%w73w776w76*@$w77763773730w77w#.o#sFs77777w*@7Kp<q3q7733*@@@*73w7u3w770wq# . O#*u3w77333q<76337w7w6776",
"<7$#77ww77w*733O.@#77737w77<%###*7777373u667776$#.o@-Cs33<7773#%Vxw77w3337w**%%%****%%######ooo@w3**737777w3777776677w3777#%77773766766XX@$77u777777%#@#377w3777777w37*#@.o@7Hd37777w*@*Cx777777w73*%%%**%%33%#####@ooo#w3%*w776w7w37w3676677q3773##77w3w77733*.o#%w7773q077##@#w66766777677773#@.O@wGa377773-@%Hz73<q77373%%*#**%***%$##@#@ooo$w*%373773777777u7w7767677*@%3377777777*.o@%7773<w773##@%w7w67663<qw777%#O.O@dHu77773w%@3Kd777777<<<%**&&*%%*%%#####+OOO%7-%3377w<q377w7w77737667",
"33$#7337wwwwq77o.@#<7ww7w77uO.O@63wwuw7w776uwu6...X@-Hdwqq7ww7#%Cxq7307w7773733#@@#@@#o. ...@@@*Fs@%7www0w737730u7ww73q377##77ww7uw7w7wX.@#7w3w73wu7o.@#3w306u760w773w3  .o@3Caq3ww373@#Gk7<ww3w377ww73@@@@@@#... ..#@@7Fu@*w3ww3776307uwu773wu7q*##777777w7ww6..@#7w3qw7w77X.@%w6w76w7wu67777*. .O@qCa73ww333@3Cz7w77770w3w77*@@#@@@@......#@@uF3@*7ww7w730ww773030wwwww*@%w7w7777ww7*.o@%w7ww3667*XX@%776uu77w<377wu%.X.O@dFu777w0w3@wKd7q7q3qq0777u&O#@@@#@.....o@@@dK3@3w77773w77w7ww3wwu677",
"33##7w773%@@@@@OO--3777wu777O.@#3377663777773#@OOO+@-Cx7777763@%Cx777w3w73777w6**%**#oOOoOOOwwwwg7#%7w77337ww77w77777w7773##qqw77%O+@O@O+**7u337777wO.@#777w677u33737##oOO@@7Ca7777ww7@*Ck<<3777w377773%3%**@oOOoOO@7uwsu*@*7777ww7w7w77667w777373@%w7737#O@@@@O+**7037777w7XX#$67777w7777w37#@OOO@@wCw7773733@3Hd77737w77737w6*****@oOOo+O@u7wsg*#*w377077w76767w3w777773#%ww777#O@@@#O@%*u77wwww73XX#%7w676763u77w*@OOOO@@sCu77ww77*@7Jd7q7w337377w7**%-*%OoOOOOo#wuwwd%@377777777777737673w67",
"73%#7777<#... .@@73<q7776677O.@#377776w7w3776o.@#@@@3Hz77q7q77#%Hnq777777w7777777ww7@.O#####NHFB3%@%w0777w773u77ww777w7773@%777<w#. ...@$6777w773w77o.@#677777w37w7w7X #@%@@7Cd73w7776@*Kkq<77w3u777777ww777+.@#@#@%FZHz6%@*uw76777377776u7373qw73#%u77w6+ ....@%w7wq7777777o.#$776w63w3w777*..#@@@@qJp7777333@%Cz777q73777w773w66<7o.@###@*FZHg*%@*ww773777w67w777766777*@%37777o.....@%7777777337*.X@%77773w7w777w*.X##@@@sHu77777w*@7Kd77777wqw77777w7w77o.@##@#-JGJw<#@3w7w7w3q3777w77777777",
"OO@@37w<o++@O@Owp%%3773<77wwO.+#*w737767w67w7#+udddddwu77777w3@#uuq37<q3w37777w3*OOOO@*suusdssuuw*3%$$%*7377w7w76767#o+OOO@$q<3%OOO@O@@sw%*73w77777wo.@#67w7w7w73w773@@wssdaapq<77w776#$uuw777w77w37w777%oo+OO7duwsssuu777**$%$376776w377777@oOOOO@#ww7%o+@O@@@ww%%777<77377oX@$7w3776773<qu3+#waddduu77w77773@%u7773677777ww676%oOO++7sssdddudw73%*#$%6w7w73ww7777<+OOOO@@%77w#OO@@O@@sw#*77w776773.o@$37w77777777q-O%sddadwaq<7w3w3*@*su77w7w737w3737w#OOO+@udsdddapuw73%%$%*6767777777w76++o+",
"..@#373%.o#####xC%@377<3777w+.+#377w767777777##xCHCGx<77307776##<<33q3q<77773w6w%...O#dZHZHC7733777*@#@*7w7737373w7w+.....@$<3q$.O#####zN##63777337wo.@#6737373777777@%HCCCHd<333w3633#$76377737777777w7%...@#dKHHZBw*67773%@@@3777<77w77777o....o@%777@.@##@#$Hz@%7w73<7ww7oX@$73w7w376q<373@%HJCCGs777373w33@%777ww776w363777w@...@$zZCHFz77773ww$@@#737377737777<o.....@%w3wO.@@#@@%Hs@%<77777733.o@%w7377777777q*@-HCCGCa<3376777*@%67w636373q777w30+...+%MHHCCj73<73ww##@$773w3ww777366....",
"@@@@oooO@%xxzgxwu<*%%q%ooooo+@*767767776w3w77*3%%0wwqw777w777333@%3<3q3<w3737w3oO@@O*xsu7uww7777w3333**%%*777u7767#.+++@@@#@oOoOO<xkzxzww3%#%w#ooooo@@*377767703w37773*%<3wwwq<77763776%#*0377w3q37w77*oo+++7xuuuuuq363ww733333$%666w7367u@o@O@+@@#@oooOO7zzzgsww3%%*3#oooooO@**76773w7wq3<377*%*uwu7u<3w77777**#%77363w3w7777%XO@@OwNuuwuw77777777*333#%777777777@o+@@@@@#@oooO@wzzzggw77%#*w#.oooo@@3*6763w7w7w77w3*<%3wqu3q<77776766*#*w767w3777377%XO@@+tzwswwuuw7336776*3*#%77w377776oo@@++",
"#@%@...o#7CCHBHw<3*##3$.....+#377673w3w3u777773#%<7777773w777w3*#%<3<<3q777w77%.o#%#7Hs777777777777736w$@33q777766#.+%##@%#@...o#wCHCHBu673##7#.....@#773w773ww77777333@$3q<7777677w77w3@#w73w77wq7377%.o##%wHu7<777w7770777777#$366777**7O.@%$####@.X.O#sHHCHH7773@%3@.X...@%3ww3766773<3qq77*#%q7<73qq373w777*@*w7w777777677#.O###gHu77777w7w76w7w773##773w73737o.@#$##@%O...@#gHHCCB777*@*7O..X.o@%773w7w3636w77773*@%37w<77763w3w37*@*w76777777w77#.O##%xH777777777<77737w*#%w76777766o.##%#",
"xxxx#@@%Hs3qwuw73<3#@Xo@@@@@%77w7w3w767777677O.@#7w777w3w3737733##73q7q377773oo@%xxCs3733w3w77w3w366w77$#37737*.ooO@uBnnxmmd@@@*Hd7u3w07777@+Xo#@@@@*777667777w673773oo@$3737q7777w7w77*@$77777377w6*Xo@6BzNs7w3777777373777w36##7<67w#Xo.O@anxBzxxd@@@7Bu0w7w77773@OoO@@@@@*657673w777ww377-oo%%377ww3<77w3677*@%7777777w77*.O@3BzNu7w73w7737w377w7777@$3w337#ooX@#dCxnxkN3@@@7Bs7w0w737w-@Oo+#@@@@337767777373377w&Xo@*73wqq3<7w3w7w7*@%777w377777%.O#wzNxu7w33w3w7w777w3w77*#$336<<@X.o@#zxzC",
"JCCx$##-Hd373777<33%@oO%$$$$*773767773w367w7uO.##73777w7777w7773#%7w377777w3<o.@%HxHs37w7777w7777777376%#*7*<*%...O%sBnnMMCd#@$7xs77w737733#@XO%#%#%36w7773w3w377w77*o.@$w7w773q67373773@*w7777w7777*Xo@3HBBs73w773w3ww77777776%#3*33*$Xo.@%dCCBHCHd@#$wCs373777773@@.@%%$$$36777767767377q3-.o@%77773q77777677*@%3ww7776330%.o@7HxHs767777777w73w36w77%$37**<@.XX@%xNCMCCCu@#%sBw77077ww7%#+.@#%#%%37773w777w7w7730& o#$7773<3q7777777%@*7767777777#.o#sHHzw63w7777777w73777w7#%36*--O.oo#%lHnn",
"7q3<#%Ck377w77777733*@%HHxHC*#677777677w76377o.O%3w3773777w7w373@%77737777773..@*Zxq03677w377777w37777w77#@...o@@@wCs777ww3-@3Hg7777w3737w7w3O3HBHBB%@7w7777777373w33oX@%777737q67737773#%w7q3<37u77*.X@%Hz777w7777777777377w7w76#@.X.o@@@dCuqw77q3-@3Hs7777777ww373*OwHHHBB$#767w37677w77<3-.o@%7777w33737373w*@%773773777w%.o@7Ks767ww7w373w37773w377w*@@...o@@@gBu77q777*@uHu7ww73737w777%@wHxCCz##w6777377777777* o#**7773<q7777w6w%@*w76763w33u%.o#wFs737777w773w7w7w3w77w3*#O...O@@#xCww77",
"773<@#da3w7777w77733<-*BxBlH*#**63w3w77673w7wo.@#377773q3w377773##3w7w77777-%oo%*Bd<w77773w7773w77663w777%#oooO%%%wzs7773333O%zu7777777w777w**7zNzBB*#%3663w677w7w773XX@$6777q<33w7w777%@%w7<3qqw77*%oO%7Bs7777777w377w37ww33737*%@oXXO*%%aku777777-O*zu3733ww7777773%wllNzz%#3673w777637773<.o@$q77777q7w7w7w3*#%77337w766*#X+*uxu7677773w77777777777773%@XoX@***dzw77737w%O*xw673777w777w7*%szxxNs%%*33w7w773w773w*Xo@$w3q7q<33w73w77%#*77677w773%#.+%szu777777377777377777w77*#@ooo#%%%xz7777",
"7377.o@#3377ww37w373uZB667777w##*7777777w7337O.@#33777w777w377w3@#77<q33<q3o.#%nB377w3w3737777w7w77667w77w7$##*FCHg3777w37w-.o#%w3777u773776sHz777w377##76w3777wq3qq<XX@$wq<777<q37777w3@$q<7737777..@*Hz3w73ww777w7w7w777w7w7w7777@#@3HZFs77777ww3%.o@%7w37w77777w3sHs7737w76@#w377777wqq7q*..@%u77w37w733w3q<&@&0<777q77*.o@3Hs77777w3w6677736767777w7u63##+uCHHu777377w3# O@*7777777ww6w7zHs3q777w*@$w777767wqqqq*.o@%3qq<3<77q3q7ww%@*7w70377u%.o#wHd777w3737777377377w366u6wu*@#@aCJGqqw377",
"7q3<.o@-737737w7777w7zs677776u%%**77777*%%%%%Oo*<***3777773w7w**%%w73q<qq3<o.#%Bz777w7777w77673736773w36737+O@*HHzu7773w773-.o@%3w73w377w7w37ns677333w*%**7377w%%$$$%oo*<;--37q3q<77w3**%*q<77q7773o.@%Czw37773766373737663737377w*O@@*HBzs7773w377%.o@*77w7373w773wuBs77w7377%%**77w77%$$$%$oO<****3w77qq77<3**$*3q77777w*X.@3Bz777w377w766770w773w67373w*OO#uBzz77w7w7w3u#.O@*w773w3737767uzs6777777%%%3777w3*$$$%#X@<----3377w3<373*%%*777w7777%.o@wFd777777ww3w7w77w3w77776677%O@@dCxkq<77w3",
"3w3<..@%w777q70376w7766w63w3776u#@7w37w@...  @@NB@@@%37w777q7*@#u7373777377o.##CN377377363w3677363w37777766. @*Nz*637777777*.o@%77qqw377673w70373w777773@$7w77u+ X.X.@$Jg@@@%77<33<773@#qq3w7773w7<.o@%Jx77777w777w36776w3w3677677*.o@3Fs777777766w%.o#%7w77777767776677777w7w77@#7w66wO.X...@%Gu@#O%u7737777<@$q<<3q37qw7*.o@3Hd37w777w363ww777777767766u%.o#7Fw3733377767#.O@*37ww3w77677777w7q7w377s*@%7w3w3o X..X@<Gw@@@3377q<q3w-@*77u7777w7w%.o@7Fs77777737737663w66733w777q# O@dHw7777777",
"777*o.@#777w33q776377w777w777663$#6733@@oOOOO3wsw*%*%%*7w77377*%%*3wq77%###o.@#gsw77777w7w763w7w7w773w777u*.o@*Hz7<w7w77w77*.o@%w3373w7777777w7777777773#$777*#+OOooO<0da%%%%%33<qq373*%%*w377w%##@XX@%ds773w7773w776777777767777w*.o@*Hs6ww7w7773w%.o@*7777773w3w777777777w777*@%777%#+OOOo+<qgu%%%%%77773w7**%-<q3q73##@@.o@*gs7777773w77767w7663w3w7w77%.O@wHu67w7w7776u#.O@*773777776ww3777733w7773*@*776$#OOOoo@<3xq%%%%*3733q<7*%%**77773#@@@.O#3sw7w73w7ww3w7u777<77w777777#.O@dCu7773w77",
"7777.o@%u377<<q377733w677677w07w@@377% o#@#@@xCq7773*@*737377776##37w33+ ....@#73337777776w36777767w3737377..@-Cg77w777w373*.o##w377767767777w66w3767766@#77w#.o@@$@#BB3<<7w*@%q77w777w3@%7777qo.....@%37777777w7666w373w7w3777333-.o@3Hs777773w77w%.o#%7377737767wu7677ww7w376*@#73w+.O#@@@#HB67777%@*w7w3737u*@%*73wwo. . o@%7773ww7w3w3<77777777w37777w3 o@wKu767777777u#.o@*7777767w777ww7w7<qw3777*@%ww7O.@#@@@%Hz6<q<q$@-377w3777%@*u7w36.... o@*777<777773677w767637776<77q# O@sCu<777w77",
"w7@OO@**6w77q3wq667w777777777w6w**%#@OO%aqpuwdd3w7w0*@%<3ww7777*o+%%%%%@O@OO+%%%3w3<ww7777773w737773w7w73@@O@wwss677777777$+o@**3w76u7776677777677773w66*%%%++o*dwuaussw<377%@-q7737773-o@%%%%%@oOOO@*%%*73w777w7u77777w3777667w3@@O@wwww77777777*@+O@**7w777w3ww76773w36u777766*&*#++O*dwdwwsu777w7%@*777w7w77%o@%%%%%OOOOO@*%%*77737777377w7w73w77w7773O@O#wdd777773w77*++o$%3u3w3w3633w773737<3737773%%%@@OO*puquwss63<qw%@3777773w7#o@*%%%%OOOOO@*%$373w3w7377777w73<w76w33w*+@O*uusw7773w73",
"33o.@#7w7ww77u77u70ww336ww33777773#@.X@3GCGGGw33777w3@*373u7w3u*.o@@@@@#@@###77@#77777w7w7736w3wu77w3u677o.@%Kxq67wwwwww77..#%6w7uu63ww03uw77uww7033w77uw7#O.o#uKCHFH377qw7w*@-qw0w33<<-.o@@@@@#@$#@#w*@%37ww7u7777ww37uw7u67uww3..@*Fx7w7w0w0w3u*.X@%www3770ww377wwu7w0667u70w67*@O O#sFHFFB7377w7w%@*w3w03777@ o@@@@@$@@#@$w-@*ww3w7w33w777uqwu773w767%.o@7Kd77u77w3w37*.o$*77777wu77wu63w7777q77www3w7*@o @#zCHHFz737q7q7$@*777w77u<# O@@@@@@##@@*7*@*3737w3wwww7u77w7wu6777w% o#wGs37u7w7w3w",
"w3@@%*7w737777w7773777w7377w67w7w3oOO%ssaawad0<q7773-@*w7w773w77@#ssddddw3****7*%%%%%w77377w7777666777673o.@%dwq6677737777+@**7w66777773w77766777w7w37677%ooO*ssuduuu767777w-@%<73777<3-O%dddddad7***7<**@%%*7<qw673776737767737;Xo@-su7777w73777*O#**773w6737767677667766777ww63%oo@3sswssus7w7w7w7%#*w7777w77-O*ddddddd*3*37%-%%$$3777w777773w667w667w%.o@%dw73w73w7777*O#3*7ww76677737773w766377737777#oOO3guususs7w73<77$@<7w337w37%O*dzddssw3**336*%%%$37<7376666777373w773%.O@*uww77377777",
"73$#66w7u6w373u636777w3777777ww73-.o@*Hg<<q3<<q37770-@%730777773@3FCCHCHHp7w3377*@@@*33777773w77q3<q33033o.@%77737q37777<3#$<33w67777777w7w37773w777733w73.o@3Hs3357w367733w*@*7w77777w*@3CHHCCCJw77737w-@@@%777377777w3377w37<7<.o@%<37703<37q76*#%w77367767377w37667777<3qq7777%.o@pCa<<3<377737w3*@*73<33<q7*@qJHCHCCHw3w377w%@@@*w<7777777w7<0q<3<3q3.o@%37w3q<3<7w37*@$3qq<06667w3w3u66w373777773777#.O@sKw77w66737773w$@*7<33w777%@wJHHCCCC<777ww6%@@@7<3<w777w377w37w7677%.o@*777q<<37777",
"w7##67w7<6777w76w77673w7w3w77w3773.o@-Hs77<3q377777w73*#*w777773@*Jz77uuww7w7w7733%.O%$@$#3w7777<<<3<q33<o.@#777w73qq77773##qq7777w776w76676667w37777w773%.o#3Hs6777773w7w77*3%#-33ww7w*@3Hsuwwqu77w7w733;#.@##$#%677777w777w756< O@$33<7qq7w7377*#$077w67767w3w777u77637u7733w7w%.o@uGa3<<3w7w37773*7%%<7<0<33%@3Jdwwuq7777777733@.@#$##$7777373<<33q33%.o@%33w<q3q7773q-@%7<33w77776776776777ww3w3ww777# O@sHu763u77w7777w33%#<w77w77%@dJdqqqqwq77777733Oo###%#$7w3w7777777w3w%.o@*77733qqq777",
"33@#36377w377777376w7677377w7w7733.o@3Cg77qq77q3q3<37w%@*7w37w3*@-Hz777777773ww337# O$@%$#*7336633q<<;-;-o.@%7w7w37733<73*#$3<w37737w77373767u3w77w377773%.o@3Hd67w777w7777776%@*777773*@-Hs37w7w777777w33@.@##$##666*33337733*33.o+%377<03<77337*@%w7777373w767w3737w3wq3q37q<77#.o@uHwq7773777777w73#@3377q<<-@3Jd77<<373w737377O.@%$$@%33*77333<3<;33%.X$%7<7<3q373737*#%w37qw6777777737776w7377w37777# O#dCu77777677w37w3*$#3377w33%@wJd77773<q<ww7733O.@###$$*77637666**666% o@*337<q3<3<<7",
"XX@#77w77777w73ww777w376w77777733*.o@-Hg773<7777<3qq77*@*77733oo@%Fz777777777777%.O@3NNVBz%#@#####@OXXoo..o@#77777777qq3Oo@$3q77w677w77w7w773w773w773w777*.o@3Jd67376737w77w77%@*u777%oO@3Ck3777w7777730%.O@7CCMBz########$o.XXX .o@%7733q3q<3<<oo@%77777w7w3767777w7767773q<33<7%.O@wCp*3w7w777w3777w$#33w73*XO@3Jp7777w7777w7w#.O@wCmzVx@#######$oXX.oXXo@%777q3<<7w7*Xo#%q7776w7763w37w777637w7777777u#.O#dH773w7w37677777w$#3777<*oO@wVw7777q<333w77@.O@zBzBBs#####$###oXXX.o O@%3<773q<3q30",
"..@#677w77773ww67w676w773777777w*%oo%*Bz7373w7w3w3777q*#*3*773Xo@%Vz77777377w3<*$oO%wBBNBN%##%##$$$O oo..oo%-*337777<---oX@%777737w37737w37w3u6773777777-%oo%7Hd667677773w3677*$*77ww*.o@-Ca377ww777w77*#.@$sBBCBN%#$$#$#$%oXXXXo.o$%333<q<7****XX#%w77377777367w3777777w77777733#.@@wCuw7377q37w77773%$--37<-.o#3Bs77777q77333-#.@%sHnnHd$$$##%$$#o.o. XXo%**73377q*<*$.o#%q3<77777777ww07777w337677773*@.@%dC7w3663w777w3u77%#*3777%.O@7H7737q37qq77<*O.#%zBBBBs$##$#$$$$o.XXXo.O%**77777w***%",
"..@@7777w77677767w77677777w77qw7oo@%Bz777w7w377777w37337%@*733o.@@w33qq37w7<3q*X.@*Cz77www7677663<3*@@@@@@@xl@%377quO.....@@7377w777w7w7777767777w3w77w3.o@%Cdq33w7773w3777777*7#$*77*.o@%w7777737ww3u*.o@3Cs77w77773733w73%@@@@@@%Gd@%qqw<qo.XX.X@#767w77767w67777uw7w73u3w77q-.O@3Hd37w7q773w73777w077%#*73%.o@%w7w77w7<77qw$ o@wHw3www73w770q3<3%@@@@@@%Cw@%w33q3o.XX.o@$q<3<u7663w777w76w77777w777w-.O@wCw77777u777377667376%@3w7%.o#*u77w73w7377u@.O@sHww7ww073w777333@@#@@@@*J3@<7q3w3o..o",
"oo%%*3*6376676777*%**766763737%-oo%-Bs777777w7w377w7773<-@*w73OO$37337w77733<-%oO&7Ns3773w777773<<3*%$$%%%*zw%%--%-%+ooooO%*3*%3377636676%%**777737737*#oO*3xd337773677ww7676777%@%673oo$*377777u777**#oO*7Bu7377w3<7777777%$$%$-@%xw%%**&%&+ooXXO%****3w3667377*%**367ww77773*#oO%7Vd37377377737737737q##377*oO$*w3377wq<<3<%+o@*uzuw3777w7q<q<<33%%$$%%$%mw$%***%%ooooXO*&3-*3637773763%%*66<6773773%@o@*uxu77w66w7w7w66777w77%#<7w%.@--q777q37773**@o@-sVw37377777777377*$%%#%#*B3#%3%%%%oooo",
"@#zH#@@#wwuw77uw7..@#wuw76www<o.@%CV73w77u3w377777q77wq3%@*u73@@3777w7330w<33..@*Hz77773w7773w7w00<q033333777<3@o...O@@@@$Cd@@@%w3u7u6776..#%7www0w7u7..@%Jn77qq76u0w777330w6uw7%#3377#%q37qw7w7w7773..@*Hz<3ww773w3w3wwww7w30w73<33q7*@o.. +@@@@%Hs@@@%w76u7w6u*.X#%677w77u33.o@*Hz37w7q37w77w0wwq7uw73##3<33@%w7777w77w0q<%.O+wHs7737777370303q0q77q7<3<q37w*#o   @@@@@*Cp+@@%7w7uw07u%.o#*677730w7* X@3Kd7w7777777w777u3w3w77##w73-@-3<wq773q7773%.o@wJu<776ww30ww0w73w7w7777w777w7%@....@@@@",
"%%sz3*3****%###%#oO****3%$#$#$Oo%3wwq7777w73777w367w3666%@*777##33777777377-@oo37zd3737q36777w373<7q377777w7w3*OOoOo%333%%gs3*73--%%###$@oO**&**%###%@oO*7ww7777q3<<q37w37777776%#3733#$w777w777377##oO*qks7777w6w3w3777w66667w7<33q33%OOooO-7*-%*gs333%3--$@##$#o+3*33%%##$##oO36ww773w773w773q7777<777%#377*@%q3q3<q03<37$@o@<7zw6w7w76373777733<q3776777w30%OOooO3-<-%*xw-3-****%####@o@7&&&*$%$$$@o@33t733w3777777777w337w66@%7w3*@*77w7w377w3*##X#3ugw7777737w3666<w36677w377w367#OoOoO**3*",
"7373HHKs@@@o.....@#Hx#@@O. ...@#Nm@@777w777w7773w7777u77%@*777##73w7777ww77o.#%BN3777w73w77673w73q7377w777377u%.o@@@tHHBww7wHFFu@@@o... .@-Hs@@@o.....@#Hx@%777w73q3773w773w737u%@*773#$06773777u77..@*Gz<77773077777763w7776w36qq<<73%.O#@@dKZH7w6wFFH3@@@X....X@*Fw@@#......@%Hs@#w777777777777ww76<77#@*773@%33<<<3q<7q*.o#<Jz73737377w7w76w7<q<3w7w3w7767w+.@@@@lHGM33qdHHH3@@@.....o@3K3@@@X ....@*Fw@%w777777uw377777w7366%@777*@*7703773ww7% X#7Cu67777777777u67777773w773w7767+.@@@$HJCH",
"7770ddxp*%%#oOOOo37sd%%%@OOOoO*7dd%%-*777777w77w3763*#####*u73##**w7777ww7qo.@%Cz3773w7737677677<<qq7737773q70%o#737ustxw377zszw%%%@oOOOO37zw***#oooOO*7gs%%%3773w7777w77677%###@@*773##%36677w37<3Xo@#Cx3773w7q363w6w3w767777773<q37q%o$q33ddgsw77wzsdw%%3OOOoO+77zw%%%@ooooO7wsw%%%3777w377wq3w766%#####*763@#**73qq33q7*.o@3Cz3w367777677w376q<q3673w3w376u#o%777sdkd<wqwzdz<%%*OoOOO@wwd7%**OoOo++30s7%%3*73w77773w37777%###@#7w33@#*37773773u%.o@7Fs777ww7373730w77w3777366667336#o*7w7ddxd",
"777w737777u*@#@##BC7<ww7*@@@@#xCq3q<@%w7u6w73777677w% ..O@*7w3@@@@wqw773777o.@%xx0w37777w777w376q33<w3w73q<<7w*#7HHHd3337776333773w%@@#@$HC37777%@##@#BH77w*@%uww777773773wu#...@@377*@@@#u63w77733X.#-Hxq777773w7777777ww776w773q7777*@7JHJw37777777677373$@@#@%HB3377w$###@%CV77w%@*73w3w7737733w7@...+#337*@@@*733<<q37*.o@*Cs3776776776776u733q<7777776763%#sJFHw337q7w737*7737#@#@@3Fz3337w$@##@%Hz367%@%7w03w37w7777wuO. .@@773*@@@*777w7777%.O@7Fs67<777w7w7w377677777w77777w36%#gHHC333<",
"7377q777u66%*%***ss777<%*utwuuss7773--%%%%w7w77777*@+++o*uw777****%%3777777o.@%Cz77373776667w773777737w37w33<q-@*Hzsq7777w36667373<<*****aa737*%3wwutwss7377%%%#$*733qw777%++oOO*tw737**%*%*6773w36.X#%Cz373q7777w3777736766<766<77777*@3Hxwq3737ww3w367w73-3***6ssw76*%7swdwudu77w3*%%%%*777w33<u%++OOO7ww373*3**%*w777<q-.o#-Jg3773776w3776677777w37373w776<%@uZguw773<377q377qq3*****3tww7u*%wswttssu3773%**$*377w77677%OOOO@7s3<73--*%%*w7w733%.o@wHu77677w3777376773776673w777373%@sCds3qq<",
"u0w3q7w7777w7w777773qq-@7CJHHCs773qw3-@@@%w7w77<77%..###uHu77<6u7%@%w30ww77o.@#CB67ww0wwu67733www76u773w777w3w*@7Hz7777w30u66u6w7q333q77q777ww*@uFCHCHw770w773@@@*7w77377u%.o##@sHw7w6777*@%u77w7u6..@%Hzw7wwqu766677www3w6uw77wq377w7*@wJd33qq07777w77u077w3377777777%@sHHKCCu7w7777*@@@3773w7w77#.o###BH0w77337*@%077w73-..@3Fg73ww7u63w6uww7w3q777uw773w77u%@dKu733qq<33q0qu<3<0q307733*w7w%OzFHFHB770w7w3$@+@377036u7w@ O###CVwq7w3<w%@*3307ww% o@wHs6u6673wu3wwu73w0wu67767u3ww7w*@zKw7q<33",
"777q7737w37777u67w7w77<%*%7uuu77w37773%-*3#*76367OOO%ssgsuw77w6773@%773777<@@dgsu7w67777w3w77777377777777q77<7-@-tw377777w7377773q77w3733w77773***3suu777w7733%3*-$3q337*o++*dsssww77w67w*@%u777737@@wsuw77777777w6w67777373377w3w7w77*@*dw73<q777w737733737737777w7w37**%7uuw7777w7733**%%37777*oOo*szssw77773<7*@*377777<+#dau777767777767w67773737w3777w377%@*u737qw337733q33q<<37w7ww777w6**--7suu7777773*33*%%67767%oOO7zszwsq33w<77*@%773777-O%zssu6w777777677667w673w7w37777777%@3wq3<3<q",
"773w773w77ww7763737w7777*@*7773wq7777<377%@*6636*.X#%HCHs637733ww%@%7u3q<33$#CNw7777776w7737673w3w73w3w77w77w7-@%37w777w777w773w<73q777w7777776u%@*37777737<37w77%@*7733*.o#wHFHuw7777777*@%73ww7w7#%HB7773w7w77677777677w7w777777737q*@%777q<337w37777w77777w773w37773w%@*7777773w77776w##*3377% o%uZHCu373w7777*@*3w77w33#*Cx773w773w3w67777677w7q7777777777*@*3qq<377777q<7<q33q<77777777777u#@*6573w76w76w777@#6663w#.O#sFFB773q77777%#37uw77q-@3Fs376373w67767<6u73776773w7763w7w#@<<30<q3q",
"737777w776677www7w373773*@*6777733<qw366w%#oXoo#%@#zz3wu777w77w7777*@*77773%%3377w377w3w37676777736677w7w7767q7<*#*7q3<<q7q36<77q37777w3776w3777%@%w7<w7w37773777$@oooo##@3zswu777777377773%#*77763#%w737737767ww037w367w7w7w7w77w7w7773%@-3337q7767w3737777737777w3777u%@*w76777w7w3767<#@.ooO#@@*zswww777w3w3773**@*w7773#$w77w377w7w37w37677w77q73<<q7w777333%@3377776776w7w7<qw77777w3777777$#33w3737777w3737$@oooO#@@3xtwww7777677776*%#6777w*@%q33<<q0w36677w377777677367777w33<3-%%33q037",
"7w777703u6777767773ww7w0*@*77u777q<377773*#o...###-Hz7377773673777w*@%77w7w@@3377ww7767767w73w677w77673736763333%@*7<3q337773w67q<77w37763773w6u%#*7763677777w0w3-@o.oX@##%Fd666773w7w3wu70%#%w7733##77ww7w7w3737777763w3737373773733333%@-3733ww767ww7w3w777w3w3w3w7777%#*w73w3737377w73%#o..o@##wHs777777377w73ww%@*777w*@$w76w77737777367w7777737qq3373666333%@*w773w77763737q3777w3w73773w3w##<3777w773w777w7#@o..o@%@wHs7777w7777w3w37$@%w777*#%<<qq3<3777777777<w3w376w7767733<33<@@<<<3<7",
"w77777u3w37767w773777777*@*7q33q73q3w3777*6#@@@zzBd7w3773w7w67737773@%w3773$#3777w3677777637777673766773776oXX.oO@%7<qq3737767733373w3777w777w77%#*677w3737376w7733#@@@NNzz777w37777w777377*@%77w73@#3677377777w76w777w7w37777777w%XXX.oO@37777767w6667777q7w7777730w7w7%@%7677w7w3w763777*@O@%NBzg76667w77w773677w$@33377*@$ww6377763w37w763ww677q3<3q<7u*X.o.o@@377777w7w767760777w7777w737377##33w3w7w77776w733*@@@*BHxdw773w73w3363w77w%@3w777*@%3q7737qw37776w366w73w7w67777w%.XXXX@@-3<q77",
"373w766w3w7777w77w77776*%@*73q<77q777766w77*#%#sxHx773w377733w7w77w*#%377**#@7776w7763w373w73w777w773w7ww**Xo.o.O%*333<<7w773w7w<q7q3w7773w67w**#@*u3w767w7w766w773%#$%llHz7w7777ww73777w77*#%*7w**##66w7w77773076376737u7773w737**XXXXX@%%77777w7777767w337373w777w373*#@33w776777773w7w77%$$*zlHs77u3w3777w777773*#*337**@%w7777w37w77767377663w7<3q3<6*#Xo.o.@%%377w3w7w76776w77737773w7w7w7*##3<7737363w7637373#%#*zxBs777777w77w777766%#*733**@%q377q<377677776u6366773w7776*@XXXXo@%-33q77",
"77w37737w37w3677w377w0%.o@%777q377w377w37737777$%7w37w7w7ww367777w377*@*wO.@#3w36777677w67777767w36776773o.@@@@@*Jq@-w<0w3w377777777w7777w3777@ O@*77773667777w63777733$%7777673w7w77367w3737%@*woX##777w777777u76737776777w77ww<oX@@@@@6C*@673w376737w777w77677w77777@.O@*77w3777766w37w377773#%777677776773w3677w73%@*6oX@#776777677w37w3w777673773q<0-oo@@@@@uH*@3w6767w3w363w7777367w37777O.@@777777677677w3777777*#%77w3737w377776777037%#73.o@%333q377w3w3w377w3w377677w67*.o@@@@@jG#@37q3",
"3w773ww7u7737776773w73%XO*337w7377777776w7w7773##77773777w76676776w77*@*3O.+@3777766w776w7663w3w763w77677Oo%3*%%3V3@%3<q77773w77w3w6w7773w777w%X#%77737w7w7777w7q<77733@@777767w36377w3w777w7%#%*o.@%7773766w366777ww67376737737<oo%***%uB*@*76767w70w376637773w77w37w@o#*377367w67377w777w3733@%3776u77w3w7677777376%@3*XX@%w7ww6736777767773w67w3w<q3q<oo%*%%&sB%@677767w7777w07667w3w73777<@o#*w77w7367763w77w73w7u*@%77w77w77767w7776ww77#@3-.o@%q<3773w7777773ww7777677736u*.@%%%%%dx%#3777",
"736666w7<76w6w0677w777*@3Hs3737ww7737373w773777##7w7qq37777w73737ww77%@@#o.@#*37776w3w37337677w777w7w7w77#$NBHHHx7%@*<3<w7w777773677ww7w77w77w*@tFs77w77w36777w7q373773@$7w3w3w767w37367w777w%@@#X.##w7777w3w77w6<76377ww77ww3<33#%mHCnHs7%@*w37763777w777w377777w777w%@sFw77w76377w773677<37w<@%377377736777677w3737%@@@XX@#w76377w76w3373w7wu6w777<3<3-@%CCHBHs7##33363w37w37703w3w767w0777q%@xCw7777w73737366737373*@%777ww377377677666w76#@#@.o@%q<<77w77773w777377377767667*@6HCCHCu7##3777",
"7w7777376777773u77377%%@*Nd37w77037w7w7w377ww3w%#7373<7777w77w7w773773$$%OX%*3*7wu7777677w7u7737673737367$#BNzlgp3%@<0<33737w3w377763776w777%%%@7zu730w7766w7766<3qq3w7@$3w7773767777w77w7777*%$%Oo**%363w77377366u3w7773763777<-#$HCdxzs7%#*ww773w776373w77663w77w7*%#@wzw67673w773w6777<uw30*#%0w7w3w77763w3w777733*$%$XO33**3w77776u7w77773773777<<033@-Hxgzzw7$#*6w77777777767773767777<*%#@dx77w3777w7w7w777w7w7w*#%77737777wwww6w377376*#$$oO--%<37737w37w3667777ww3w3ww7w*@7Hzlkjq<##3737",
"w03wu77<u3w7w7w7q<q3* o@%w7366w777www7ww3www7u7##76u7<6uw7ww77u67777737<3$#xG@@70w0wu7w7w7w73qw73w3w7w7w7$#BB7637w%@*ww377u7776suw77777w7q3w%.o@*7wqw37w00w3u777w373773@$w37w37w03u6w777w67wu6ww3#%BV##77737wq00777w03w0w7wuw3u77#%Bz77777%@3wu6677777w7u77777w77q7u#.O#*<7777wq37u77ww73777w37#%7w77u77www677w07w3377777#%Hd@%7q77w0w3q37703w7wu6<77u777@*Cz333w3##7u7w37u7ww767777777w77qw@.@@*33w6u3ww7ww0w3w6w7w6w3@*w77733ww66w6w7777w7770w3@*Hw@*63ww7773w77www7w70w3w777w*@3Hu33w77#@33w7",
"7w77777*@%%%%%%373<<*Xo@%w7w<u37767777777737377#$66776637763766773w77w733%@jB***%73777333737q7377777777$###ss77w77*%%%#@6667777%O%*%***7777w%.O#%77<7377733w77u73w7ww73@$7w73w77w7773676w77776777%#zx*%**7q<37qw3w77w7777766w76####zs77w7w*%%%##6777u73*+%*%***3777w#.O@*q773q37w777777ww7w37u*#$7w73w6767776773637ww7766#%Bg&%%*77737<3w77w<37w6677777#@@%gu37777*%%%##777677w%@%*%***77w3q@.O$*w77677777773773777w7u%@%77w7w7737776w7377w7w7373@%Hs%%%773773w77777w7333777773@@@*zu37777**%%##",
"777777<%..#@@@@%770q*.o@#77777w37w767737u77w7w7##7777w7w7u7ww367w3u7w33<7$@gCq*#%w77777w77773<w3w377777O.+#*7w77777u$@o.*6w3w6w#.O#@@@#*773w% o@%7777w7w77w7777777w7377##q37777737733w7w03w77676w##BB7*@%q3377<<77773773w777777o.O#7777w7w3w%@..3ww3w33@.+#@@@@777qw#.o@*7ww773q3373767777737w7@%<77673w777677777w773w367@#BC3*@*7q7q<q3w3777w07<37w777..@#7777ww363#@.X76w3373+.+#@@@#7<<33@.O@377777377737777w77777w%@%77ww37777w6677ww6w337773@%Fz7%@*7777w77w77w777w777w7w3.o@$w7767777*@@. ",
"777w77u%.o@*uss*%%%@OO$d7%*76u7776766ww777777@@@$73w73736677773ww773w73-%3dud73-%%*7773w77773q7377077%@OO7s77w3w777w**@O*677776% o#*sww*%%$O+O$d*%3q77777737730w77377#+@%73w3w77777w6773w737777*%7usd73*%%-<777q3w77777w67777#OO+ws777737776*%++6777777#.o#3wt7*%%$++O*p*%733q<<7q7q7w7773w0*@+#%u3w7u77777w663w73w6777*%wssu7***$*q33q<777<77w77w733#OO#sw37777777w*%+@76u7w77+.+#73sw%%%$++O*d*%673ww76ww77777w777*@+@%w73q7733w7777737773w73%%wusuww%%$3w7377w777w7777777*@OO#sw77777w7<3*%O@",
"767ww7u%.o@qFFH%@@@..@*Ks@%7ww37767w7777w7773o @$377776w6w6<77w737u7q77%@dJw337w*@%67777w377377w7w037@ O#zHw6777777ww0%@7777ww7#.O@sFZH%@@@.o@7H7@*w777777w7w777777w3o.@#3w377777776777w0377770$@lC7377u*@%w77w03<777773w3u67o.@#BB3ww377w3777$#67w3770@.O@zFFH@+@+.o@wK*@<033q37777w776w77w*..@#777ww37637773777w373w7#@HH3777u-@-37777777377w7777w3X.O%HB777w377w773##77w3770@.@#NHHz#@@O.O#dH%#363677736777773w37%.o@%7773<qq7677776ww777777$%Hx3677w%@*7777w777w33377w033..@*Hz7377673775*@@",
"o+OooooO+%gawss3***@#lda*@*w7w67w66377w3037#o@@wsww76377777767377777777-@pCu7777*#@XOoOo#%#%#$oOOoo%w$Owzsu76u777w3w77%@OOOOOoO+@*sssuu*3*%O%zsu3@*77777663637ww777@oO@ds7773ww7w6737673w777773$@lHw7730*#+oo++o#%$$%#OooOo%u#Oususw37w73w77w7$@OooOOOOO@7zutww3-<%+*xda3@*37<<3w7733677777OO@#gs7w773w77w737w3w7367777$#zB77773-#+oo+Oo##%%%#Xo+oo*w@@sssw7w7773w3773#@OoOoOoO+Owsssww*;3$+*zdu$#77w7767w6777w3776+OO%zw377q<3<773w637766ww<37@%xx03w77%@+oOOoO%#$$%@oOoOo77O#zsww7w7w37w7733@#",
".......o#7Gg667wq33$%Hz7*@*677w7u77ww37773w+.@#xNw377w7777w3773ww37777w%@dHqw377*$O.....+###$@.....@7%@dHu77677777u<37%@.......o@wHw7777377@*Hz3%@-3733777ww7677w33o.@%BB777737w377w777w6763w3w$@lH7777w*#o.....@$###O..X..#6##zF7767737777667#@X......o@sHw73w7q3<@7Ja3%@<377qq377w76w377*o.@%Cz777703776w077677w777w6##zN7w770%@X..XoX#####O.....*3##BH337w7w3777773#@X......O$xHw777u33*@wCd7%#7766w777www37777*.X$%Hz7w3q3736u7w7w777776ww3@%Mm3w377%#o.....####$O....o-3@%HV37w673w3w7w76##",
"@@@@@@+%xgq766u7<$%dgww37*%#%w7777737*ooooo+@tx%*3w773w673w73w773w7777<%@dCq73w766%++@@@tzzzzs@@@@@Oo@#sCu7730w3w7773333@@@@@@O%xpsw77773%%xdwww3-%@7ww73w777%oXooo@@dd%*<777w7*w773w7633w7w777%@lC377777*%+#++#dlzzzs@@#+#oo##zHw73w67763w6w76%#@@+@@@3Buww7w773@-mdwq3--%@373<w773w#ooooo@#xu%*7777w77777766677676637##NB7377w**$+@+@@dlzzzw@@@@@oo@%Bn7w7377773w777**@+@@#@Owzs77w777<$<xdw7333##w77776677@ooooo+$zs%*777<3qq677366w6w776*w7#$Ck<77777*#@O@@#zzzzz*O@@@@oo@#Hx7777767677366*3",
"##$###@*Fz7w777w7#$Cx773u6*@*63766333#.....@#gH%#*377777w37367767777w7w%@dFw77377w*#$#$$gBCHnz$$###O.O%sBu76777w37w376u6%######3Hd7777w77@*HB777w7*@37*3663*3#.....@%zx%#37777w737677w3677677w3$@zB7767777*%#%@%zNCCHg##$#$o.@%zB77377w7w77777ww#######wCu3w377w-@-Ck<<qww##**36366*7@.....#%Bg#%7667777w377w7767w33777$#NNw66w7wq*##$%%xHnMHu#####o.@%zz377777w7w3w36u6##%####sCu37w373*@3Hd77377%#33333*373O...Xo#*Cs@%77333376666*7w77w37773@%Mx773<qw3*####*BHHHl7##$##XX#*zxww7777736777w7w",
"6377663777773w777#$CJ7737766%@###@o..X@@@@@uCu777#%7776w777w67767767373%@dHw3ww776uBHNnBuw77w777<33%@uNsw7767776777377767666*76wqq7777377@#Hx<773336%@###@X..O@@@@@sBww73@*7663767w7736677w7777$@zF773w377sBHzHxw77w77w777q$@anw77737736367777377676767wu73777303@-Ck33q3776#####+X..O@@@+@zB7w3*#%uw3w6773w3677777w777##zB7763777gCBBBzuwqqw767777#@zxuw7w7w3737677776366677766wq77777w*@3Fg*w7737*#@###O..oO@O@@#xzw77*@33<3w7776377773w77373@$Mx77q<373zBBBHx73ww7777776##zNww777w3w7w7763077",
"7673w7w3w77377w%3%%xzq77w377%##$##o..O%%%#%sMw776@#<777776737373w7w7766%@sHu777777uBBxnMw63w777777w%@uZu363w7w3773707777w3w77777w777w3333$3Nz3q777w3##$$##XoXO*%%$%zBw77*@%677w676377w777637777$@zBu677w77sBnMxCu663777377q%@dHw737w676373w3363w77w3w7777777777*-#3Ha3377777%#$$#@oo.@%$%#%zB773*@%73777w77763w337w7777##zB777w377gCBxNzw777777<777%#zN77q77777w77776w3w67377777w7777777-%wHs3w77773####$@XX.@*%%%*lx777*@**3<777w3w77777777077#%Ck777q37wzBBxBB77773w77777%#Nz77777773737677777",
"777w3777w77w770%#xV77777776677776*##@*HBCHBu77773@%6663w3w7w7w7w3703766%@sZw77777u777777w777777w770%@uZuw7777w777w7ww3w77737w7773777773##Nx3<q337777w7777*#@@3HBNHNu77773@#w3w7773w77673w3w7w7w#@zBww773w7777<3<677w777w77q%@dHu7w773w7w7w76w7677w76w7677777773#%Nz73<<73w6w773w6*#@@wHBNHHw3w7w*@%76u6636677w77w777w3u##NNw677777<<7776777777u3777$#xHu7777w77363w3777777w3w763w777663@-Hs3w737777w77<67*@#@sHHBBNw777w*@*3<3777777w6w777w7377@$Cm7w3q<77767777777w773w777#$NN77777w3w7w77777w3",
"6w6w7<777777333%#zNw77w3w363663w77#-%*zzBzzs7377*%%**37ww0377w7777w776*3*sz777777377777736773w3w77w%@ugu3677307677663767w366w7w77w37777#$BC7777w7777w37333$%#3zzzNzw3ww7*%%*3777677w377ww777w6**-sl3777w7<3<777w77w7737777w%@sxw7777w377w0777777777w37w77773ww3@%Hs776777w77777773$$$tNzxxxw7777*%%*667w77w777w37w77w%--*zz3w66677w377w37777773ww77%#szw3w3w3w3w776w77777w037w3w377w77*@%Cx7777777w77w777*$#$wNzNzz777w3*%%363773w3w3w3677w73--%3zz73<777w3777767777w77737w##zz77777377737766777",
"6777w30w77w3q33##NBw77w7777w7u67q337737377377w7777*#$w7377777777w7w77*@3Zu77w777ww77777ww7767777777%@*7<w7767w7w777w67w77777373773q7w77##Hzw3w3ww377777w7777677w773377377w*@%777w776w777s7776%@sHt77737773qq77q33w367w77u77%@*u73w3w773w737677777673w737777w777@%Hz773w37w7w3w675377w73377w7773w77*@%w776637673w77w7w%@lB777777777773w777w733ww7770##*77676777736377w3w677w77677w77ww73@-Jd7w73w6637776w3ww33w373777w7777w%@*0w777776777w7w77$#HN7777u3q7367w673w3w70377w73##373w3w677w7w7w37776",
"77776737u77<0<7%#sx73q37w377773737777777777777w37w*#%37777w7w777%#$%7%@wHu76373737w3777w37677w777w7%@%7737777u77w67w7637w37767777w33077##sg77w3773w377w777w37777w377777w77%@%*773w37376*###*7%@sHww37w7777<3q33q7773w3w3777%#%737777w7777w767676677w3773w337773#%zs3677w7<7w7777<7w73w3w7w3777w77w%@%7w777w3767*###*7%@lH077w6777777667377ww7377733$#*0w773777777w773677773777770777373@%xw7737777w37777773w77w377<uw77777%@*7377w77776*##%*7##zN77773777w76377w3777u7w3777##37w36777737673w7ww3",
"767767ww73q30<7$#3777<3q77773ww73q3w773wu3w3w77730*@%0w73w3777w7.. Ou*@wNsw3w7w77u73w773w777637777w%@*u7w7766667773w73w777663w77777q037##37777777w777733w77773ww7773w77777*@*3ww776767u%...+u%@uCu7773w3w7q3<<q3777w777773w%@37ww37737777ww6w6w377630w7w77w7773##770w776766u3w77773777677777w77777%@%w373w77767% ..#7%@zHw7777767w7w777w77777ww37w7$#*w776w7773w73w67773w3w763w3w777773@%3777w773w77673w67<77w77773w373w67%@37w77373w3w@   %7%#BB773ww777673w773w77773w73w7#@3767763w3w777677377",
"737w6w067677767%@3777q77w7777w3777w36667w7666777w7*#%777wq3777#@oOOO@@@pHu77737777677w3776677773w*3%%*777777w367677w766667w76673773ww33$#7q730q3w77666677w6773u67777667w37*#%77777<<7*@@OO+@@#@dFw7w37777w3777677767767773$%%*773w67<36667w7w7w37w37w767w777766#@77w77377u77667376777673737377767w%@33<377w7w3@+OOO@@@#zBw37w36676736776777377w7w*%%-*777777w7777776776777w3677w7<73<3*@%777q77773673777666667w77w6w66666w%@*7777w377*@+OOO@@#$kB7w77u76737w367w3677u6677***%37766677w3777666667",
"w0u3w7w6w7w7ww6$@3wq77w7030w7676773www777uww7w6w7w7@%73303qu77..@#@O o@pJd77w03qww7w6u0wu6776ww0w*@%www77u3w3w6u6u7w77ww77776u7wu3w73<3##7w7q<0q03w7u677737uw0w73www776677*@%7w7u77uw-.X@@@o O@sHu3wq33w77w37u5uw730u63w7*@3w63w77777w7uw7w7073ww3770w77w730u66#%7w7w70ww33w6u7ww6u776uwuw7w73www7*@%33ww7w77*.o#@@o O@xHu7777ww76uww3w66wwww3073*@*w77w773w0ww73wu63w6u77u76u77u3ww7w7@%3q733w77w770www77ww77u7767w77u77w%@*77w77wuq%.o#@@o O#CB737w77u7wu3w777w36u3w777%@7333ww077uww77uw7u777",
"7776w776767777w**%%3777777377uw77377w37777w73w77777**%-377#+O@O@dus3O%duuq3<3q77773w67777377w777%%-*777377w73w6737767776637w673w77777773%%%3<337773777777777w737w3777w6w7w3%%%37<7#O++O#ppd*O*sss777q777363w67w3377w7777#*%367777w367w77777737773w6677w7676w776**%*377777777673w37w377676677w377733*%%7777@OO++#swd%O3dds73w76777w77377w7777376*$**<373qw7w77677376773736766777677<77w3-%$-3777363w3777677767766777777w<w7**%%*763O+O@O*ada$+wauu77637w7776637677767673*$**773777w7766<77737w377",
"77667777u67776w77#@<w7w773w777377w77776677677776777w*@%<7wo...@%CHFs@7Jd33<3773w3w7767767w77777*@%773w7w77677777w7737ww67w7777777773w7777@#0<qw7673w63w3w3773777776677777777%@%777o...@<JGCu@wFw377733q7w767773w7777767*@*w767w763w7733w6u3w77677777766776777777*@#<77w77u77776777773w776667766w7w77%@*777...X@3FHF0@zHw677777w37373w7767773w7<%@*73q7773737777uw7777w7w77773w77773w73w7*@%0w7q77w773w777ww6w77776w6w7667777%@366*...o@7CCK*#xCq73w777377776w7777777w76$@*777w7773w3667773w77776",
"77w377w7w77777u63**%*7777w377ww3w3w377w3w7w776773770*@*7#oO@+@uguqw7@3sww7w7qq3<7u673w3ww3w37773@%377777777777767w6w6373766<773777w377w7*3*$%3377777777w3w6773u6w3737776w6w3*@*7#o++@@ddwpw3@*w7w7w777773677776u77w7w7w%@*677377777w67776w6767w<7w77w3w63w3w6w3773-#*73w7w7w3w367w373776777w77777730%@*7@o@@O#zsaww%@3pw7777777777w3777w7677w3w%@*77q3w37663767w3676767777377767ww377w77<--#&3377677w36777776w36w66w3w3w7w77%@3*+o+@O%xdwwu%#<w336777777777w3736w377w37%#3u77w37777w77<377w377w3",
"3w773ww70766w376337#@7w773w77w7777777777w767w376w77w*@%3@.@###xZ77w*@%7737373<3q7767677776773w7*@%w73w77w3w7ww77777w7w7w776677w777773w3777*@%<<33w66767377777w66777ww673w773*@*7o.@$#%Cx337%@&730737773ww777766w7733367*@%<67w7776733w6767773w366363w777677777w777-@%777307773w777w7w7w377736677777w%@*7o.@##%Hz<3q%@-3<77w373w3677776777w6w773&@*77q777777w7w30w7w373w33ww7773w373w777w30%@*q3<773w763ww3w67777777w67777730%#36.o###*Zg3<7$@<u7w776w3w3w776w7w77767w76%@*7777w7737773qq3w773w77",
"736666w7w7w3w777-Oo@%3777777ww67777373733777667w3777*@+oO@uBznuq777*@%7777w37777673w77677377766*@%7777q736676w77777w7677w7w667w763w3w7773OO@%37q7366737w7w363w777676373w3760%@OoO@dNxxuwq7q%@*773777w77736777w77777ww7w*@*u3w377767w77763w777776737ww6777767w73w*oO@%3w3737777777636673w3w7w7676w377%@Oo@@dxzzuw33q%@*33373w777w76w3767777677w<%@*3733<7w377767w7777677w73w<w7w7ww<77777*oO@%730w37777w7367777677w7w77677w3w##oX##zBzg7qw77%#*773767377w3w373777w7w7w67%@%3777377w777737736667w7",
"7w777737667737763o.@%3w7w3776777w37w7w7w777767w00w77*@O.O#sBBn777773@%w37777773q6u7776776ww3u67*@%77q337776u776w666w7767373uw3377w77777**.o@-7777w7uw07763w7777777766uw7677w*@o.@%zBCV77377*@*ww6u77373ww77766663w77677*@*7w773q766w3w77773w3w777w7766777677677*%.o#%3777wu777w373w777677773ww73w777%#o.@*xHHz773<w*@*77w773w77777767ww3w63w777*@*33<qq3u73w777373w3w7767w3637367777w77*#.o@-q<<3w7767377763w3w7776w767<7777#@oX#%BBHg33777%@3q7w7773w76776767w33636777%#*w3w30w73w3w7w77w777737",
"w7w776777777733o...@#373773w73733w3w3w67w37w3w36377w%.o@wBs7www3777*@%w77776737777777w367377777*@%77q<776776766677w7w36777777777w3w36w6o..o@%7w7777337377767777w7w376637777w#.O@sBuq<w7777w*@*7767w37w3w3777377767677w3*@*73w377767677677777w367773w77777w337w3...o@%777w7773773677w3w367763667w377u@.O@zlwww033<00%@33377w73777w377w676777377w%@*3wq7776637w7776777777767w77377w677w7*X. O@*3<<73777773677w3w36676377367w77O.O#Nz7w0w73773$@<3w67777w7777773w77w7w7766%@*77777777777ww33w773w3w",
"373777w77773w3*Oooo%%37777777w7ww777777776777776w777%.O@uHs6773www7*#%3*3w767w3w3ww363w770w7w773@%w733q7w7w7wu776737763ww3w77u7776777**o.oo%%3777770w7w77677w363736777w7w777#.O#dCu7777w767*#%*677w7776767w7w7ww670w737*@*7377w3ww7<77w777w3773ww767w3w773337*%oXoO%*77733w7377ww7767777637w77737777@ @@zHw7777wq<<-#*337777w7w3773w37w73w7w3w*&@*77777776w737w7u777w76376377w7776763*%Xo.O%33q<70w6w77ww7767777737w77w77776O.@#BB7w377w3w<*$*3077w3636373w3777w3737766%#*w7ww777777737777777773",
"6776w6677w6w7+.@#@#nxw777w37w37736677w3676677777773w%.o#uHs7767777777*@*7373w767767377777w37777*@-w3<q7737w6w77767w777w737777ww377w77o.@#@%Zz777w37w7777777677777w766377777w#.O@dKw7777776737%@*6s377776763677w767367w6*@*w077776<u6w7037w7777w73w37367776777o.#@@*Fz33777w337373w3777677w77777w777s@ @@xKw777w73q<37%@*3w7737q7w77777w6777366w*@3w377<77777u703w3w73w3w7637w3w37w676XX#@@3Fs<337w7737773w3777677w637776w37wO.@@BB7777777773<##*366w7w3w777w77*7677777w%@*w7737w7qqqw3777w37777w",
"67776676w76*%@.%***nx77773w777737<7763w7u667773w773%@.o#7zw6766777w77%@*7w7w37676u7w76w373w77w7*@$*<<3777*%%*%37w7776737w73w7377673*%Oo%***xdw77w77w7733w3w373w676737w7777*%+ O@uxwqww77ww7ww%@*777763w673w777377777777*@%*33w776%%*%*677w77673773w77777w37*%oo*3%7Bs37777773ww77767w3w773w7w3777w%%O @#dx777737<77<7%@3773wq<33366777763w7w773*@&*777<<6%%****u7767776777w77773777*#oo**3wxa3336363w7767767w3w7777ww3w377%%O.@#gg763w3ww37w3%#7w7777777w773w7q<3w73w77#@3*77w73<$%*--7773w73w77",
"ww7777wu777#.O#sZZZ7**63w03u3777677w6777w777737w7w3...O@3w<377w777w33*@*76777367w377637377w33<q3@@@-wwq33..@#@#677w777773w7u77w3u77O.@#xZZF<367337w077w377777ww77w6w7u73ww%...O@*373377ww3777%@*u677w37w777w36w377w3677*@@@*77w33..@#@%7*7w77777u6<u7w3u7w7o.#%BZZz76763wwu7377777763767w67777777u#...O@3777w3w3q377w%@*w337q3<q3w67777w77w7773%O@@*qq<u-.X@@@%u77w77676wwu7777w7w7X.#%BZFg7773777ww7ww67777376776763w73ww@...@#377777w73w3<7#@w77776ww73w37<q33677777w%+@#7ww7u%.o@@@*wu6773377",
"##########%O.O#ugug77u*#####%***677377w6u776w%####@ooO@7-3<33w36w3w733%%*3w37w6773777w7w7777q73*%%#%*%#$#OO<33**%%***%%############o.+#sguu<3u%#####%***6776777677777####$@ooo%3*w7w777377777*%**6777777w777w7733w773w33#*%%*%###OO3*7*%&****%%############o.@#szzs776%#####****777667w777w37#####@ooX*77777w777q<773%%**7q7q<307777w666773777w3%%%**$#$@o@36**%*%*%*%%############XX@%zzsu777%#####*%**w77667w77<7u*#####+oOo%35<773w37777q7*%-*77w6w7777w73q<q773w77u%%%%*-###@o@33**%%*****##",
".............O#*6u<6u7% ... O@@#3uw377666766wo..  X@@@7Kd777777777377w7%@*7w77w37w73767773w3q3773w7%@o. .+%CKKs@@#@###..... .  ......@#*6u7*uu#.....@@@@7w6uw7s677w77.. ..o@@@sFs77777w3w3767w7$@*7<w7w63w37377063676773w7w%@o. .@%HHFs@@@@@#@.....  ........@#777777u#.....+@@#wwu6770w7w777.....o##@zHu7733773337377w#@377377<7w363w773<w77737w37$#X...@*JHF7@#@@@@@...............@#77u77ww@.....@@+$w767u7033<77*.....o#@@NH77w77773q3q37w*@#6767uw777363<q77767w77w777#@...X@3KCH*@@@@@@+..",
"Oo+oOOoO+oOOo*7*####@##@ooOo*u<3%%%%%%*####+#+ooOO@wwusdw7773w77w3w7777*%%*%%**73w7w77677w7773w773w#oOOOO3wxdsu%*%%%%%@OoOOoOOOOOOOOO3w*####O#+OoO+o*ww***%%%%*##+#@@OoOOo#wwwugw73w77773w777333%%*%%%*76767677w7w77777w373#oOOOO3wzssu%***%*%@OooOoOOOOOOOOO37*####O#+OoOOO7766%*%%%%%#@@@@@OOOoO#ww7ss777w777w<q7q773***%%%**q63w77776w777w7w7737@oOoo+wpdds3%%*%*%%O+oOOoOOoOOOOo@w7%#@#@@@OOo+o+w7w3%*%%%%%#@#@#@oOOOo%uu7ssw3w7777q77<3q77*%%**%%%0w677q<33763www77777+o+oo@qdddd*%&%****oo",
"###@#@@@@@#@@dK%@.    o@#@@@dJHH$@@@@@@o    .+##@@%CHCx<3777777737w77777w%+@@@@7733733<3q<7q33<qqqq# O@@$xC76737w3ww77%@@#@@@@@#@@#@@xH%@.  . o@@@@@zFHN@@@@@@@o   ..@@@@@*GCCd7777w37w7777w67773$@@@@#w3-37773wq33w<3<<q7wO @#@#CC73377uw3u67#@#@#@###@@#@@%NN@@.... O@@@#%BCCx#@@@@@@X... .@@#@@3CHHs77777<33q77w73w307@@@@@%6777w377w77w377w3777o.@##%Cx766*ww7u7w3#@@#@@@@#@@@%@%Vx#O...  O@####HCHs@@@@@@@o    o@@@#@wJCHw<3777773776777w376#@@#@&373333w7w77<77w3uqq<o.@@@*Gk3730w037u73@#",
"***%***3swttwsd*%@@OO@#ptpswpdsw##wtwtw3O@@O+7dussw<7dw<w7w3773w3qw777w77***&**%*%#%-33<q3777q<-++++O*auwaaw3w3<77777w*********3uuwuwsu*%O@OOO%dttssdddw#%uwwts%OOO@@wuuwsu*7dw77377w777w3733w670******%%%-%37773q777<3%+@O@O3ssadd73777776776**********ssuwwpw*%OOOOO3wtwwwsduw@%dwwup@OOOO@suwwsw37s3ww773qq<<6637<76w7**%**%%*#*#37773w73777%+O@O+7uuuuu73w776<7776****3*--*wwuwuwsw%%OOO@O3wwussuus3@%twtwp@OOO@@uswwd3<wd00w7w377w7w3w773676*****%%%%%%3w773w66776#+++++wauaaq37737776766*%",
"7w7ww76uBHJFKu7w7#@#@@3KHFJHa<33#%NHBHHp@@@@#xZCCHk@%77777www7w77773776777w37w*@@@#@-<7333377u3* ..o#aCGKw77777773u777777uw37w3sKCFHHw7w<###@@7JHNHHw703@%FHKFJ7@@@@#BHHKKd@%377<q3q3w3w3w7777763qq3q<*@@@@@-377<q7777w%.. O@zHHC777q777w3w7737uw7<7w37zHCBFCwww3$#$#@tFCHKH373<@*KHJGJ*@####HCHFKw@%777377q3q<377w376777www77*@@@@@*777777wuww# ..+#BZZB7777777w7w377u73777ww7xKCHHHq3q*##@#@dKHHHB777*@3FFHHH%@$@@*KHKKK7@-<<337777777673w7w677w07w7&@@@@@*777w36uu7uo...@$CFKx33q77w777w76w7w",
"777w7777uwtwuww37@%ddlswwutw7q33*3%*sww3*;-3*wuuuu7*%#*777373737777ww6w7763w77737*3**@%%%#OooooOO@@3kawuu7777u737w76ww77773w777wwuswu7773@#gxxdwuuwu7777--%3wuw73-37*uwwuww*%%*73q<<77*7w7773w770<3q773*<-***$#-$$OoOOoO+@@3sus7q77733w777377w7733373w77wuwuuw37%#%zslswwuuww737**%7wuw3***3*uwuwu7*%$*ww777733q3w776767777777w%6**3%#%#$$oOoooo@@@qguuuw7773w73377766673377737wuwwqu33q*@<kzddwu7ww7777-3%*www3---3*uwwuww*%$<3w773w3w377736777773677***3*3%#$$%#oooOoOO@+aguwuw77<7737w3377777",
"77777677377377q73#%BCCx73373777w77@#*7*7wwq3w337337w*@%737773qq766w33w36677773777u773@#@@#X....X#$#wHd7<3737w37w77673w366777733w773377773@%HHGk<3*76737603@%33q7ww7w0377770w-@%q7q33<<<03777w367w<7q3<qq3q<<%@##@@.... o$#@aHw3737737<q37w37w77777w3w37w3333<<73%@*FHHs777<7773<3<@%73337w0ww666777w%@%73<77q<3373677673w777w37w3767%@#@#@.....o$$#dHw337777w3w07w377w3677737777<3<33<3<%@3GCGu7373777w37*@%666u3w7wq7333<qw%@<<<37w73777w037736773w737w7777$@@#@@.....@$$$xCq33777w37w377w77w37",
"w3w77ww7w77777q+o@#wqu77<77q777333#$w7w6w77777q<7w7773%#*w77<<3776ww67773w677w7777*#3Nllxx$@@@+%nxxaw77377w77773777w77773w677w773077w77oo@#wwqq33w777w773-@$337q33737773w7373-%#*77q00033w3w763wq<77q<3733-#uzzxNz#@@@+-nkxa0w77377wq3777377376677777777q<3q333oo#%770w73w<q77q<3*@%7wq376373777w77733%@33w73<q<7w67767w673w777777*@tNzzNs@@#+@7mzxa073777w7777773w763w773ww77w7q37q<<-oo#%qwq7q3733w7w77%@*7663q37q77737<<3-;%@33777w7773w777w7w7777w73w7*@dNzzzs@@#OOuMxxuw777q73w3q7766377777",
"37777703w77777wo.@#7777q77773aq377@%7ww3777qqq3377w3773@%*<3q3<7777777677776w3w3w7*@3NNHBC*####*CNHs37<q7w77w37ww67w77677776w3773737733o.@$77w3<7776w36<q-@%q7w7777w777w3<7777%#*3<q<33<u77777w7q<q3q3<33q%@wnBBCn%#$$$3CxCd7777w37773777w7777w3ww37w7w7<<3<<3<.X#%w77773w<3qq333-@%77<3w3w777w3w777ww%#*3373q<3w777w3w77777w3w7ww%@sHNHHz#####7NBNs3777ww77w7w776<7777777373w370<<33<%Xo%%qq<77777w3w377*@*777w3<<377wwq7q073%@<33w7777767777763777737777%#zCCBHd#####sCnC337w37777777377w377w3",
"w73w73w7w77w77wO.@#777777777<3q776@#7776w77737<q77777373-@<0q<337773w3w73w7776777w77%@*wq773777*#%37773q77773q777763w3w73w77<677w377u33oo@$777<33w77763w<<@%37777777w3773q777<3<%@<3<q<37677673733q<<3qq<<3<%#3u73<-3<<*@*q73w77773w7w773w663w773777w7673<q<333..#%73w<33w3w3<<q<-@%77337737677737w77777##37<03<373w7737663w77377777%@377337777*#-w7773w77773737w37676w33ww77777q3qq77-.o@%0<<77777777777*@%w7773q<w777777777333$$773w77w376w3w3w773w0w77733##3w7777737%#*wq77777q77777w3w776777",
"3767777377u3%**OX@$ww776w3w3736777@$77w3w777w7w7777w77w7%@*7q<q<w77777wq33<qw3733w77%@37777w3w3*@%33773777w73w77w776777676777773<333**%oo@%3777777w77677w*@%777777w7w7w777w37377$@<3<3<373773w77u7w776777w33%#%w77w3737*@%<337w3737777w7w7767673q3737773q<0---%oo@%7377w73777w77<-+%w3737377w36677377777$@3<3<33677777w3377w37777777##3w7w7w37w-@-33<3777377q<<3777777737777w7773<7***%Xo@*77703ww3777w7w%@*77w7766u673w7737777w##<<7q77737733773w376777w7w3##77777w66u%O*w777w77777777677w36w37",
"67w7<67ww33@...O@@#733w777777w7777#$3w77377637377w733w37%@3w<qq<67ww77377q<3777ww77w%@-77777777*@%3377q77733w773667773w3w37677ww30<O ..@@@#7773q3w36w776w*@%7u736637373777777w77%@-3w<<w7ww7777<77777w3w737w%@377q777w7*@%w377777w3w67373677767w3q737qq7w3<o...@@@%3773w7w76377733@%3<7q7q77777777w7w3w7$$<37w<0w777w677w777w73w73ww%#-7733w773-@-3<7<377w7733qqw3w6w67w7777036u007o..X@@@%7w73737777767u*@&3w37766777673ww7w373##3373q77ww77w7777773w673766#@377w773w6%@*u77737w3w6w6763w77773w",
"7636%%%%%%3@ooo%3**77776w7733ww3%%@#636767w3777773777773%#%6**--**%*777773<3w3773777%@*77w77w777%%**7773777w377w77w37w77w776%%%%%*3@ooO%***3<3<q77633<73%%##w37w77w36676737377w3%@37<---3%%*77337777w7667w30%@*77w377ww%-%**77777777677663w3w6w7<q7<%%%%%--OooO-**377377w3w37777%%@%3qq<w777w377ww377<3w$@<7**<-%3%6777737w737777w77##377777776*%%*377www377<q3<3777373773w3#%%%-%*OooO-3**336767377777*##@&377777377w377777777w%#<33---**%3373<73777773w777##373ww37w7%#**777333677377w66737377",
"77u6.....o@@@@@xFCCw6767377w7776o.@%7w773w773w3www77677w%#*w#@@@@@@%qqw77w737777w737*@*<w7w3777w7*@*w3w07u73w77w773w73w637u*. .. +@@@@#zHCxqqq<367<ww373..@%u73w3w7777767w7w773w%@3w+@@@@@@-0w33ww7737677770%+*77777777w7-@*ww7ww3w76w7w7w777767<37%.   .o@@@@$xHHN37w777673w77* o@%q<33373w776637<7w3w3@@37@@@@@@@*w73w0w7777w37377$@*ww37777<<3%@*w777w73q<3q<w663w7w77w0# . ..O@@@@%GCHz3w7737w3w67u#.o@&w6733ww773w7q3777773##33@@@@@@@3w733uw773w7w3767#@377777w77w7#@733337763w776777w7w77",
"76$#ooOoo@73337dzgsw77w776737036o.@$77767w3777w737w377w3*%****33637**3*%*37777w33u77****30777777w3%%&&&**3773777w377777776$#oooOo@33777gzxs7337777w7777*.o#$77u77367w37377w77377****-337w33-***&*3<66677776w*%**3ww7w77773%*&&&*%77777777w777w77q3##oOOoo%33733dzzsww7w77w3w777%.o@%q<<q77w377w373763767%%-*3<37333*%3%**737w77777w3****6777w7w37*%*&***-<773<733777w3777%#@ooooo*<*333zszu7777w7776776%.o#%777w736736773w30777w%%--*3<<73*-**&&*7w6777777w3*%**7737w3677*****3%3677777w6676w776",
"w7XX@@@@@3CHHCCu33773w36777w7w77o.@#w773773w77373w773w7736%@xFHHHHKs@@@@@-w77w7377773w%@*w77w377773%@@@@@33w7777777w6w7776.X@#@@@<GGZZH777737qw73w3677u*.o@$w7777w67777w66377w3w77@@xHHZFHH7@@@@@373773w3w7777#@3737373w773%@@@@#663ww77737773663*.X@@@@@dJHHCCq77773767677w77w-.o@%7<3q3w773w777w777u773<@%CCCZHCC3@@@@@*3733ww77777w@@63w737w7w73$@@@@#30w<37q77w77776w%.o#@##@xCHCHBw7w7773773w763wu%.o@%77737w3ww776777ww363<<+%CCCCHHH%@@@@#6773w773w7766@#w7w7777777*#@@@@%3w776777w7w3677",
"@OOOwwsw7uggusg7w7777763w37777#+O+7u367wu767<7<q7773736677%#sdddssg7%*%*-%%*777w307w77*%%%663w7w777*%%***%%%%%*7w6677676#@O+wuuwwaddsssw777w7737777777#OO@ww770ww77776w777w3776777$#ddddgds3*****%%3777737w767**$*677777w33*%%***%%%%%%6w3777377@@O#uuuuqaddddd7773w67766u67<3@@O@ww377777736673w3773ww373#$daddaas7*%*****3777773w377**%*677737777*%%**-%%%%%-3w737677*@@+$twwwuuddsds73w7w7w7773737*#+o%uw77ww7677363w7777677w33@%dddgdds******%%w7w37667367**-*77w77777w*%%**%%%%%%*77677w777",
"..@$BHHHHz*77<7777w7677w773w7uo.@%BNw77667773q33777w7w7777#@*77737773337<%@-w3777w737776%@3w677373w3w777*#@@@@%7w67uu6w3..#%HHHHGa33u737w773w3q73w7777o.@%HB37w7373w76373w77663w7<##3777777776777##3663ww7777777##67673w7733733w3@@@@@%73wu7w0u*..@-GGCZGu777777<3w7677777w73-..@3Jx3777777w777w763w777733#$3<77773733367@@w77777w77777*##73w3w7777<337w%@@@@@%3076us77*.X@7HFFFZu777777777373ww7w7w7*.X#wFs7737767uw777773w7763<<@$qq7<q<q376673@$777w3777w677*@#7703w3w737<77w%@@@#@*7ww77w30w",
"++0sssssau3<3<0<77777w7377377uo.@#xM77w7w77737q<3w77777777%@777373w7<3<q3%@*737q7u777w33%@3777w37w37677w33%**3*%$%%%$%$%O@uswsssaw7777w377w7w777w3w376X.@%Cx777767377377<q3777777w%@3777777677777#@377777w7w3767##33<337wq3<77w7<-****%%%%%%@%%%O@usdddds7q3<<q3<q3wq<777w37w*.o@*Hx77*w7777w77777w37u6w36##777767777w776##77776w36777w3@#777w03777w3w3w73-**<%%%%%#%$%#@@swdussd777wq377w377777w73<3%.o@3Hd<3<3737w3<7w373w376777@#w37w3w367777-@%w3w3wq33<q7<<@#7777w7773w7777w*****%%#%%%#%%%",
"##NH777733qqqq3<w3w7777ww7w7w3oX@%Cx7777373wq73qw77773w37w##*77w7w377q333%@3qq777776737w%#*777777377w7767ww630*@@@@@@@@@@$NN7737777q7w777w777777767376oX@%Hz773w67w77w3w3q77w77730##773w667w6w3w7%#377w37373673w$#3<3<w73<3q77373<q37q*@@@@@@@@@#%Zx3<3<7777q3773qq<7<77w3w77*oo@*Cg77w363w7377767777777w7##7u3w77w363306##773w7763w6733##7777w7w7737773w737w3-@#@@#@@@@@3Jx3w777777373q77w3w77w3773<%.o@3Cx3q7<7w73w7773ww777w7u7#%7773677777w3*@%7w7773<qq3333@%73w7377777w3w7677w3w%@@@@@@@@@",
"*7u777w3<7<3<3wq77376<773777#X+#dxwu7777<37ww37337377w7w#o@#33w77777q3q<3<*%%3773w777w3w**%%3w777w773w373w677w33-;*<-*-3<-wu777w77777777777777w6w77w+o+#ssuw777w777777773<q<3w33@o##7767w767636673*%$w77w76w77773%#%7w37w77737w77w7q773<*<3**3<-37uwq3<37w3373773<<0q7737737Oo@@xdwu7733773577w376w33677Oo##w767363w676ww**$%36377w77777**%%ww37377w77777377373<%*3*6****7ww377w3w3377<qw777377*77<3OO@%xdq37733777ww376<7776w33oo#$w77w777w667773*#%3w7<7<3q3<3*3#*3w777w37377ww777w7*3*3%33**3",
"7773w7773qq3<q<373w7637767w3o.@#xF77q7737373777wu7w77330+.O#3777773q773<3<3#@377w73w777766#@*73w7w77776777777637<3<3q3<3333w7w7777q7w3w7777777363667o.@%Cn6777776633673wq<33777wo.+#673ww7777w77773@#7w73777w3w733@#77773777w737q33w77q<333<3<733777<30<773q7w77<<q377737677oo@*Hx77733333363w737776ww77o.@#3777w7777777733@%6w3673763w73*@%37777777w767w77<77776667777u77777777777w777377777733w73<.X#-Gg3<3q<36663777w77w3777*XX+%3777w73030w377*@%77777q3q<3<7*@%733w73w777w733w7777737773773",
"73773773<ww73<336ww3*Xoo#w77%+sxuw77w%ooooo%<73777777773#.O#*777w7w3<3qq<33%@773377w3777@oXX##7777w77w77773377w733<q3q3<<777w33777w7337777wu%ooo%3w7#@zzw677u$ooooo*w77777qq7333O @#6777w776733ww7*##77777w73w3uOo.o@%777777w37737q37q3333<3qq7377777w337337w77w3030$XoX*673@#zzu7373@ooooo377www377w377o.@#67w336773w7777*@%37373<37376oo.o#%77773w067733333<<3777w7w7777777<<377737337337w#Xoo-777@#xxww77w@ooXXo777773w737w03o.@#w7773667677w70%$%3377377<30-oo.O#*77777ww377<777777773w7q337",
"337*3*737**7<<3<3%*3%o..+w7w%+sB33*7*#.Xo..#33<3663w7733+.O#77w737w7q3<33<q@@*336677w76*o...@%7777777*33333w7w77<q3<--3<33<3-33*7***733**<*7#X..#w37$@zB33333@.X...%363w7737733*OXO#33w7767w7w77773@@37%6*67776*o .o@%773w33*733<*<77<<q<03<**<;*33733-<33**3*3*-<<;@XXX$7w7@#Bz<<37*@.X.Xo*777777673w63o.@#7776w7767777773@@33333337w3*.o.o#%w77776%w*33333qq33w77*3**6*373*-3333**333*<*33@X.X-377@%Hd*7<3*O....o*7773777w77**.o@%33w37<77w7767w*@$7*3733w33<%.o.O#*w7w363*77*363<3w737333*<7*",
"@@@@.o@##O.+#@@$#X..o@#@#u7w+.##@@#@.o@@@@@@@*73w7777w#...@@*7<37737q<<333<O.@#@#@%737#.O@@@777w773@.O#@@@$*7777<3@.o.@@@@@@.o##@O.@@@@#@.X.o#@@%737o.@#@@@@.O@@@@@@#36737777w@ X.O$373766737777733oo@#@@@%777O.@@@@w733777@.@@@@@#33377<0+ ..@@@@#O.O#@@O.@@@@#@.XXO@@@*77*oo#@@@#O @@@@@@@@773w66777+..X@$737637677ww3w7*Xo@#@@@3377O.@@@#37<77w7O.@#@+@%<0<3377o...@#@@@O.+@##oX@@@@#@ ..O@@@3777.o#@@@@O.@@@#@@@%773w37777O...@#777w6w373w3777%.o@@@#@*73<Xo@@@%77w7777o.@###@#37333q3o..o@#",
"$$#%oo%%%#.@%%%%%oooo%###%**OX#%%%%#.@%%*%%%**<-3767*-@ooo@**wqq73w73<3<3<*Oo%%%%%%***+X@*%%3%33%--@o@%%*#%33%**-%@ooo@%%%@@oO%%*@X@*%%%$ooXO%$@%*%3OX%%%%%#.@*%%%%%%*3*37733*@oXX#*3767ww7w7777w3%oo%%%%**7**+.$%%**37****Oo#*#*%-<<%*%--+ooo%%%@%@.O*-*Oo@*%%%$XooO%$@%***.o%%*%%@o@%%%%%%%-3*3677**+XXX#*6w77w77763777*%XO*%%%%*3**oo$%%**<3-***O.#**%%%<--3***Oooo%%%#%@o@%%*Oo#%%%*@XoX@-#@%**%oO%%%%%@o@*%%%%%%*3*67533*oooo%*ww7777w377677*$.O%*%%%*7-%oo%%#-3******o.%%%%%*3*****%oooO%%",
"37q3#%BCKu@wHCCCV$@@-Jd@+...O@gFHHCx#*HHCHHHB*@@@w7u%.o#@@sKu3377777777w3O.@@kGCKKd@O O@zHHC#@@O...O@wKHHHH#@.....O@@@xCu7w*@*HHH3@pKHCHx#@@-Hu@o...@@xCCGGd@3CFFJHHB%@@@7ww@ O@@@lH03w7777w67777o.O$HHHFHw@o.O#xHHx##@O ..O@dHHBHx$@.....O@@@NCu7w*@3CCH*@xZCFHz@@@*K3@o ..O%NHCHHw@wKHHCHCB#@@%ww7@ O#@$NB77w337w776773..@%HHHCC3@o.@#xHGd@@#o ..O#xHZHZg#O . ..@@@#HV77w-@wHHH*@NJCCKg@@@wJ*@o...@%xKBHZ6@sHHHZHHz@@@%777o.@@@%Hz377773w7777w3.X@3CCCHC*@..@$VHKu@@@o...@@BHHHJp@o.....@@@%CV",
"7773$*xxx3O*dxmxx%%$%w3@+ooo#*zxBzzw%*zzlzzzz*$*%*%%#.@*%3sxq3q73w73w36%%Oo%-xxxxxw#@o@3szxz%%%#ooX@*dxxkxd%@ooooo@-3-dk7333$*xzz*O3dgxxx%$%%w*#Oooo%*xxxxxu$6zzzxxgz*$%**%%@o%-3-slw737w373667%%Oo%*xdzzz7%Oo#3xxxg$%%@oOo#*szzzzs@@ooooo%*-3dx7773$7xkx%+wdxxxd%%%*w-@Oooo%3zzxgx0#uxxzzzzg%%%%*%#Oo%3*3zz77*7w737676*%Oo%3lzzzz3$Oo#-gxxd%%%+ooo%*sxxxBu#@ooOoo%***dg373-$wzzx#@wdkxxu%$#*w-@oooo--xxzzz7#uzzxzzzs$%%***%Oo%*%3zg77777w37777%#oO%wlxxxx*%Oo%<xxxw%%%Oooo%*zxzxxw@Oooooo%<%3kk",
"ww3w7777w$ O@%q77qw7- o@#@@@dKw3*776777w33773w776#@.o@7HZFs3777377uwuwu+ O#kCq7777<w%@pJs333<333@#@0Jd77373@@@@@@@<JGGw77w7737773@ O@-w7777w% o@@@@#xK3377q7w73w7777777w3#O o@pKJFw33777777u7uuO.@$HH377333w%@dH033777w-@@@uKu7733<@@@@@@@sHHJw7377777qqw+.+@7q7w77w@ o@@@@@NC77777www777ww7*77u*@O O@sFHC773ww777307u6o.#%Hx77777q7%@xHq7q7q07*@@@zFs773w*@@@@@#@zFHHw777w777733O.@@3q<7q7q@ O@@@@%HH777w77w777777777u7&#o.@#zFHN637w0uu737773.o@%Cx7w7q30q##VC7777373%@@$xH7377q*@#@@@@#mJCM33",
"377777###@o@33777737-o@3363*wu776w7w7777773w773w*+oo@3uggg33777ww37767w+.O#jCq773u33%@7Hu7773<3<%%%0gw777**7w77733wzgdw77w77w*##@@O%q733w777%o#33333uw3<7777w7777777777w%OOo%3usdsw3w777w667666O.@$xC77u3377%@dC0w777773%%%wdu7<3*-3333377uzsdq777777*#@#+o%7777777w-o$37w37ww<37777777777377777%OOO%3sssz7777w73w7ww36..@%Hx77<q777%#dVw77773q*%%%wdw737%*7777730dddx37w7777%@##Oo-3333777q@o-733333ww763w377w7773w7773#oOo%7ddzs7w773777ww77*o.#3Cx7777<3<%@xN7377w333%%%dd777<**7333<q3ddddq3",
"7777w*...o@uHsq77q37*@<JHJHK*@*w77w7w7w7w7773777*.o@*Hg3666776636ww7677+.O#kH0777777%@wJu3777w3737wq33777##VHHCZHJd7337777ww3%...O@aKa7w77w3*#3JHCGG%@<3q777777777w377773.o#wFd7777w3737w7677w6O.@#BB7777373%@dG7w37w777wqq77q333@$xCCHCHHs733q777w3w$  .O#zKs773<q<%@pKHKKH#@63777377w77w37777q%.o@uHu36773737w77w7777..O#ZB77337q3$@lCw777w70333w7337w<@%CGCHHHHs333777777s#.. @#mC77q7q77*@xKCJHN@#w7777ww777777w3770# O#dKww6667776377w3773o.@%Hg777<q33##VV73777777q3w7<03<-@-CHHCHCZq3q777",
"7773%%OOO%7wdq37773q-O+0wddd7%%*7*773737777ww777*.o@%sw36677777w777767w@.@#kCw777w77*%77**33773qq<3777777##VBssssdu37777w73*%%OOO%qddq773w73-o#3usdd<%%-q73w3w777w737730-.o@3dw7777777w7777773uO.O#nBq77qw7q*%77**3733w77377<3<q3@%Hmdadss377777w7w*%%OOo-wsd777q73q%o-7wsdd**&&777w77w73w777777%.O@3sw6677w7w737w37777o.#%Cz77w3q<3*&33%*7777w7737w7773-@%Cxddddww7<33w7w3-%#OOO-udd73w737u$o%qdddd*%%*77773777w773w77w# @@3dw73w77777w773w773.o@%Cx7773q<q*%33%-w7w7777737<q<q-@<Cxddgdd33<<77",
"w373@@##@7Kd3737<3<q- o@-37737#@33777777737w77773.o@%7777u63w377767667w+.O@xH3w377w73w$@@@*7<3<qq3737w7q7@#CN7*7377w7w777733@@##@sHw377777ww% o@%33*3<##77777377777w7370%.o#%33777777777ww63767+.@#nC73q3<3773%@@@337737w777<q<33@%Cx3777777777w77w*@#@@#sHu3777773q# O@%73703@$w377777777w777wq$.O@*67377777377777ww77o.@#Zz377<<qqqq@@@$7773w737777w70<@%Cx3777377777777w%+@#@@jCq37777773# O@*7733-@$76w777q373w3w777#.O#*3777763w37777w377<o.@-Czw7737w777@@@#73w777q3<3<03q<+-Cs*3777<q3qq3",
"77@O@%dsdddw77q3qq<3-.o@%<777<%@w7773w3w7w77777@O.o@%777677w773w77u77%O+O%*wu373w7w7<3-%3*%-<q<3<3qw73777--*<7w7773w777773OO@%dswdpwq7777737%.o@*33w<3##77w77wu7w3777w3Oo.o#%3777ww3w3w3777wu#O+O%*uwq<<3qq773**%-%*77w777773q7<3-<**77730ww77777*O@@*dddwd7373w777w#.O@*w3w03@$773w773w7737w7*Oo.O@%w7w773w7w7777777#O@O*5uu3w6q33<33<***%%7w37w377777w3---7777777777777*O@#-ssupd777777uw0@.O#*q773<@%u7373w73qw7777*Oo.O@*777777w763w77777@OO@*3uu77wq73777****%*33w7<3qq<3<33***3777773q<77<",
"77o.@%HHHg3773777777*.o@%q33q0%@<377777w76777w3X..X#%7777w37777w7777q#.O#*u*33777w7777www0%@3777ww3777777w3##7777w3377w376.X@*HFHs73w7777777%.O#*37777$@77<57776777q73*.. o#-q7q673w77737777q@.O#<33337377777w0w77@@773<q7w37w777w7@%7w777737776w*.o@*FHCu7777w3377u# O@*q7703@#777773777w3w37*...o#*777w77w3777w377qO.+#7q3w77w737676ww3<@$w7w7w73<3w777w*@%w7w77<373777%.o#wHHJu*q3w777w<q@.@#<q7773@%33777337w7ww7u%...O#*w77q77w33<q77u7wo.@#37767737w3677w07*#%77377w373<qq3w*@%7776777w377",
"77XX@%wwuww77ww7777w*.o@%3773q-*$$##%@#*3#ooooo+@+$zd37773q<7773q7w33#.+#*7777w3733w77w777@#377737773377733##73w777w3w7776XX@$wws77w33w773w7% o@*0w6w73*$###$##*w@oooOo@@@%xw7777<6773www7q77@ @#<7<737w7773776w73#%3qq737q77777w3*@#7w73w7w3w773*.o@*wuu73w7777337w#.O@*w7qw73*$$##$$#37@ooooo+@+%zu777777777w777q33O.@#77777777w777w77<3@$3737377377777w*@%77773qq7w737%.O@*wsww7<77777<33@.O@;37777**$$$#$$%*7Oooooo@++7xw7777773<q733w773o.#%377307w63w77673w*@%77w777w7<33<77*@%7773w677777",
"63oX@#7377773w3w773<*.o%%w77373w$####@@*w#.XX.X###*CB7<377q3777w<<<3q#.+#*77w373w7w7776677%#*37776333377773##*776777737633XX#%677777q<777733%.O@*<77w337#######%qO..X.o@@#3Hg7777w3777773777q+.O#3777w777w3w667733##3337773<777737*@%7377w777366**.o#%w7777777w3-333#.O#*7777703#####@@*7o....o###wHd73<7773763777<3w+.+#377w773w3677737q*#$7q377733373777*@%377w337773<7*.o#*7777q3q37777<3@.O$307qw333@####@@*3..X..o###sFd77777ww3w77773w7o.O#3777w73777777677*#%733777*7<373qq*@*3q37777w777",
"XX+$377w77777773wo.oo@*xd<3qw777*7333<*&##++#+#sNBz7777<w33qw773qw73w# o#7q7777w3737w777<3<*$$7w7%XXX@####%**%%7w7w77w77XX@#67777773q3303o.oo@*Hs673w7w7*363633%#@O@@@#xBxdqw77773w77u773w777@ O#7777773w3777w77733*#%37w@o..@####%3-@*777777w76oo@%3w3777w7773w3oooo@7Cd7u7773733*3333%@@@+#+%BzCsww7<37ww0w3w77773wo.@#777w77w766w77w7w73-@-<<w+.oo@@@##%7%@*ww7q73w<<oo@%7*7777<3q737%ooXO@wCu<q37777*733337%#@+@@+*BzBs7w7777w3777777777wo.#%3w7777w76w3w777<3<-%%w7wOXXo#####%7%#-q6w7736w3",
"..@#3w7776667777-o..o%*Nd733<3w3wq0w7w0-#######zNzl3373-*3773w3777<-3#.O#*73777777776w363*w7##3*3#...@$$$$%73@-336*363*3o.@#7767w7777773-o..o#3Bu*777667ww7www7*######%xxCd7773*33*777737<-%*Oo@%*7777<q737677w3337<#%3*3@...@$#$#$3*@**36*36*6*.X#%7777w7377373%.o.O#wBu7<73777wqw77w7%######*zxHa777<-%377377777*<3O.#%337733777w3377777q*#%-33O...@%%%#%7*@**3*77333%Xo@*w77ww7777773#.o.@$uC<<7q77770w0w7w7%######*NBBd777***3777w377<*7*oX$%%337777777637763<q-#%7*3o...#%###-0*@-33*7333*3",
"..@@333w777w77wo.@@@%Hd##@-<7<77773777733w77763###%77w#...*7777uq%...o@wC*@7w777w3w67777w7w77*#@.o@@@wNHV33773*@########X.@%6w3w3<3w777o.@@@*Hw@#@*7767777737777777737*###*77w@...*w73w0q-...O@uN%@3773q7w776777<<q07*#O.o@@@dCHC7<q37*@########..@%773w37377w3Xo@@@3Hw@@@33373w77377777w73637*###%q7qO...6767w7w@.XoO@xl%$777w76777w7w3q3773-#O.O@@@zBNz77777*@#####@#@.X@%q777777w77*Xo#@@7C*@#@77773q37377777676777*###%wu7o..o6777w77@...@#xz#%77777w673w367q<3q7%#o.@@@#zCCz3*w<<%@#######@",
"oo@#37w7w377660O.@@%-ds#%$--377777773w773773773%%@%37%@ooX%73w66*$XXo@%aB*@*7w3337777767777777%@.O*%%uBzz77777*%#$#%##%$oo@#7777w77703*o.@@*7Bw$%#*36677w777w3767q77773%#@%73%Oooo*77w77*#ooo@3dN%@37377w36773w3q37773%@.@*%%dBxj73773*%%#$$#$$#oo@%w777773775*XX@$%7N3#%#33777777w3777w77w7776%#@%w*%OXoo677633-@ooX@3dl##777w776w3773qq7w7q-%Oo@**%gBNz7w377*%%%##%@%#oo@*03733w7w33-Xo@%%wB<$%%-3737777773w77373ww03$#@-7*%OXXO67w733%+.oo$%zs#$77w33377w7777q3777*%O.#*%-xCzg777w7%#$$$##$#$",
"@@@@77373w777wwo.@$HV377<3%@*q77773w7777w77w77w73@@w% o#@@*u777*.X@@@3Jp<#@7777w3w63w3w773ww7733@3HHHw77w773w773777w7777##@#w7w3373ww33o.@%Fz73737$@6u7733w77776777q73333@%w# O@@@*w7w7%.o@@@wCd3##37wq3763w7w7773w7777*#7BHHw3777w7733330w77776##@#w37777w7733..@3Hz37337#@37777773w7737737w777-@%w#.+#@#67ww7$.o@@@dKu3#@ww33<7776777<33q777<%@wJVHw7773w7<6673777333<@@@%w77w777333- o@3Cs33<<3@@w0q37777773ww7777377*@-wO.@@@$7w073#.O#@#xHu7#$77w7ww763w3w7<3q7q7<##sCHCw<7777777777w7w77w7",
"3*****0wu77w3w0+o**zs3w377*%%<<7777w7w37w7777776<##$@X@<3*3%--%@oO<--3lp7@@*73777766777w3w367w3*@3HBzs673777ww3777777w76****-33q7776ww3Oo33zl33737*%**3767777wu677777w3w3@#%@o$3****3%%#o@--%wxw3$@3w7777676737u77qq3<7*@3HNzu73wq3<7w3760373777**3**36w7w776w3XO33xs77w77*%-<7<777w3676777w67763@@%Oo%<*3**3*%@o@3**dxw7##7w77<w377w7767773<q3*@uHxxw777w3w36663<7w3763*3***377w37w3w-o@*uxa7q377%%*3777w77w77677703777<@$%Oo%*3*3*3%%@o#***sxw3@$677773667777w3<qq03<%@zFzzw3w77w377w7w776w377",
"CHFB##377677773%$NH37773q777%@*qw776736737w777w3<#@.o@3CCH*@@@..@*HHCd<<7%@*ww777u773w7777w77777@*Hs36773w77377777ww7776HKKx@#736776377#%Hv377w7773w#@3777w36373w77377733@O.o@wCHH$@@@..@3CHHd373$@3w77377767w6677373q7*@3Hs377w373q73677ww7w7w3HCHs@%w7733w773$%Hl3773wq337@@73w777w7w377633w6u-@O O@pCCC#@@o.o@7HCHw776@@70773773w3677777q73q*@sJu37777677776u7773773wHFFt@*777777773#*Gd33777w7*3@$w*733w3677737ww777%@o.O@gHBz@@@O.o@wHHHw773@$wuw777777w363<<3<wqu#@zBw37777777673736777777",
"djuw**7767w7776#Oww7777w3<3<%%**3w7w7w76763736w7-OOo@3ukss3%%%OO37dxxu30w*%*%**7737777777736###@@*zu*7767<q777w337q37673dg7w%%q<7373776OOwww77737777-***363w777w3w3w77w3<OOO@3wkss*%%%oO3wgskw777*%%--*3w7737777773*####@*zw3777<3<q7w766637673wdg73#*677637<6*O@0w377777777*%-%3w7w773w777w37w7%OOO$3pkss3%%#o@3wdzdw773%%*%**3w77777w337<-####@3dw377w77776w337w3ww77wssw%%*377w3777*O@uw3777377w3%%**766763w37q7u3w37%OOo%wsgss*%%$o#3sdxl0773%$%3$*76w3366770<3-$####0s0376773w3677363w37677",
"33@@*6w77737w67o @#3w3773q<3q0#@*7737673w3w7w777- o@*Cd;773733@%HB7733w<73w#@@#7uw3w76w7w766...o@%737w<6q3377u77q73w7w7w33@#3<3q7w7ww63o.@#7777w7ww3<7@@w77776w37777767u*.o@0Cd<76w777@*Fz733777733@@@#3037w766u7qw<...o@%777777qq<376736u777<6333@%66w7w337763XX@%w77w73q77w*@@676377677763w777% O@wJw<7733w3@3Hz777w77773@@@%73667773wqw7%...o@*777w7763w3777w777737736*@%3337w37777*.o@%q7qq377777*##u6777w777777777u# O#dCw77377w*@7Gt<337773w3@@@%6777w77ww3w0$ . O#%w777777w773w7w7w7773w3",
"37%@*ww7w76637wO.@$7w777<<q3%O@#3677w77ww6w3677#@.o@*Jd373q<37#%Nxw777737w7***%%%%%%%%#++@@+OOO@w7%3w363w7777w377q373qq773#%q3<<7w77377o.##73w73q<77@@@#3677w777773w736@O.o@qCd7q777w3@%Cz<7w777w77****%%%%%%%@+O@++OOO$s7%*7w33377w377w677w377w3<@%7667767773*.X#$77777q377@@@%77777w367w367w*@o.O@wGw3q<<<3-@-Cs777777733***%%%%%%*%++@O@+OOO%u*%3777w776w777w3w3w777w63@%w7w7u7w777*.o@*<<33q7773@#+$w66377w33<q377%@O.O#dZu7777w0%@wCd7w77q3773*3%%$%%%*%%++@@+OOOO<u-%36777776776777677w37w",
"77##6777777w770o.@$73777q33qo.@$*7w7w77376776u7X..o@%Cg37q33w*@$Hl77777q7777307@@@@@@#o ....@#@*Fd@%777w3767w377<377<<3773@#73q3777wu73oX@#7777q33q3o.@#w77633w677777w*...o@3Cd<37773<@%Hz773766773w7w*@@@@@#@X.....@@@3Ku@%777w777377737777w773<3@%ww777<u<w03XX#%773w33q77o.@#777763w763w773*...O@qGa333<0w*@-Hg77w3w77w3773*@@@@@@#X.o  X$@@wK*@*w3736377ww77677777737*@%073767w7w3*.o@*3qq<7w63*.X#%377w6777q<3q7q$ ..O@sCq7w77733@wGd7777<377377w3@@@@@#@... .o%@+dF3@-w7w3773w776777677777",
"33$@6776u%o++o++O*3777q3w7<q+.+$3w77676ww7766#oO@O+@*Hx77q7q33#%Bzw3w33777w37w33***3#XO@+OO+stssw-@%w37777w3667w3q<qq3770-#%7w77w%OOOOOO@%*7q377<qw0O.@@673w7776w3776+o@@O@@3Cd3<q3333@-Cg6777w30w77777*****@XOOO@O@djsaw3@%03777w3w7w3wwu77376w33@$77777#o@OOOO@*73777w3wq3o.@$7676767776777+X+O@@@qKw3<q<33<@-Cs66367773777w7*****+X++O@O$dpddd*@*3q777w77377777673w7ww3@%w6777#o+OOO+@**q3<q36373XX#$777776w3q377*OO@O@@@sH73777<7*#7Gd7777wq77777w3*****OoO+@OO%dpddw#@-w777w7w7w7w7w7w7w777",
"33%#6776u#.....@#7373w773773+.+@*7776777777w6o.@#@#@*Jd730<3<3#$Hz3w77w773w777<3777w@.O##@##NHHl3-@%77663w777u73<q33q<<33<##77777+.....@$7777u3q<373o.@#677777u777776X.#@@@@7Cdq<33<q3@%Cz663w773777w777773w+.@#@@@%HCHx7%@*w7777777777737676777<*#%3w73wO.....#$670w7777777o.@%w3w3w377w3773.o#@@@@wJu3<3013;@;Hz*3w773ww7773w7776uo.@#$@@*HCHd7%@3773w73w6777w767767737*@%76767o....X#%w7<3q7773w*XX+%u73w777673w7*.o#@@@@sHsw7ww3w%@7Zd77w337777777373777o.@#@@@1JHGs7%@377773736373637363667",
"oo@@3<q%oO@@@@@wx%$33777333qO.@$6776767777777#@ddkjksu7w37w376#$w77w377w3w37377w-oo.O@3xzszzwuuu733%@$$377777w777w77#ooooo#$77w%oO+#@@@dx%%70w773330o.@$33<36777w7766@@zzzkkaw77377676#$s77w7673q33<qq3u%oooO@uzxxxguuu736*%###3w7w7777<7733OooooO@%q37#o@@@O@@ds#%377777w37X.@$777777773w737+#gxxkkau77767373@$w0777777q3<<q37u#XooO@uzxxgduuwqw33####777w77770777wOooooO@%777#oO@@@@#xu#%77777773%XX@%37w77677w37w3O%zzxxzuw777777w*@*u773w7w7ww377u77#XooO@zlzzlsuww7733###%7w7w7w7777377ooXo",
".X@@<3q%.O#@#@#xZ$@3<7373330O.@@367376w6w3ww7$#xCHHCz7773w7776#$33w777737777w777%...O#tFHHHB3677773*@@@%3777307<7337O.....@$377#.+##$##xx@$767333;30oX@@<30<3ww336773#$zHHHCd777w7w376#$7777767wq7q<3<77# ..@@sHCHCM7777w6w%@##*3737w773ww*<O....o@#3<7@.@%$@%%Cz#%3377737*7oX@$w3w6w777777w7#%HCGMCd777777w7*#%737w7w3w<3q37777#.X.@%xHHCHx77q7773%@##777w7w77ww363o..o.o#%737O.@@%@@%Hd@%737733333Xo@%0w377767773w*#*HNCHCu7w773ww7*@%66uw373737773077+...@*NNBBHz77737w7##@#*373737w77w7*o...",
"@@@@XXXo@%BBNHNu773$%7*XoXXXO@-<377w677w037777*%%q3qu77w73773w3*%%w7777w777777*oo@@@3Vs77www777777w3337%#33<7w3377#.O@@@@@@@ooXO@3BBBBxuu7*#%w#ooooo@@3<q30<777w63w3333%%wwww77w777776**#%w7w3w73w3377*.O@@@wNwwwwwq7777777636*%#7w337<<77@oO@@@@@#@XooO+wCkxmxu77*#*3@.oooo@@<33677376<q377773#%qquq37qw377776*#**777777q7777%.O@@@sBwwqqqw777776w7673##337w777w7OXO@@@@@#O.ooO@wHBBzlw77*#%q@Xoo.o@#337777w7w7w67777*%*7wu77777w77w77*#*7777773w7w7w#.+@@@xzwwwuu777ww7773363#%6<77w7777oo@#@@",
"%$%$XXXo%7BBHlxw773#@*%.X.XX+$<37773w7777777373@#7777w777w777763@#37w377w3w77**Xo%%%0Hs773767773777w37w$@3<377733*+o@*$%$$%#X..O%wBBBBC7777@%*@..o .+$<3<<0<w7777w7733*@@37777777776w3w*@%3w7737777q7*%.o%%#wHu7<-77w7777776777#@37777<--3O.@%%%#%#@X..O#uCMCHx7<33@%*@....o@%377763w766q7377*%@%w37<q<377w7w67*@*77663w3w777*#.O%$$zBw7<777w7777637776#$36777**6*XX#%%#%$#@...@%gNNNHxq77%@%*OX.o.o#%*37776373636673*%@%73777777377777%@*763w7377737*@.@$$%xNw7776777777w776w*@%73w736%**o.#%%%",
"CCCm@@@%Hz7776w7q7<#@.o@@@@@*377ww37www7703u7oo@#3q03u77w7wwww37#%73ww3w3w7w3Xo@-xHHz3737w37677w307w3w7$#<<<q3%...O@tHBHCCGd@@@3Csw37w0w7w3@O.o@@@@@377700q7u7ww7www3.o@%uw7w7w37wwuww77#%u77wu7u7w77oo#-HCHs7773w733w0377wu77w##*w7qw%...O@zCBCCnCd@@@wZu0wwq77w3*@O.o@@@@@-7q7ww3u77wu0q3<-.o@%uuw3w00ww7w6uw*@*7u7037q0wq%oO@wCHCu<w7w7wwww37wu67776#$77www@...O#zHCHMMCq@@@uBu7w776uw7%@O.O@@@@@777777wuw7ww7w77%.o#%7w7w03070377ww*@*777w3w7w77%.O@uCCBw7777ww777u7w37w373@$7w07r+...@#BBBN",
"Mxxk%@%3Bs7777w7373%@oO%%%%%*373377777777w777O.@#<<3<77777773773@#7w777373676X.@%HNzs77w777766777w77777%$---%%%ooX@%szlzmjxg@#%3Hu7373w377*%#.@*%%%%*377<377777773777X.@#77737777777377*@%7373777737*.X@3FzBs77u777<77776637767%#3**%%#Xoo#-zzzlxnCd@%%wCu373777777%@X@3%*%%3*<3376677373<3q<.o#%77777737777377%@*67306773q<%.o@3HCxw777777777w7w767766%%***%*@ooo#*zlBxkCxw@%-wB777766377*%Oo#%%*%%*3w76737777777w7*.o@*737qq<<7ww77w7*@*w777777366#.o@uCCzw7w7<6767663w7777u3%%*%%%%@.oo%*zBBz",
"<733#%Hn6777wu6<q3q33@*CHHHF*@*<30u7u7w7ww77wo.@%770737wwuw30w73#$uw777wu6676..@%Zk<77u3w7w37u307u777wq7q#@...o@@@wHd7373q3<@3Kx<77w777ww7w7-@3CHHCH*@*wqqw7w7u7wu777oX#%7w70ww3ww307773#%7wu7w77w7u7.o@%Fz77w7wq33q<uw37u77wuw07@@...o@@@wHs377777*@3Kg<77w7qw7037w%@wHHNCH$@73ww77wu77w0<q*Xo#%77ww0u<03767773@&w33w777w7w%.o@wHd377w77w77uww777www0673@O...o###zHw77w3<3*@wHd660wu7w0ww7w*@dJCCCC##7w7u77wuw3w77w*.o#%77u<<q0w337w7w*#*37w3w7w7w7%.o@uCu77777u6wwwwww07wu777w*@O...O#@$zH77w7",
"773<O@aqw77666u3777<<*qxxdxx*%&*6w76777773w73O @#77q7q7w66773773##77w777767%#o+*7xu<777w37773w7w777w77773%%oooO-*-uxt777333-O%s77777u77777373<qkdlzz*%**3<q<377737667X.$#7q73777777w77w*@%777637u3*%#oO*wzs7777777q773w7w77666767*#ooo@*-3uzw3w3777*O$dw77777w77w776%3szzxxz-$*37777w7777q<3*.o#%7777q77w77w777%@%7773w7777$@o+-7zs37777767777w77777736u*%$ooo#***sz777777q%O*dqu73777773w773*pxkjgd%-**3w7766777777%.o#%777q73q3w77777%@%w77733373%#X#*axu3ww777767767737377777*%$ooX%3%7dd7737",
"7773..@@ww37w3ww77q37HN77303<u#@6777737w77q7qo.@$777767w7777w7u6@#<<7777777o.@%HB7w377w377w77677737767777u6##@*HHKd7777373w%.o@%w776w7w777q3aKz7767330@@333q773q7w7w3o.@$777777w7673777*@%w77ww7777.X@%Cx7777w7wq777w676w<767w377w7##@*FHHu7777ww77% o@%7737767777w7sFs7w7w377@#7w776w3w7w773..@%<77377w377w<7w%O#777w33<7*.o@3Gz*77767777w373u6777377w37w3@$@wJHHs377<3777#.O@*667777767376sHs3333337@@w3<7w377w3u7*.o@%w7u337777w3667*@%w7777w77% o#wKa777q777377677w6773w3w777w*@#@sHHH777w77",
"7733o.@%33777737q3q<3zs777w366&%**777w3%#####OO*6**$*w77777737**%-q33q77777o.@#Bx77777w76w3677677w3w77w3w36OO@*Hxxs7777w7wu*.o@%w676w7373q<3wxu77w7w73**-<<<77q%###@@OO33*%*3373777w3w**%%037777777XX@%Hx777777w3777777w3677736777*o+#3FBzw77776377% o@*77w7w3763w36uzr7373w3*****6w773%#####O@7****3777777333%3**w7777w77*.o@<Cs3w3w6w63w777w66777w3w7777*O@@wHdz0773qq77u#.o@&u7773w76w0w7uzuw3<3qq7-%--77777%####@o@77%%*33777777u6*%%*77w77777%.o@wHu7q7773ww7w3w7777777777776%o@@wHzg777377",
"7773.o@%w77777u73q3<76663w366uw7##37777#.....##ZN@@@$w7773777*@#3377<<q7w37o.@#CCw3777377777w7w7w777376777*..@%Hd33qw3w7777%.o@%767w66777<qq7777777777w6@$q377q+ . ..@%Cz@@@%w77w3776*@$767w7777u76X.@3Fx3w3777w73w3776673w37w7<ww-..@3Hs777ww6777w% O@*77773w7w773w766777777773@#776uwO ....@%Ju@@@%37777q37*+%w7773<33733.o@3Cz37w367w736677<7q3q<73777w%.o@wKs*77q337qq0#.O@*03677363377777777777377*@%77773o... o@3Kw@@@*77773737*@%w777777w7w%.o@wFa777777777<606677w377ww3wu#.O@uHw677w773",
"w77*o.@#0w7777777<3q777677773w37#@377*++OOOOO7was*3%%%*77ww37*&*-*73q33%+#@o.@%uu777w7776w7737363777w776776.o@*Cx37777337763.o@%7777w773q33<w7777w777737@$77<*@OOO@OO7sdw***%#3w73w776**%*77w77#+++..@%ss377w7777w7777677w77767677%.o@3Hs7777777777% O@*w7w36773777777773w3w7w7%@%776#+OOOOOOwud7***%%<7777776**%*w7w77@+@O.o@%du67677777w7773w777337w7773%.O@7Hu77777w73<w$.O@*w7777w7w6u777773q777w77*@%w77#O@O+Oo@wudq**%%%377w7w7**%%*73773@@@O.O#*uq777773w7776w77773w7737737#.O@uHww77377w",
"q777.o@%3w03u7w3q3u77wu77w03ww77##77u*.o#####zH733wu*@%uu730www7@%37773+.....@#37w770w3w77w7770ww3w0w7w3ww6.o@*Hx703u7w0u6w*.o@%wu76u67w6u0ww7w3q0w7q377@$77q@.O####$NB77w77%@*7w3u7w7w%@%7w77wo... .@#737w003www33u670wu7w77wu6ww*.o@3Hs7u73w3ww7w% o@*u73w7w00u6767u0ww77u37w3@%77u+.+##@#$CB777ww%@*uww03677*@%7w373o... o@%3577w77w76u0wu77wq3wqww7773*.o@7Fu7w3q3u7<<q$ O@*w3u7wwww677ww37w773w3737@%77uo.O####%Kx7w7uw%@37w76u7ww*@*w7737.....o@*63w0w77w0w3wu77wwwu677777qq# O@sKs6u777w7",
"77@O@@-377w7777u7777737773w76776**%#o++%ddddsuu37w77*@%773ww777*oo$%%%%#+++O@**%%0w737733ww7w737w77766w77+o+#ssuw7w7777766OO@#*377w77767673737w73q7730w33*%#OOO3gdddssu7777w*@*773776773X+%%%%%@++@@@**%*777q777770w77w776w77676<Oo@$sdwu37777773*OOO#*766777773777u67373777w737**%#o+O3sszsssw37773%@*u7ww7776%XO%%$%%@+@@@@*%%*77377w777377673<33737w73OO@*ssu77777377q-OO@#<377666767677367777ww7w7q7-%%#O+@wgsssauw37777%@*w3777777#o@%%$%$@O@@O#*3#*737w373673776773776uq77*OO@3sap73677u37",
"73o.@%37w77777w7777773737777767776#O.o#3ZCCHHw7w777w*#%w7777w7w*.o#@@########6*#$637777777773777377377776o.@%Zz777777w376*..@%<77766377777w377373<q7777733@O o#uKCHCH37w7737-@*37w3w777*.X####@@#$###6*@%3773q<777w77677w7777663<..@-Gk3w077w3377*.o@*w766363w77w33w7777777ww7777*#O.O#uFHHHH77www3w%@*777776w0#.o#@@##@##@@%w*@*77766w7673777u67q3w777w*..@3Hs7777w7w3<3% o@-3377w766777w77676337w7337<3*#o.+#zZZFHx7777777#@3377w3w7w#.O###@###@#@$u%@*77777777766w776w77777<<$.o$wHu<7w777777",
"73@@-33<777w7703w3q37w7ww3777ww67*oo@%zsuu7us773w7<6*@%w77777777@%xzzxllzw*33776*###3ww73w773w77777w77w66o.##su77w7w777776#@3337w677w3w677777u77q733w7733*oo@<xaqwuwww777w33%@37777777w*O*zzxxxzz7%w3377*@##*w<q7737w37603767w7w-oo@%qq33w7777w773+#663777w7777777773w777u3077777%.o@7zs7uwuw7763777%@*w77w6773*+3zzzzzzz33**773*#$#3w3767w777763q777777*.o#*u7ww77377<<q-@$33<3w76777767w773w7w77777qq37#.O+uzuu7suu777777w#@*3w777777%O7xxxxxxd33*3733%$$#773w7766uw76373w777u$.o@*w7373w3w777",
"73$#77w7w73w77ww77767677777373w773.o@*Hs777677776w3u3#&*37w3<7w3@%FNNVHVBu7777w7*##@#7777777776773<377737o.@%3773q7uw77773#$q<73377w3w377777w337777ww3667*.o#3Hs*7777767777w*@*7*77w3373@3BHCBCCC777q<3q*@@@%33373773w77w77677731 o@$3<3w03q377773@%37737w77737777w037w37u77776w0%.o#wZu66677777q33q*#*73qq73<q%@7CCBNBBNw77<3<<*@@@3333777w6777ww37w677*.o@%33<77737777w*@%0377u7777w37ww777777737777w7<#.O#aCu7<3uw7w77730##*6377w3w0%@wFHCxHBx7777w3u%##+**76737w7777737w77w7%.o#%7777w3777w3",
"w3##773737677777w67373w3777q7w377*.o@*Hz77w37763776677&@*w737733@*HN737377776w66w7#.O####@67w73377w<777<7o.@#w777777377773#$33qww77377w73w773ww7w36377776*.X@3Hs65777w77w37376%#*7777ww%@*Hs777ww3q333q77<#.O##@##377777w776w776<oX@%<3<77773q7773#$w77w<3777w3w777w7777773w63773%.o#wBs3w7777633<q7<7$@<<33<3q-@7Zs70w7w777qq7<33@.@@####773w777777777u*.o@%7773w7w3w77u*@%w777w77377w77777773w7w777737q# O@dCq73<33737777w76##6777777%@uKww777w3w7777767+.####@$77w7777w73777u%.o#%7777377w777",
"%*##67u7u6677w03377w677ww3377w777*Xo@*Csw3776w3w77677w*@%77w*3%3@*Zn77qq737w77776*#.O%$%%#*33333333-3---*o.@$7377q<37q<7**@$<q37376wu73677777u77677ww3776*.o@3Hd33767777776767%@*77777**@*Hs377777<q<q777*@.@#%%#%33*3*63*73%33*-.o@%<<77uq77377**@%7w777w33w777w77w7373777w7w777%.o@uFu67w76w3w<7q333%@*77q773%@7Hg7w6737373<<q**@.@%%##%7%*33333333**%%.o#%77w77777777**@%377737ww7737w377w7w7w377w37w7#.O#aCa777w67767w7w77%@67w7663%@sHw77ww3q376777**+.@%$%%$7*33*3*3****%3#.o#*6w67w7737w7",
".X@#377776w776w7w773w77677q7307ww3.o@*Cz77667777677777*@*67773oo@*Fzw337qw73777w*.o#3HHBBH%@@@@#@@@O.o.o...@#ww773q3q3q3oo@$73w7677766773w777777776377777*.X@3Kd3w77w6w3w3w763%#*uw777.o@3Hz37777w3q<377%.O#uZHHHB#@@#####$X..XX..X@$q3q77777wu7Xo@#77ww777w373w77777w7w777w73w7u% X@sFu673777773q7730$@*q777*.o@6Hg733w77q<3q<w#.O@dCCCCz$@@##@@@#X......o@%u30w777u7w%.X@%w7w77737w3w73w777767773w7777q#.O@dCu773w677673777w#@6737w%.o@wFu7777<73w6uw7+.+#lHBBCs####@#@#@o.o.X..o#&u767777w337",
".o@@367377w377u7377w77w7w7w37777%%oO*3xdw363737377w37w*#%37773o.@%xs676w3<377w3%@o@*wzzBzB*$#%#%%#%Oooooooo***7773w3-%%%o.@%77w7w7w773777w3777737w777766-@oO*7Bu67w77376367767%$**777*Xo@*Bs77w77777<33*#.@%sBzBzz%$%#%#$%$OXoooooO---*77777%%%%.o@%7377777766773<qqw777ww7w3776%@o@%szw6676737377773q%%**777%.o@3lt77w7737w3q-%@o@*dxBxzs%%$$%#$$$OooooooO***33777q*%%#.o@%w3770w6737677773777ww776777*%@.#%dxw7w3ww373767w37%%%3w7u#.o#3Bu7377q3777w*%@o@-dzzNzs#%%##%%$$ooooooo@3&*7w3<77%%%%",
"..@@73w07777737767w07737377777u7o @%Hx7w777w7w7w3w77733w%@3777Xo@#7777673qw730*..@3Ks77766*7773w3ww%@@@@#@#Vz@%37w<uO ....@#773767677w67777uw3ww73667w66.o@-Jj3777366w777763w70w%@377*.o@%7777377uw733* o@7Fs777373ww7367w7%@@@@@@%Cd@%q7qu7o....o@%w7*36776<73w<3w737w776777u7*.o@3Fd773w777w7w773wq3<3##37<-.o@3333w367w7330$.o@dHu777677ww77uw77$@@@@@@*J7@%77w77o....o@%w777377777w77wwww777367777u%.o@qKu777763777ww373w7w3##6w6%.o@3677w77q<777w#.O@xHu3773ww76u3ww7w@#@@@@@-F*O*w<qu7o...",
"oO3%****w7w37w777%#**67377777q%@oO*3xd773777w377736677w7%@*773Oo%%w77767<7777%#o@*7zs37ww3w76777777%%$%%%%*ds%#*%#%$@ooooO***%**677776777#%*33777777w6%#oO<7xu37w37777676w3w3w37$@*77*oO%%73w3773w773%@o@*szu7773w773673777*%$%%%%3dw%%*%$##+ooooO**3%%377667677-#%-3377766667%#o@*uxd777776w377w7777w33$%37<-oO%*7767w77777<$@o@*sxw77767766737667%%$*%%%*zw%%*%###OooOoO*3**%377<763373#%*337366w37<$#o@<wzw77767w76w776676777##777%o@%%w767w333773#Oo@*sx7<7777776676777**%%%%@3z3%**$$$$Oooo",
"@$zB#@+#w7773w776X.+#6u0w77u7wo.@$CH77770w77773w7w776737%@*w77##u3073ww7q3777..@-Jz*7w7777377766777w7337333377*#o . O@#@@#Hx@@@%w766u7ww*..@%377w3ww67..@%Kx33q777663w3w77777767%@3w7*#%0w7w7773773w- o@3Fs37w777777w77w76w7776w337377*#o ..+##@@%Hs@@@%wwuw76ww-..@-777u77u7*..@-Hz37773w777677373w7733$@*7<-#$37777737777u% o@7Kd377773w7w77w77w7w7w6w337337%#X...@#@@@3Fw@@@%u766uw7u# o@*3777u3w7%.X@qKd33w7766w7737766uw777#$777*#*w6373w77<q7u% o#dKt773w73w7777767w773737w37377%@....@#@@",
"3$ssw7w3%*%%@####oO77*%*%@@+##OO-3w33773777w77773qq777q3%@*w73##77777w77w77#@o@73zs3w77673677w6w7w377w3777w7w0*OOOoo*7w7*%ss7w73%*%##+#@#o+u3*%%%@@@@@OO33w777w7w377w3773w777777%@3373#$7777377wu76#@o@7wzw7w77w7w7w3w3666677777<3<q7w%ooOOo*q733%gs7776%%*##@@#@O@w<%%*######o@3qq377777w3777w7777w6767@@<37<@%777777w33<3$@o@qtsw77777777w77w77773777637w373%oOoOO<373**zs777****@@#@+@o#7***%##@@#@o#7wu33377777u6777w7737777$#777*#*77777773<3-@@o#3ulw7ww777773u67w7677767733w337#OoOoO37w3",
"773wCFKs@@@o ....@#CN@@@o.... @#NV@@737ww3733w77<7377q33%@*w77@#73w3<376777o.@%Hj733777w7w67777777w7773w77377w%.o#@#dKHKu767HHFu@@@X... .+%Bs@@@O . . @%Jx@@w7777777773w7773w7u7$@*<33##w777w777777X.#%Fz377w77w73777777u37777663<<373% o###xHJC3w7sHHH7@@@..  .o@%Kw@@@......@%Hd@%73w3773w3w377777wu77%#*w3-@%w777w377<3*.o@<Jz37777w3w373763773www6737777q0@.@@@$VCJC777dFHH*O@@.....X#7F7@@@......@*Fw@%w377773w6<7677wwww7u#$7ww*@*w7w73w7w7<%.o@wHd377773w737w767w7w7773w3337733O.@@@#CGCK",
"77w7dszw***#oO+++7ssw***$OOOoO7aap3*%*73q7q3373wq377*@@@@@*773#@%%7777w7777O.@#xx7777773w77767w373w77777377377*O%twsudddu66ussgu***#OOO+@wssu***@OO@@O7saw%-%*u37776w777777w%@@O@@*733@%%*w73773w73.X@%Fz77377737773w7677w667377q<q37q*o%sdwsuss7777zss6%**@+oo+@wssw***#o+oo+uwaq%%%-w7737777737377%++@@#37<-@$*3337777<<-.o@*Cx7w73777767w66666777377w7w373q#o3auuadau77wwsss3***OOOOO$sss3*3*@OOOO@uus7*%%337w777<37w7777#@O+##777*##%*37377377%.o@wHd777w7777w667667w666677w777733%O3sdsuads",
"w7w6777777u*@####BH677773@####gZq333@%73w73qw777q<7q$   o@3ww7#@@%w7w3w7w77o.@%HBw7w7www073w67ww7w377ww70w7ww73@<HCFd77777633777w77%@###%ZB77w77%@#@#@NHq3q<@%q77uww36670w77# ..@@7w73@@@%ww0w7w3u3.X@%Hz3ww7ww077w0330w777uw0ww33q<3w*@wHHKu73w7777733077w%####*Kx7777u######BH7qq%@-07ww7773www0ww+ ..+@3333#@@%73773w00<.o@3Gz73ww3w7777wu7<u6u730w7377q3q<&#dFCCq777773w77w7777$####-Fz70337####@%Hz376%@*7w676wuw30w77uo...@#6w7*@#@*www77w7w-.O@3Hd777373w77<uww773w7ww776w7qww7%@xKHH3333",
"777777w7w377*37*3ws777*$*xddddus<7773-%#%-77777730-oO@OO3zw3777*3*#%77w7337oo@%Bx77w3737366776773w777w77w377<3*@*Czu77777w3w733w3773%33%*uu677*#3djdszwu3q<<*%%$#*77737737%oO@OO7sw7w73**3$*7777q33XX@*Nz677w7776u767w3767777677<q77w3*@3Hdwwq777377w37w77333***<wu777%#7sxgsguu77773-$$%*777w7777%o++@+usw3w73-*&$*w7w333-Xo@3Hd3777w37w677w3w367w3776w7uw7<w%@uHsw3w3w777w7w377w733*3%0ww777%#wgzdgduq3673*%$##67w677777#oOO@+ss77w7***%%*77w77w*.o@wCs6777w377w33666367w37w37777w37#@dHuu37ww",
"w3w777777377w77q3777wu*@*CFHFHw77773q%@@@%7q0w73<q-.o%@#wFs377w3w*@%77377w7o.@%xN7773ww7773w7767677777w7777773<@3Hs777w776777w777730760w77w76w*@wHHCHB77<<307*@@#*77ww777u%.O$##sHu777777%@%u77373-oX@%Hz37733w3667377w77<w373w3<33w3w*@7Cd37<w7w0777777w7576u5uu7777w%@sFFZZN777773<%@@@*77777377# o###xHu77<3w7&@*03q703< o@3Hd37773w3773w76777777637777373q%@sHu677777w737367777w76w7w73w7w%@dCHHHn77ww777%@@#377<73w77@.@##%nNw73wwwu%@*w7777w%.O@wHs7767777736w<u7w77777367777777%@dCw77q77",
"3737777w7ww737w337777733*%*uwsw37<qq7733*%#&377w*oo@%dkxsww37w776*@%77w3w77#@dzw7777<77777w7w7w77w6776677w7q7w*@%uw37777777767677w6w77777w77776*%$3quu73q3<03<3<*%#*0377*oo+*xNzdw777w37w*@%77ww773@@zz3w0w7777w667w77373677677wq77777*@*w777q77737w3777373677<<w37777<*%#7wuw7377qq<*337%#7w77w%oO@7zzxuww737373*@*w737333@%zdww77ww77ww77777w776w37w7766777<%@*w777w773ww37w76w777737733777737%%wwww7777w773*63##7777w$oO@wxlxuw7777w77%@*77w777*@%zsw77w373w37w77777776w37w767777w7*@3w777737",
"w7w773w3773777773w3w7773%#*77377q33<77777*@&*337*.o$<CCHu33w77777*#%3w77377#%xBw7ww3q377673737366363w3w7777777*#%33w773w63w3w7777777w67777776w7w%@*q777q7700<3<37%#%3677%.o%7ZBBs37777377*#%7777w73@%Hz7773777777773w677w3w3w776377777*#%33777777w73w3w677w7777<73w7q7<q%#*q3w7wq33<3<777##*3*33%.O#tHFBw77777733%@*3777333@%Nz37777377766676703777673w77777q<%$%w77737337777673w6777ww37w777w37##777777777776w77##36*6w#.O$aHHN677777377*#*777777*@3Hz777777w777773w63w777676737ww337%@*3777777",
"377777u67766767777w7w37w-@*77w3777777776w##OXXX@#@#Vz00w37w37777<q3-#%7w377%@7w77w76767763737376777w777367777777*@%u33377w3737767777w7w7q<<37377%@*q7q37777w37w3w%@oXXo@#@*Ng7wu3w673w3ww73%@*77w77#$q3q3<q3737777w7w36777w37w377<3<0333%@*7w7777w37w76777w37367w77w767u%@*73777737673773#@o.oo@@@3vsw0w3737777w366%#*w3773#%w37766363633w6w67w7w7w3767377777777%@3w37w377w37w3w0w3w3w673077q777%#*77w37777w3767*#@.o.O@@@3Hu7ww63737376777$#3w773*#%q33<q7777w377w7u637767w7w3w<37q<333$#377777",
"77w77376w7w7w3w777377777%@*77777w3w6w6737*$oXXX#%%*Nz7373w77773w3qq-#%3<773#@3776w7373w37w7w7w777763767w3w76*6%3%@%773w77777w7w3w673373733qqww7q%#*q<377w77377w77*#oXXo$$$3Bs73777777777737%@*77777#$73<3q<37q3w6737763ww377736773<-%-33$@3733w777w7w7676w777w67777w766w%@*7w7777w777w7w3%@oo.o%%#3Ns73777w77773w77%@*77773@#w37777w7w7w676777w73776767w3w6****6$@*77773773q7677w777777<7w7w7777##777377w77367w73%@o.oO%%#wCu3377w7w7w77w77%@%077w*@%<<q<33q7777773776w7w363767730<**-*-$#*677w7",
"77377w73w777w7w7777ww7ww*@*77u733677377ww37$@#@zHCx777737u77w777373-@%<<777##377677w677w7677w367777ww3w7677.X...o@%w7777737w3777377wu676773<3u77%@*q3q<q3w3w6637777#@@$BCCz7w3w77w367w37w7w*@*u7733$#373<<qqw77q677377w7w3767w777w<X..  O@*777377637373w7666w777w7777w67%@*w7777w367w377777#@@%BCHs3773ww7733w7w677%@*77773@#w77w3777677776777w37376w3w767*.....@@*w777w77q3777766677w36ww777q7u##377w3w3w3w76377w7##@*HHCu77w777677w36777w#@*w3373@%3q3q7q773w37773w7773w777777<w$.X..o@@367777",
"w3w773ww77w667763w7737**#@*w73qq7763w773777%$#%sgMx7777ww377373ww773#%-<7**#@3w77773w7737767763w776376377*%ooooX@%*3377w7w73w777w777767377q77<*%$@&q<q33777777u73w7%##%sgBs7773763w773w7w77*#***7**@#3wwq33<37733w7w6737ww7776733*$ooooo@***77w773w7w7777w77373w777777**##*373ww763w767w777%##*dgBs37u77377w7773777*#*337%%#%w77773w773w76w777777w7776676*#ooooo#%3%w777w3<q73w7767763w7777777*%##377777777773w777*%##*xkzs773w77767763w7ww%$**33-%@%0<<37377w773w7w0377777673w37%@Xoooo$*%36ww7",
"37677777777776w37w7733% o@%337376w37677www37367##7777777777773777w377%@*wO.@@3777u66377ww7w377w77w6777773o.@@+@@*K7@*77777377w373767777w73777u#.o#-q<<q<776777w37w37w73@#7777777777w77777777w*@*wo.@#377w777737777773w7766w6777w*.X@@@@@wH*@3667677w03776w776677777w77@ O#*w777777w377777w37ww3#$w777w77w7w77777w3737$@3woo@#w77w7763777777ww7u6w3777w7w- o@@@@@sF3@677737u77767777ww7767w77qwO.+@7777w3733w6w37q3<777*@%37w7777w7w377w777w37$#w*.o@%330637377w377w7u<<37w77777w%.o@@@@@zH%@77w*",
"w767776673w37w7677773q%o@73777w777w767773777w77##7733w77w7767w673w777*@**o.@#373ww66w77737767737633w77733Oo-33*3wz7@*u73w7w773w367w766777w3w77#o#<<0<33<7767773w7377373$#7733w7376737777w7w77%@%*o.@%77337w77w3w3w67777777773w773OO3-<3-wz3@*7<7w76777667767773w77w0q7@o$*3377w767777777773w77*#$q7777733737w366777w7%@%*..@%3333677w777w363777776777676;OO-3*3*sz%@*6ww773w77777w<677w677w7<3#X%377w7777w7777w7<3q377*@%777w77737767337773w7#@*%.o@%3<37w7w7777773773q<63733w67%o@3-<3*ts%@7733",
"3w3uw37uu77wu7u67w7qww*@3Kx3uw373w377uw73wu7w77#%77wwq3u0wu673w377w7w*O@@o.O#3737w7777u7w376w3w7w777wu6ww%%zHHHHz3%@*www0w37777w6u03u677www37w*@pJd<33<qw7www777w03w7w3@%77w7w0w0ww3u777777w7*@@@o.@@3737w7wwwu7777uw0037u77wu673$%VCKKFt3%@7s7w0w37u77uw677www37qwq3w*@sFs77w7ww0w3qw733077q73#%q7qw77ww3776u7ww3w7w%#@@..@@6607uw077u73w7w7wwq70w6w7773+*JHHHHs7%#7ww77773777uw7u677ww<6w37q%@xCuw7ww7u6776u37<q3qww*@%77707wuu77w7w7uw7u67#@@@.o@%03<7w77w7w0w37u77q0u<7w7366<@3GGKCCw3@#7777",
"67773w77w6767776q777*$@@*ds7777773w77736u777w77$@77w3777773w7w7777333*%**+o33**37w7766673w77773737w337673#$zCzssu7%#*3773777w37763w7ww777777*#@@<dw3<qq3w77736u77777737@#77w773737773w73w3w7**%**OO33**773777777766773w7w767366<<@$CCddsw3%@%w7737776677w76677777<q3%#@@7gw777777w773w7q7w7777*@$q773u777776677377376*%%%O@33%3367736667777377777w7667ww3@*Clsslw7$#*777w37ww3w3w7<666777u66%#@#us777737767763w73q7w77*@%37q37376773777737<67*%*$O@7<%<3737637637773w73q66777w7u-@3Cxddsu3##30w7",
"773q777<w7666*77q3<<*.o#%w6w76w77767777w77w7777#%7777776677673777w3w3u037%#lH#@3777w676777ww37w3w7w7w777q##CC7737w*@*w77<33q7733776677777q30% O@%0673w6767w366w377w7w33@$77777w77736777ww77777w33%#Hz@$77677w77w77737w37w777777w3@$Cx3q37w%@37777777q7<<36367777777w# O@*77363666666777w7w33<q3#%663677777w3736736777ww07@%Cs@$76767777w37qq3<w3777777q73@%Cx33q36##*7w73w<3777777677666<q30#.O#*667673w7767777w77ww3w*@%77w77w76636777w77w77ww33@*Hw@%7773777w337qq373<<qq3773q-@3Gd<33w3#@77w3",
"777<77u*o#%%%%%3<3q3&.o#%w777w677677w3633w37w73##3w6w67377767w3w737777w77#@lN**%*w7767w7773777773737377#O@#uwq3q77**%%@+<q<<77q%+#%%%%%377<q%.o#*w7777773w7777u73w37777@$766663777w77673q777w7733##zN%3%*u7737733w7w73w733w3w73#+@%dwq3773%*%%@@7777w77$+#%%%$%7777w#.@@*u7w7w7w76w776733w7q73*#%u7w6ww73w777w67w776w3773@%nz**%*777w363q73<3q73w3w7777@@@-ww7q3w73*%%O@777q777#+$%%%%%73q<q#.O#*u7777677677w363773773*@%66w663777w77673733773773@%Hs*%%67w76777q73<w7q<33<<7<3+@@*dwwq377**%$O@",
"7wq377q%.o#@@@@*3373&Xo@%3777w7777763w77377737w##677377w7w63w7677ww777777%@zH73@#7777637w777737377w77w7O.@@<7q777w7w$@o.-<q3777%.o#@@@@*3<3q%.o@%7377w666673776677w7766@#6w377w37776677ww3q<7w637$#BB7%@%66773w377777777777w777o.@$7<3w<7w77#@..33u777q#.+##@@@7773t#.O@*73377677777677w77777w3@#<6777777366w777376737663#%Hzw*@*7763w77w37777ww3777q73.o@$<773q363w@@..q3q37w7@.+#@@@#7773w@.o#33367w3777763w77w37777*@%*7777w37777677w7w3q7w37*@*Hz7*@*77376w377330q33q<3q7q3.X#%7q7<<7663@@. ",
"73<3q77%.o#3zss*#%%OOO$k6#*77w76w3w37776w7777#o##663w773w77w37677733777*#wguu73**%*673w777777w7w77777@OO@wdw7q77777w3%@@3373q7w#.o#6zss*#%#oo+%x3$3763w7777ww77777376+O@$7773w77w3w377637733777*%ususw33%#*77w77777<77w3w7777@oO@dd773<030w7**@@77q7w73@.o#wzss%%$#o+O3z3#3w776w77w67763777w7OO#%7w77w3w7w77373ww777777%%aduu73*%$33777677777737w7777@o@@jp377<3w7773*@@773q737@.+#wzst$$%@o++3k*%w773w7w3w37776777w*O@#%73w3w7776w377637773777%%dswuw3%%#307776773337<qq3<q3OOO$pw737<3776w3%@O",
"337**33%.O@wKCF-@@@.o@*Zs@%67ww6ww3w767777w33O.@#77w776w77w7736uq37w777%@dHw37w73@%633*77373773733337@.+#xNq777wq3773w%#*773<33%.O@dHHC$@@@ o$7FwO*67777w7773w0w777w3oo@%3w3w366w7777u663<qq773%@xC777ww*@%76666333377*337677O.@$CVq7q3<w377w7#@77333<7@.O#gHHz#+@+.o#uK*@377777773w777w7737-.o@%77777w7w73066773777777#@CC<w37w*@*73763377777333*7w7o.@%Hzq73<qw37777##7776733O.@#zHHz#@@O O#sH%@<73777773w76777w73% o@%777w3663w77777w<q3q<3<#%Cx36770%@*7w3667773777*3777<XX@-Hz3<<q377w7w7##",
"oooooooO@3xdwww<<3*@$kgu*@*77w666777w376770@oO@zz7736377w7377w667377777%@dHuw737*#OooooX@####@ooooo#7#@wMuu<7777737777#@oooooo.O@7xdwww3;<-@%Bd7*@*w767w37w77767777OoO@zsw7777773767w367q33<733#@xCw7737*#+XoooX@###$@ooXoX%7#@szu7<773q77w373#@ooooXooO@wzswww3<<-+*xsw%@*77677w777w363733oo@%zs6776637377w773ww7w3777##xB7337w*@OXXooX#####@ooooX%w@@xxu377q<3777773#@oooooooO@wzuwww*<7%@*ns7##77w776w777w376773oo@*Ns7w777777773w3633q7733<$%Cx36w7w$#OoXooo###%%OooXoo*q@@xzw7qq3q<6w367*@@",
"o.o..o.o#3Hd777w3<3%*Vz33#**7777667777633*3O.@$zB7777w7736w377677w3w777%@dH777776#O.....@###$@X....@7%@gFwq3w3w37w3w77%@oo..oX.o#wCu7777333#3Hz3%@*36676776777***33o.#%Bz376w37777w377773w77777%#xC<3777*@O.....####$@XXX..#7%#xH3q3<3<q777777%@X.XXXXXO%uHw3w77w<*#wCs7%@*76677373776*33*-o.@*Bz3w3u6w7677763673777w77##nB777ww%@o..X.o$$##$OX..X.%3##xB737q<q3037777#@X..X...@-sHw7w7733%#uCs3%#*737773777733**3*.o#3Ng677w3776u3w3w773<30<73@%Mxw7777%#o....o%@%##O.X.o.**@%Cx3773q3<777w7*##",
"@@@@@@@%Cs7w7777<#$xx773-7*@*7u7w77ww%..XXoO@sB%#ww773w67773w77777773w7%@dHw77w773*@@#@@uNHHNz#@@@@O.@#dZu773w7777773w73@@@@@@@*Hd7q77773@%ll37773%#7ww76uw7w#Xoo.oO#zz#%0w777663w73w767w777q77$#xCqw77776%@#@##llHHBs@@@##o.@#xZ7<3qq<33w773w33@@@@@@@3Cw7777773@*Zdww337%#7ww77uw7w@X..o.@#Ns#%w77773767677w77w777w7<##Cxw773777%@@@@#xzHNHs@@@@@o.@%CB7q<33q<w773w733@@@@@@@wBu7w7777-@<Hd76333#$w77u3w3ww+XXX.o@%Bw#*66w777666w77776q7<q77<#$Mkq6w7777#@@#@#xHxNN7@@@@@oo@$Cm73q<<3q77777w66",
"#$$$$##%Bz677737w##BB77777*#*73333%**#XoXoX@%dn%#*3777w3777w67776w0377w%@sH777777w%%%%%%sBzNBz#%$$%OX@%sBu667776737w3776%%$$$$$3Bs7w03776#%Bz37w3q*#*73******#.ooo.@*xx%$*3337w777w77677w667777%@zH3377w773#*%%%dBzNBs%$$$$oX#*zBw37w36773777w36%#$$%$#wBu6677773@-Hd3w377%#3333****-@.oooo$-md$%**7wqq3<<q37w37677w3w3#$BB77w377w-%*%%*zzBxBs#%$$$oo$%xxw77777377w366w3%#%$$$$0Nw67w773*@3Jd3777w#%3*333****OooXoX%*Ma@%*3w76w377773776777w3w3#$Hl3777777*%%%%3lNNzB3#$$$$oX%3ll7777w37677w3w36",
"3w3w7ww776776ww73##HB7w37773#@@@@@...o@@@@@tHu777@$w77q77777w76377w7w77%@sCw77w773sFBBBHt7773w67666%@wBu3w6677777w30w7w3667767736777w7<36@%Bzw777330$@@##O...O@@@@@xCw77*#%777w73w367767w7773w7$@lH3<773w7sHBBHHw3777767w77%#sBw7777763w6w7776777677w3733w<73w77*@-Jx3336677###@@@...O@@@@#NN33q*@%77373q3q<6667w776777#@zB773w777zNCBBB777777663wq$@lH77777776w77767776w77763w77w7777w0*@3Fd3777673#@#@@O...O@@@@$Cxw7q&@%37377w3w7w7w37677773#$HN<77w7w6zBFBCB77737ww76w7$$zN733777367w7767777",
"777777w7w76776w3--*zz777777w%%%%%#oXoO*%3%%sxu3q7@%77737ww776w3w77w6777%@sHu3w777wszzBzBu37w77777w3%@uHu77767763777u673w6777777w67733w33*%3Nz77wq77w%%%#%#ooo@-%%%%xV7307@%73w3<7777w7w7ww7w773%@xH377777*sNzBzzw777w37737w%#sHw76w777w77ww377767366w3766773736***7zd3777u77%####@ooo@**%--dx777*@*<q37q77377w773w3776w##BB7w77377szxBxxww77w777377$@zCw777w676u737363777777767776w6776***7Bs37w7776$#$#$@ooo#*%%%*xx377&@*w77w73w37777777w7553@%Nz77w773wzzxxlz777ww777777$$NN7777w7w773w377777",
"7w7773w7w7777w3##zH73w77w3w3363377#@@*FHHHFw3q<<3@#7w7773w77776777767w7%@zCw777w777777777w733w77777*@uZu3w777u7w776677676677w7733w7w777##Cl37w7737777777w*@@@3CHCHHu3w7w3@#7w7773w7737366776777%@zH3w3w77767777w33w7776677w%@sHu763667376w7763w67w773w773w7w7w6#%Bz377773w7665w773@@@7HHHNNq777w&@%33q7773q776w7776776w$@BB7377ww773w777777w67w7w77$@NCw7q77666w7w7w7w7773w6w3767w7777*@*Hs73w7763w767w77%@@@uHHHCCq7q77*@*777777777777<w303<66##HBw7w777777773ww377377w766@$NN3w77373w77767w677",
"6w77ww37w776777#@NB777w33w77<77ww3*%%*zzldxw77w33***-37w77w77777w66663%*3szu7w377u673w7777w3777777w%@wzu77w77u3w677w37w63w3w3w377777w73#$Bx77u77777737w373%%%7zgjkxw77773%%*%77w77w73ww7776776%*7dgu3w377776777777377ww677w#@uzww676673w677w377w737776777777773#%CM777q37w76777773%%%7zzzgdwq77w7--*<<3q77w7777777777%3%7zsw777737777w37767766w377w$#dzw7737777w3w3w77w367763w67w377773#*Hd377776776w7w773%%%uzzggxw7<q33%%*77w77w37776673777**37zs73w77w377w377<677w77w377$#sz637w3777777773w36",
"777737u7777ww7w#@NHw3w737773777777777336333777737w*@$0733w37w77777u66%@wH777773w6w6<777777773w3w777%@*773w376777w7777777677777w77<77777##HB77777w3w7377777677776<377777337*@%7773w377737wu776%@sH3377777777w73w73ww77377q<w%#*37777w77777w77777w7w77u6773w77733@%Cx7q3q<77wuw673773w7777777q777777%@-u77w7776w66u6w7w%@zNw77w7763w7773w77w777777w77$@*377ww77777677767776wu67777w73ww7*@*Kz7773ww7w6373733w773337777q3q<77%@*73773w776667w777#@NB77777767777773w76w73773w7w$#3373w773w3ww6w77777",
"7w7677667676677%#ws7737w7w7w3ww377777w77w<77w77w77*@%77777737773#+#%7*@7Hw37777767767w37777377w7777%@*77773w67373776w76777377336663ww37##uu777773737777766777w663777wq7377*@*7w*77777w7*@#+%6%@sH0777773667377657773777w77w%@%7377667w3776677767w366777w3777773#$da7733<6677377w7377737777q377w37w*@%*37377767w%@#@%6%@zBw77666673777w37w6677377777##3377373w7w7776773w367767w3736<736*#%du7777377676777377777737w77<33<67%@*7777773w37%##@*7##NB767776677w6w6776767777w777$#7w67377767766677667",
"76w0w776ww76u73%#3777w777w3w777730ww773ww3q7q77777*#%u3w7u700w7*.. ou*@uZuw3w73w6uw76w0ww37w77037ww%@*u73w7777w7w3u6w77wwww77w77u3w7777##77ww3ww3ww3w73wwww76wwww3q7777777*@*ww777u3w37% . +u%@sFw30w3w36www6uu3777www77u7w%@3ww7767w0w7wu67ww777667u730w7730w6#$730qw3q7ww73w3w7ww3w0u7w773w3w777*@*w0www77770% . #w%@zBuw777ww7wu7w377776www7u7w7%@3w77w7w03w7ww77uw7777w76ww3u677ww6#%730w3w7776ww73w7w7w7w7u777wq00qw7*@3w3ww37w3wu# ..%w##BB777wwu7w33736770w6uw77w7ww#@7777ww3u6773w7ww777",
"777w7ww6777w77w##373673w767670376777w3777677777773*#%<33<03<77@@O@OOO@@uHuw7777767677w67w777777w7*%%*33777w36677773w766376w66677w373776##677733w7w373677777w77w73w673w7777-@%3<7777773O@OOOO@@@sHw77w36673777w6w773q<33w7*%&&33367777w3673w7w777737777w77w37776##77u<q37703w7w3777777776777w3w37<q-@*77777773-OOoOO+@@@xC77776737376766377w373773*$%*33777w7777w767777w7w777776ww73q3w3@%3q<3<0<w36677w33w67673w777w77w773*@*77w7777w%O@o+OO@@@zB7777w36777777763w3777ww3%%%%77677777776777w3w36",
"w36377767w76670%@67w776777767w3w3w67773ww3w3w3w6ww*#%33<7q3q77X.@@#@.O@sHu77w7w77w77767737667w77w*@%3w7777776u777773777w6677776w777ww73##3w77w7777w7w776w36377w6777777773w-@%377777w7*.o@#%o.O@sHw7777777w3w777w7777qq777*#*33q377w363w77w3737667w3w763777w7636##7773q777w737367w3w6w673777777w73q%@%q777773w- o###o.O#xH777767w7w77777w3w777wu73%@*73w76636766w66776737360w6377377777*@%<3333<<77773w7777777767w7733w366w*@*77777qqw%.o##@o @$HB3777ww7w3w6w673777777776%#*w77ww3w6w673w7767777",
"3w7777w7u6w33733%%$77w77767666776776w777377w36<7777*%$*7<7@OOo@@dzz3O*zwu77777377w73767677w3777*#%*7777373w367w7w37ww37777767777w3770w33*#%77w77773737773w7767w77w367ww77773%#*w77@oOOO%xkx*O3zss77ww377w767777w7w373<7*#%*7773<363w77777u7677w3w767u6w776367w33*$*33<q<777w7w763677377w77w77637q373%#*7w3OOoO@%zsz*@wxuww77w3w7w367w3776366w76*#**3777377w67777w777677377w77w77q3w3773<-@-qq<03w67773667w367w3777ww7763w7*3%#377<oOoOO*zgz%+usww0677w763677377w7767667%#**7w3773677377w3w37w776",
"77763w366776w7777##673777w7w7u676w7w36673w767763777w-@-<3<O...@%CHHs@7Hs*777773w3w7ww6w33w776w63@%w73w7w7w773w37773w773w777w663w777337773@$73073w777w773777667w763w76377w377-@-07<o..o@%GCCu@wFw777777663767766w73q<3q7*@*777777w77776w366763w773767763773w77677*@%wq<33777w76737763w773w73773w7777w%@*q33X..o@3HBH3@dCw377w7637763w773w7w77377%@*37777w3w776w73676w3w7w767673w6q773w7w7-@%333q<77677w7763w773w77777677w7777%@*63-X..o$wNZH*#xHw6777777w7763w773w3w7u7w#@67777677763w77377673777",
"7w367737777w36777*6#%6673w677w3767773w677377777ww7w3*#%3@o@@@@kxwwu*@%uw773w777ww37776736w7ww37%@%77w377767w77w3w77u67773w7377w377www76373%$%33w3777673w7w367737777w777w7777%@-3@oO@@@xxwwu*@%7w7777w3w37777w367703777w*@%w77w7777773w3w7w377673777777w367777w3773-#%q<qww7w377w6w37776w77w767777w33%@-3Oo@@@$zzwuw3@*ww77w377w377w37677637366w%@*37777w77w3777w676776777ww37w773w377q7733*#<03<7776673w777w3677w6677w777w7w$#36oo@@@%xdquw%@3q<7w37773w6w37777w3667w37%@*77w77w6w37776w76777367",
"63w766w7w7737766w33@#77677777767667777777w7777677773*@%3+.@###xM37q*@%777667w3737777777w7*767773@%77777777w*777736663w67777367677737677377*@%777w776763763w776w77673736*w77u%@%*O.@$#*Vx777-@377w73w76763w3w763w73773w3*@-07773w767667777777767w3w633w77w76673w733%@%<3q7777677377w76377733366w7777q%@-<o.@%#*Bz377%@*77w7777777677776767w7w773%@%35ww*7767677w33w3w77676676737377q7777733%@%<73767w77677673w7766767733w7377$@%3oo@##3Hs377##3q77366w7677776636777667<6#@*u777w*77w76377w3w37w77",
"77777777376w6w3u6oX@#376w3363w77w7677w363w7w776uw7ww*#O.O@tCVxwq7q7*@%3w6w37677ww363w3377377w67*@%377377w7w7w37677777776w3777377w377673w*oo@%7773w37w777777777w7677w7w3q3777%#O.O@gMHx3w<37*@*77337777w7w<7777w7w37737<&@*377377w3w777673w7ww3w76w3w73663w377677-Xo#%<3773u6777w77367w77w3776637777q%@oX@#xCBz7637w%@-7w3773w7w776w377w777773w7*@3w77777w376w37777w7w7w77w67777w7737777q%.o@-07q76ww7w37677w373w7w67w77777w3%#XX+#VHHsw7773%#*777w763737677w7w736w3u73w%@*w777w777367w77367w7367",
"76w376w37777777*3..@%w7677w7773ww77763w7777366637737*+O.@%sNBBu777q*@*7773w77773677w77w77376777*@%3<7ww337363w77w3w73w777776633w77w77733%.o@%7736766366776w3w337776377773q77%@oo@%gMCx<q3<3-@*767w776737366767373037337&@*q3qw77763676776773773777777w777767w37*$.o@%<<77w766777w67773w67777*3w77777$@o.#%kCBz76777%@337777w3737777676363w67777%@*6777*63w77777777363736677776w3w777773*#.o@%33<666773w77763w77767673767773w#+XX%<xxBg37773%#7w77673w7w77763776w77777ww%@*773337w67773w6777770w7",
"0w7uq<7u<uqqw7wo...@#7w7w377ww777w07w3s37u77ww3w777q%.O@wHs7u33w7773@%37w37w00w67www777uw3w67w76@*wwu70ww7w77uw73u67ww77wuw37w37w7u77w7o...@%3<w3ww7w77www3w7w7ww0037u667w7u#.O#uHuq<u3<67u%@*7wwwwww077w77uq3<u676w03u*#*w37w00w7u77w7ww7wu03u7w73w0ww773773q3X..o@%7wwwww77w7w0w37w37u7w3677ww7w37@.O#xCw737wu7ww%@3w77w763ww7w0ww67777w3w77<*@*7w0w3<w7777w3u6u3w6uw777w73ww7w7wu37*...o@%w77w3ww3q7u7w3u37w77777w70ww7q7o.@#xVq7wu777w7%@3w7w7w3wu7w7ww77767w0733w3%@7ww77www77ww7w7www00u76",
"377733q7q<377%%OXoO*<<3<w73q3w777337w777w37777777777#.O@uHu67w767733%%*7737773w76u77667677377363@%37773777777777673w7777667777w77773w%%oooO*3w7777373777777777w773w7w366777w@.O#uHu77777ww6*#**767677w763773<q<37773w77*@*w377737777777w7776w777377337777q77<%$ooo@*37777773777<37773w7763w77667777w@.@#zHq7w7377333%**76w737737733w677w737w776%@*773777777w77w76773673677w77733w7663%%ooo@*<777773773777777w73777q73737777qO.@#xn7777q7777*%**<777737733w777w777w7q777%@*7777377677773777773776",
"7777<qw33<777+ @@@@HN3q733<<3w7w7w773777w3777677w73w%.O@uHw7667777w73-@*7w77777767767777w37777w%@%w777777u7wwww7777uw37777767637777qwo.@@@%CB77777w3w33777w3w773777776<7777q#.O#dZu7777777777%@*777766w3777q373q3w77777*@%77777w7w7ww7773w7777777q7w777qw37q7o.@@@*Hz3777u7w77<377w377767777w7677777@.O#xCq7773w77773$@*777w7737w777677w7w77w7w%@*77w77w777wu777777w77w37777777w77673..@@@3Jz7w7777wqq337377373w7wqw7w77777wO.@@CMq77w77660w3#@377w77w77777777767777w37%@3w37w7776u677777w777777",
"3w777377wq7%#@o*333lz777<qq3<w773w7777w3ww7777767u<#O.O@3zw777637w37q*@*73w777w3677ww6w777777733##%377733%$%%**77<66777777w673w7777%#OO*337ks77777777767777777u777w377777q*$O.O#wxq7ww7773w3w%@*7w7776777773w7w3777777w*@#*3w7737##%%*376w7773w77377u777q73%#OO33*6zu677773ww733w7773w7776w367777q*#o.+#uz77777777737$@37773w7w73767776673w367u%@%*73730*#%%*%33777777777wu73w77w7*%@o@733wgs7777w773<<q7w77w777773q7377w7*#o.@$ddq7777777w76##6w7376w773w77w6w37w77u77%@**773773#%***37777w7777",
"u7w3<qu<wuu# O#xHHC737777ww7u7777773w7777677wuwuwu%...o@%73w7w3w77q7<-@%w777w77777776767w37377<3@@@%7w7w3..@@@@ww3777w3773w7u6w3wquO @#CCCM77777uw00777*w7w677w77377w6w3wu$ ..O@*373377w777w7%@*u6667773w7w377707w7w367*@#@*w777*..@@@$77u777u77u777u<w7w7wo.@%HHKx777ww7w0w377337777767766w77w03w@...O@*77w7737737ww#@*w67777733w67777w7w3ww7<-@@@*u6<u*.X@@@%ww77w67w6w7w03777uw7..#%CFKz337w07w7773<3w3777777777u77u<qu+...@@37w7w7777w077##*7777677w<7q73<<q777w77w%@@@*3377% o@@@%ww777w37w",
"@@##@+@@#++o @#wdsd<77*@#@@@#*%*3w7w777777776#+@@@@oOO$u33337367w77q33%%$*w73767w3w367w7777ww333*&&%%@@@@OO7us7%%*%%%%#@#@#++#+#@@@o @#udda777%@@@+#%***77777777ww773#+@@@@oOo*w7w7w7773u7777*%%%377737w37777q7w6373776*%%%%%#@#@O@www3%%*%%%%@@@#+#@@@@@@@o.@#wsduq77%+#@#@%%*-w7766w6www773@##@@@OOO3uw7777ww77w737***%6777w7w7777w36377773733*%*%%#+O@o#wwu*%%%%%%%#@@#@#@@@#@#@.o@%sddw777#@@@@@%%%%7766w773w377*@@@#@+oOO3w0737373w77377*%%*67677773q37qq3377763w3**%*%%@@@+X#uw7*%*%*%%%@@",
".. ..........O@*wq337w%.....O@@@%7337w77wu676o.....##@7Kd7<77w773777q<<%@*77w3773w7w7637w3w73<<777<%@o.. @#FZFz@@@@@@#..........    .@#*wq7qwu#.....O@@#67w373q7w7w37...  o@@@pKu3777377w3777w6$@*777w667377777q767w6w3w77w%#o...@%HHHs@@@@@@@.......... ....@#*777q3w@.....@@@@w66676773u77%..   O@@@dKu77777737777776#@3ww67777w363w7777<3<q77*7w%@X..X@*HCHw@@@#@$+...............@#37737w7O.. ..@@@-u6663w7w77ww%.....O#@@xK0377w7773<w7776##366u7w6<3q3<30<677w377w777#@ . o#3FBH*@@@@@$+..",
"o++oOOOOO+O+O7d%$OO@@O+OOOOO*sss%%%#%%%#++++O+O+OO#sssssw77777773ww<33<-*%*%%%*w6w7673w77737773<w77#oO@OOwssuuu%****3%@O+oO+O++oO@O@O3u%$O++O@OOOO+O7ssw%%#%$%%@++++++OOOO%ddddsw73w7w7773w7736**%%%$%*u7w77777qw3777777w7w@.O+o@wsusu7****%**@OO+OOOOOOO@O+@wu%$++++OO@OOOOdddw%%%#%$%+O++++OOO@O%dusdu77q7w77w73w7766**%%%%%*763w7777673qq<333777+o++o#uuusu7%****%%++o++oOOO@OOOO@uw%#@+++@OOO@O@udd7%$$%#$%++++O@OOOOO*sdsddw777373ww7373w6**%%%%%%wq3<0<q<<77730w77777Oo@OO#ssuss7*****%%+X",
"############@dK*@. .  o####@dKGC%@@@@@@o  . .@###@%KHKx73w37w37u7w3qw3703%@@@@#776773<37q<377w3<03u@.O###zH7777w6u0ww7%@#############xC%@  ...o#####zHHM@@@@@@@o.....####@3HHHs3377w6w37777ww36u7$$@@@$633<777q3w7<37q77w7uO.@###BC377w3776u77#############@#CC#@.... o$###%xJKx@@@@@@@X.....####@7HHCu7773w3w767w7773w37##@@@%77766<3w7q7q377737uwo.@@@%HB777ww77w033#############@%Hx@O. .. O@###%CHHd+@@@@@@......####@uHHHw73w37w373667u7w3u*@@##@%77w37333q7w7w3w37u77o.##@*Fzw3w0w37w037##",
"***7**37xddkkuu7-@@@@@$lzddgduuu$#ssxdx7@@@@@wzzzzd%-wu7w777773w7773777w76*****$%#$$%q<73qw777q-oooO@3zuzsw77w73673766*3*****3*7ggddgdw<*@@@@O*zsdgduwwq@%zlddx*O+++@sszsxw%3w7377737767w373767733*7%3*%#%%#-q37377<777%ooo+@7sgguu7773w77637336*****3*7zxdzduu7%+@@O@<xgzdgswu7@%gsgzz%+++@@sgszz7%3uw7w6776763737730777**3***#%#$$<q773<q<737%ooo+@sxgduw77w6777767w*********wkkddduw<%@@@@Owxzzddwws7@<ksszz#+++O$zsssz7*ww777777777w776667766**6*3*#$$$#<33<7376767#ooOO@szgsuw77737737777**",
"77w7773wCCHBCu<<3#@#@@*HHHHZu777#$BBHHH7@@@#@lHNCHd@-7777777w77777u776w777777w3####@%q3q7733777%...O#sCBBu6ww37w7767777w77www77sZCHHZu773@####3HHBHHu777@%HBHHJ7@###%zZNZCd@%<7777w3666w0w77w3w77777<53@@#@@-<3w77<3737#...+#gHHNu6377777u7ww3777w330w7zCxBnCq77*@$$$$3HBFBBw77*@*HnBHH%####%HHnnBw@%<773737777w77773w7w7w777w*@@##@*q33<333337@..o@%xHFNw777777ww3777777wu77w7zCHCHB7w7*@##$$dCHNBn777*@wHnHBH%####%CHCBH6@*33<737w76w777773767w7677w%#@##@3q337w36677+...@%NHHz737776777773w77",
"7737w777wu3uwq<<3@%xlNgu7w37qq777*%%w7w<3337*3wu7u77-@*73w73377777777737w6w777363*36-@$@$#oX.ooo#@O3Bs7u77677w77776u7773773777w77w3wa7773@%Vlzsw7u7u77773*$*w7w763*377wwqw33*@*7w777w777w7777737w3777333*333%@%@##ooXooO##+wBu33w77w7w776776773w777w3777u7uuw777*#*xxxaw7uuw77777*%*w6w6*3*3*7u7uu33%#*7w7w77673w3w3677373w67w6*33*3%@$@##Xooo.O@@@uxwwww777777w7767777w7673777wqq7uw777*@*Cxxdw7u7u77q77%#3ww7633*677uwu773$#337w73773773w7w777777777773*33$@$@$@XXXXX+@@@zxu7ww7w776777ww37777",
"3w7<73777777w3q*<@#xBBz73w777w7776##777777777777737w-@%3377w77777ww7777767377w776<76%#%#$$X..X.o%#$wHs3777776w777w3w776w777777w377w77773-@%CBHs77773777773##w7w777377767<77u*#&<367w677776677w77u37777w37773%@@%$#o.XX.O$%$uCu3777w77677737777w77777w77wq3<7773-*@*HCmaq7770w77773@%77w7773w777w7w3w%#*73677777w7377777w7w37w7736763%#%$$@.X.X.@##$gCq77777w37w07777777ww37w77777777773*%@3HCCu73777q7<37%@%w7773w6w777777ww%#*6w377w6w37wu666377w777ww37w<*%$%###..X..@%#%zNw73737777777777w777",
"77737ww7w77w377Oo@#w7u777777777777@#ww7777w73q777w7733-#*777ww7773w76w7677w7737777*@3HVCCC%@@@@%CxHg777777w67w7777737377777677w7w737w73oo@#77u7773ww7w77u%@%07w777w7w76777777*%#*77w7777767673777w7777w7773@wCHCBN#@@@@*ZxHd77777737w6w7w0777737w7w73773<3q377*oo@$ww3<<7u7w77777*@%776777777773777733%#66773w777w7776737367377w77%#sBlHCx@@@@@7HBCu7777773w777776w7w673777777qqq77777*oo@%wq777q<q3377<7*@*w766777w777ww76737##67w7767773w7<6w77373307777%#zBCHBs#@#@@sZNB7u77w7w7777w3w6763777",
"7w7w7603777777wO.@%3377777<77w7w77#%7777733777q777777w%#-*733777w3u7767667w7737677*#3zlzmN*%#%@*kkBd737776767766w7777w73777673377777773o.@#777w7777777w373#%3777737337wu77737q-$*3377377777376737737w73<77%$uxxCxN%$$$#3xxCw737767773667767w37667777q3q37q7777<.o@%77<<337777w77w%@%7777w3w3777737w777%#**667766w36673w37w77767773*$uzzVxd%%%$#7zxxu73777w3773776767667w77777w77737777*.o#%77777<33<<q<30%@-<7767677777w777736%#*76773777667777377ww777777*#sNNxzg#%#%#wzzNw667766w366w7377w7ww0",
"7w3w77u7w7qw7w3o @%<w3w73wu3ww773-##0www7w3w<u330w7q73<q-@*0w7<u3w777w7uw3377wu6ww7u*@-337<33q73@%73w0w7ww766u7w076u76u00wu3ww777ww7w77o.@$qw77w0w73w73w7*#%7uw7ww7w7737q7www3<3%@%7w0wws7wwu67wwww733w7qq7w%@*73w777qq*#%73qw3w76u3w76uw77ww77u7w77wq<u3q7u3w7.o@%7w<qw00w77w77w-@%uw77ww77730ww30777w7$#677<5u3w7u7w7777u3w777ww<7%@3w7u7q37w%@*ww7u77w777w0u7wwu776w03w7u307wqw3w7w*.o#*w7ww7q<uq30qqq%@-u3w76u7ww77w7ww3w773##776ww3ww7w77w0w337u7w3w373#@33w7ww773%@67777777u3w6u376u7w7w73",
"6777*777776*#%#+o@%333377w37777676##w373773777w0w03677w3*@*7<777777777776377w7773w77*@*73w0ww773@%77777777w0w736777w7w37677w377w777*%%%Oo@%377q7777w0u667*@%73w763733w76w7w7w777%$;<773qw37773777w7736767777%#*7730777w*@**77w777w3w76737777w7w37q3q3<77w73%%#$oO@%3777377u667777*@%7777ww377w3w37677677$$673w6777777777737736u677w7##7w7377w77*@*77773w773q73773767777w777777w3677%$%$oo@%q<3<3w03777667%#*7777w07w766777w6667w##3qw7w7777w733w737766767777#@377w3737u%@*77ww3u<q3777777w376667",
"676ww3u777uO...+@@@373w777777<w6w3##777w3ww7767377773w77%@*7<q7q73w777ww7w7737777777*@*w7737777*@%w7777w773w67w7767w6667w777ww77777O...@@@#37777773w377773#%w3w77w7w77763737677w$@-37qqq3w777w77776ww777w767%@%w76373w7%@*w77w7w7773767w3w77377677<73q7766uO...@@@%q3w7w3w6w<767w*@*777737w7667777w77w77$#*377777377w7777w77w7666767##377w77377%@*7773w77777qw737777w36377w37777u66X..X@@@%w<33<77773w667*@%u77773677w673w3u7673$$<3q77w77u77w777w776u7373w7%#377777w77%@*w777773q77w77377w7w777",
"w776#####%%#ooo*33377773737w7u66####77737667677ww6777366%$*7*%%%****7w7777w377q37w33*@*77777773*$%%*777w37737w767w667w773w36####@%%@oOO*373<qw3qw7w77w76#@@%77w77677w3w367767767$#<3*%%%**%*w377u<6736773w3u%@33w3w77363%%**77777777w3w77w377376773-######%OOOO*333377777ww7w773#@@%7w7377377w7776377w76#@33%***%-%*077373w3363w777w$#37w3777q7*%*-37w777w37377w77763w7777<*#####%%+OO@37w33q3q<76w7736*#@@&03777777w777773w776w##<<%%%%**%*u777w377677w7777##77777w377*%**773773<733w3w76376777",
"6776. ...o#####zHHH7777w7w737773X.##73wwu677777377677w77%@%w#@@@@@@%3077w7773w777333%@*777773wq7q*@%w730w77w777w777776w7777* ....O@@@@#gGCC33q<<7737777*.X@#w7777767777767763w6w$@<w@@@@@@@%u777763ww77<6767%@*u77337w777%#*w7w7w73w766767w37w7777q%..  .o##@@%HGJk37w7w7w67776% o@%777w773q76w773w73w77$@36@@@@@@@%w7wwww77w7776w77$@*7773q<3u33%@37377w3q<3q3ww3w377767<u#..  .+@#@@$HJJl3<<q376377wu% O@&w773w3ww373w77777777##q*@#@@@@#%w777763w77733w73#@77w773w7777#@*u0w7q3qw777773w7w777",
"67#@OoOOo%uwuuuuszs73w3w7777w06*o.@#7777u377777w777677w7*%%%3wuuwwu3%%%%%w66<q33w<773%*%w77wq<3<73%-%%%%%7773w77w6777w7777@@OOOOO%qu0w7sddu77qq3w7w7777*.o@%a<q<w7w3777373777w3w-%%%wwwuuww3%%%%**77w3367w77**%%777w777333*%%%*%-337777w6u77w77633@OOOOOO%uuu7wdpds777777w77767*.o@%w777777777776777w7773*%%7www7wu3%%%*%77w67777367**%*7377q3qq3**%%%%%-7773<37w7w776777*@+OOOOo3wuu3wdssu733q<767377u#.o#%777w6w7w667777667376*%%*wuww7wu%%%%%*6777w3w7377--%%3777w3677**%%%%%*7w7777w6777w677",
"w7X.@###@3KHCCZw6737777777777wu6o.@#77776w77w363767w673377%@lHZHHBKt@@@@+%w73q<q3u777u#@%w773<q3777-@@@#@7w37ww7766u776673..####@wKCHJFu337<77773767w673.o@%<3033776767w7w3w77773q##CFHCZFK7@#@@@777w7w7777757#@777773qw637%@@@@#7w7w77763w336770< o#@#@#sFZFFC3377777776w7<w37& o@*377q3w773w66w7w76u7733@%HHHHHHH3@@@@#7w7w7777w677u##7w777737377#@#@@#3w7<3376767w376q%.o$#@@#zFHHHC77777q<q3777w7*u%.O@%u73w7777773w6w7u7w77q3@%HFCGHHH*@#@@#6w777777w3ww7@#3w77w767w77#+##+$737ww77w7w77677",
"++O+swsuwpssusa777737w77w7w7ww#O+@uu777377376677663w777w73%@3sssssdw****%%%637q3777w77**%%6w3q3<77w***--*%%%%%*77767w7w6@OO#uuuuussssss77<037q<3676776O+O#dw370<667666777667373w77%@wsssssu7*****%%637w7w37777**%%777737<373%****%%%%%%66<7w73w3@O@@ddwuuusuwds7q77q7377677u63++O%dw77<77373737736676w3633##sstwsss7**3%*$%736<37377w7*%%*w377q37773****-%%%%%3767677376O@O%aptdwuuswdw77777q7<3777<73OOO%sw77w7w3677677777w7667<<#%dswsssu3***%*%%777w7w76737**%*73w7w73737*****$%%%%*736677767",
"..@%NHHHHx7777777u7w733w030377o.@%HBw7wwu7w77u3www776u77w0%#3377377777w63%@3q73qqu307u77##63<0qq0w77w7737#+#@@%7ww6767w7X.@%HHFBJd3w733wwwq3wq7ww7w7w7X.@*HC770q7u3w7u73w76uw3w77<$#3777777w3w7u7##77703w7u7ww7w##730w0w7w7w77w77#@@#+%77777uw7*.o@*GCHHZu577w7wq7q7w0qww73w73..@3Kx3qqww07w7wwwww7777u67<##37377w7w773w7##7w37ww00w7773##3wu73ww3w77w77*#@@@@*7w77www7*oo@7CCHHHu77737w7wu3073q<6u6u%.o@7Hs77776u7ww76uw77w3w3w33@#w7777<336www3@#wu30733w7w777@#7w77wuw70w7777*+@@@@*www77ww66",
"@@szuwwaww37777777wq377777777wo.@#BB777<667773777w7677w333%@337777w3777w7%@3773<3q77777w%@*<3<q3377w36777*3*73%#$$#%$#$$@#szwwuua0<<q3773qq30<<3337773o.@%Cx0<<3777773w37w3w37777q$@77q3w3777w677##3777737w3667u##33<3777377737777*7*3*#%$##%##%@@zdswwuw7*3000<773ww777777w0*.o@<Cj33333w7773<3w7w777w733##37777w3767773##3q30<377677w3@$3<77w337q3<777q<***3%@%##%##$#O#zdwwuwu73q77w77w7w3w3677ww3*.o@3Hs777766<7777377w3w67333@$<q<377w7w377*##7777w3q<30333#$73w777377777777**3**$$$#%#$$$#",
"##xV7<q3777ww33w77377777w77777Oo@%BV777376777w*ww*773w7333%@%w77777777733%@377q73<77w330%@3333<37773w776w37w7u*###@#######BN67*33<<3q<77<3<<<00<7w76w*o.#*Kx<30<777630667377w777<3##373<777773773$#3w773w7777766$#337<777w777w7777737w*@#####@##@*Hx3377w7qq<<3<777337ww6w773*.o@7Gx37<37777337w37377737<3##7777736737733##3<<<077767666##3377773w73q377<33qqw3@########$*Fz3w73777<77377377777677777%.o#3Hs777766673w7w7777777wq*@%<3<q3w37663w*#%77w73<03<3q<<#$7333w73w73w37730w3w7*@##@#####",
"<<3w773<7777<qw3w37773373777@oO@gx3w7w<37776637w6773736w@.@@333737w777w373*%%3<3q7773w773<%%<77q<37w36w777w7777733733333767w7w77<0<33<777q30<033737wOoO#zzw73<33777677737w773763@X@@<<3737777676w33##773377377673%$$7773w3377777w77w7766663737*3777w7w7337770<0<w37w77777376oo@%xdw<737<773337377777w377Oo@#37377w77373w73*#%33<73733w6733@%777777wq77770<<377q7663*637737ww773<77q3w3<773777677777*oo#%nd3ww3w7w77737w777w37676oo@$733q77w7677777*#%3w3<<33<77333#*773777wq3w7w7w7777777333<3;3",
"33q77q<<w77733q777w773*3*w7qO.@$xCq773<36*667w773w7w7w77@.@@37w777w3w777333#@3333u7777773*@@3377qq<3w777w7773w77777777q7777w7777<00<q3q373<33<-<6w73oX#*CN773<<-7*6677737773677wO.@@33q7w3w7w3w3773@$7<3777w773w3*@@377ww7w73w<3w73w7773673777777777777w77<30<<3777733*%6w76oo#%Cx7373<-%33w77w73w773w77o @$73w773w3373777<#$3<37w7w77773*@@73w37737w3w7<<q3777777767w7737w773<30w73w73<7ww3*6*67q7*.o#3Hd3777%33*3ww777673w7773oX@$7q3<7307<7677w*@#w7<0q<qq37q3%@$77w7773767737w77777w7777<33<",
"<77w000<q333q377q<77*X..@777$@jCwq77w%...X.%7777w3777777+.O#*77766733w3777w%@3335677767uO.o @%773777777777377ww377q33<377733w77733q373777qq7%XX.#u7u##zB773qq@ o.X.*w77w7w3w7777O.@@3377u667w7w7w77#@w733w7777w0o..o@$7737w3737377w6377w3w77w7773<77w77377w70w<3w77u#...%w77##Bz3330w@.XX.X3<3<773777ww3oX@$qq3<777w3w77773@-3336w7777w3o..o#%w73w7337w33w3<777q777w0w777733773337w33<3<7w77#...%777@%Jx7<3w0OXX..o67777777u6677o.@#w3<q37w777w7333@%w773<3<<33-...O#%77w776777w3<773w7777q0qq<<",
"**-<%-<;<---*<33****%XXo@77w$+wx7*<**#.oooX$333w7777763%+.O#377w77uw77w7777@@**3*336w3**Oooo@%777777**7**633737777**-%****3****3-3%<333%****@.o.#677#Osz33--%$ooo.o*37737777733&o.@$3<3w77673767377@@*33*377w33%X.oo$%w77733%*333**7w7777w**%**3-33*3*373*-3;3<;****@ooo%777@@zd<3<-*+XoXoo*3<777w7777--o @#3<3q73777777q3<@@-*<*37767**oooO#*w77773***737-q777777**%%***333**3-7***333-****+Xoo-377@%xp<-**-OXXXXo*37773w5377**X.@-3q<3w7377777<3*@#**3<3<33<-%oXXO#*77677***333**w777777--%---",
"@@@@XX@@+O +@@@#@...X@#@%7ww@ @@@@@@.o@@#@@@#*w357777s#...@@*73w7737773777wo.@@@@@%77uO.O@@@333773w+.+#@#@@677w3w7#. .@@#@@@.o@@@O.O@@@@@...o@$@*776o.@@@@@O.o@+@@@@@77w3<77w3@.X.O@377q03w76776w77X.@@@@@%777O.@@@#3777u77+.@@@@@#w77777uO...@@@@@@ o@@@o.O@@@@@...o@#@%737o.@@@@@O.o@@@@@@#<w7w777*wO..X@@77777w77773<3<-.o@@@@@*7w7o.@@@#77w77w7o.O#@@@#7w77ww7o...##@@@O.O@@#o.+@@@@@...O##@<qq<..@@@@@o.O@@@#@@$7w7w7ww77o..X@#w7q37777w3777w%.o@@@@@*7q<oX@@@%7766w3wo.@@@@@%37w3<<<X.oX@@",
"%%%%oo3-3@o@*****OooO*%##%#%Oo$3---%oO3*********3777*%@ooo%*377777w3w7777*%oo****3***%+X%***-----%%OX#****3**%%#%#@ooo-*%%%@o@***@o#**---ooo@<%@#%%%Oo****3%o@3<****3**%33w7*%Oooo**3773w73767773%%oO-3******%+.3******%%#%+o%%-**3**#%%#%Oooo**%#%@o@%--@o%<%**%ooX@3%##%%%oo3***3#o#3*****---*363w*%Oooo-3773q73w3w7<33%%o@*--****%%Oo******-%#%%Oo*******%%$$%#Oooo**%%*@o@3-*+o%*%**#ooo@*##$%$$oO**3**@o$-3****3%3%%77w*#oooO**w77773w3w7737%@o@**3****%%oo%3%****%%%$OX%3****-%%%#%%oooO**",
"3377#%NHFd@wKHCGC%@#%Kd#O...O@xGCCKx@*KHHHCFH%@@@w3w%.o#@@sKu7w3w777w37w3o.+#BHHHHs@o.O@sCFH@@@O.. o@dKHJCB#@X....O@@@lKwww3@-HCKu@dKKHCm$##*Jw@O...O%xKHHHd@7HHFKKHH%@@@3<w#.O@@@zH737w37q377777o.@%CHCHHw@o.O#xHCx@@@O...O@gHHFHx%O...  @@@@xGw773@3HCC7#xKJCGz##@6Fw@o...@$CHCGKw@dJJHHHHz#@@$w6wO.+#@#CH77777737737w7..@*HHHFK0@o.@@VJKd@@@o...+#xHCHHg@O..o..O#@$HB3w6*@wHHH*#BKHCJd@@@uH<+o...@%CGZGK7@sFHCHHHd@@#%qwwO.O@#$Hx7777w3w37w373.X+3JGGCK*@..@%BHJw@@@o...@#xCHGKd@O.....@@@%CG",
"<373--zsg7O%wdxxd%%%%**#@ooo%7ddxdzd%*xdgggsz*%*%-%#@o#33*sz77773677777*%+o*7sgggzw%@o#3dxxd-%%#oOo%7wztgxd#@OoOoo#337ddq777%-xdz%o*pdxxd%%$&*%@Oooo37dddzzs$7zgdxszd*%%**%#@o%333szw777q377767%#Oo*3zzdzz3%Oo%7dzxd*-%@ooo$*dzgzsd@@OOOOO%333jd7773%3xdg%O*wgdxu%%%%3%#OoOO*7jjxddw%7xdzzdgs%%%%*%#+o*733ss77733ww7303%#o@*7szzdz*%Oo-3dxxw%%%@ooo%7dzzggw#@ooOOo373wss7773%7zzg#O7wlxkw%%%*<-@OooO37jjkdx7$wvzgggzu%%%%%$@OO*333gg3w777777676%#o+3qjkdkd<%OO33xsxw%%%Oooo-7dszgk7@@oOoOO%333kd",
"377373w37#.o@-337777* o@@@@@dKw377337773366637773@@ o@7HHHu*77w776w3770+ +#zCw33663w%@uFu7737w7*#@@wJd<3373@@@@@@@wKHZw3777777w7w@.O@*7777<3$.o@@@@@lCw773*7773733377777*#O.o@wHFHw377w7w377667O.+%BC3337773%@dHw333q3q*@@@dKu7337*@@@@@@@dKCCw37777777w3O.O@333777w@.o#@@@#VH333<<<7773*7663773*#o.O@sHFH0377ww7777776X.@#Bx7733333##xHq33377q%@##zFw77<<*@@@@@@@xKHH77777776773O.O@3337777@ O+@@@$CN<3333737773377777w%@o @@xJHB777773w7w677*.X@%Cx3333333##lHw33777w%@@#lFw7333*@@@@@@#NHCM33",
"<77w7*@@@@o%u77377ww3O@wwuww73ww77777777w7737777-OOO@wadgsww7777730w730@.o#zCw777u77%@wHu7777777***wdw3q7%%7uwuwuwudgdw777777%@@@OO*ww77q777*O$wwpww33337773w7w777773w73*oOO%wddssw777373w7766uO.+#Nx777777w%@dHu377<3-<&&*uxw777%*wwwuwuwsdsdq37wq7u%@@@@O3u777777w%o%wuwqw3337<3q<q7777773777w%oOO*wssss077777w377777o.@%HB7777777%@zNq33<7777%**wz7773-*wuwuwwwddsw773w737%O@@O@3q7<3ww7q@O3w7uqq33337777w777<37w777w%oOO3wdddd773w7w3737w76XX@%Hk33<<3<3#@Cx3377w73*---sdw77<#*wauwuuwssda77",
"77<3q*...o@uHs76<30<*@-JHHHF*@*<737777w3377w737w<.X#*Kx3w037637377w677w+.O#xnq777w37%@wHu77777q3qqq733<<7@#VHHHHGJg77337w777w%...O@dCu733<qw*@*KHHHC%@3*737777w77737q3w0*.o#7Jp37377767377777w6O.@%xBw77w377%@sHw<77<3<qw007q<<33@%CHCJCZKu73377773q7#...O@xHw77777w%@uFZFHC@@373w7733<q7w3w3w7w% O@uKu37307w7w7w777w77o.@#Hz7777777%@zH3<73w7w3w37wq773-@%CJCCJJHw33373<7w37@ . @#MCq<q7777-@dKCHCC@@3377<q3<77377w7777#.O#sKw7737w3777737<33*X.@*Hz7w73<3<$#NC7777777wq3u7q777-@-HVJCHKH77q7q7",
"7773%$OOO%duuw7633<q-o@<7wws*3%*3w77w37<w7777w77-XX@%dw377777w7w77766wu+ @@gCq773077****%%7q77<37777q<q37%%xBswuwpw73ww77777%#OOO*susu7w3q77%o@-7dwp*<%%7w77770377w77773%Xo@%dw73ww3777ww7w773uO @#NB77777w33***%*37<0<3773733qq<##Jxdpdusw777737<q3%@@OO3duw3w3777w%.@0wsss**%*77777q<373777777%.O#*s73763737373773376o.#%BN773w73w--*%-*7q77w73w7733ww<@%Cmwauppq73w7w7733%#O@O3ddu33q7q7q@o$3uss7**%*3q3q3q77<773777w#.O#3sw7773w3q777w767w7Xo@%Hz73777q<<*--$*77w777777733w3-@-Hxwpawsw33<37",
"7773@@$##*Hs67w6<003-.o@%37777$@33773w7736777777%XX$$3w<67737677w7w6777+.O#gHu777w777u%@@@33q7qq7777q3773$#xzw7777777777773*@@###7Zu7777<<q3% X#*7773<##q7w3w37<ww3777w3%oo#%73w7763w337w777736+.@#CB77w777733%+@@3<q<q3373q3<373@%xx7<<77737w7w77w*@@@#@sHu777w773w$ O@*777w6@$7w37q<q37w3w7777@.O@*777w3w77777777w776o.@%Hz77w337737%@@$3777377773<q37-@%Cj<7q777777w7737*@@###zCw<77<q7ww@ O@*w<573#%q777<777737w777q#.O#*77w7377<<q777w6773Xo@*Fz377qq3333@@@$3<w777q3<3<q7q-@<Va<<<7773<q77",
"73OO@%kxgguu77w3<<33- o@%w777w$@*33q<73ww3w3w77OX.o@%q<q3w7w777336w77%o+@*77w77777w776*33;%@373<7777<3q773**%w7677ww777w73OO@*xzgsuu773wq33q%.o#%q77q<##33q777w33777773oo.o@%773677w77w777w7w#o+@%*uww773w777<667*#%33q<q77<3qq733*%*7773w7w733ww*oO@*xzzuuw7773w76w# @@*w7773@$73q<33q<77<73w*oo.O@%w777737673w3w73w@o+@%3tw73w7w7777*3*-#%w7u7777q<3w73<-%%777777777377*oO@3zzxuw777q3777w@ @@*w7633@$37q3q3q37w737q%o..o#*w777w77q3373ww7wOX@@*3ww3773<<q3<3<*3#-ww77<3qq<3q73<%%-q3<777q<373",
"w3o.@$VHHz33677w0q<3*.o$%<777w%@37336363373333*o..X#%7777w03w37w77777#.O@*w7777wu7777w3w77#@3q77w3377w37777@#77wq7qw3qq773oX@*HHHs337777773q% o@%q77q3$#37*37633313<-3-o..o#%q777q33777777w73@ @#<3<7777737w77w733@#7773<<q3<3<7<77#$3<q33<qq7777*.o@3HCHs37377w7377#.O@%<773*#$3*733666776337%...O#3777777w7w776367wO.@#377w37773737700q*@%33<777777777033@-777w77w73776%.o#7BHHw73777ww377@.O@37w7w3#%77333333773*33$.X.O%*777773w7777777w3o.@#3w377w36377w73ww*@%w77377w3<3w7<w*@&333<7q37w3q",
"33o.@#77q37<w7w6<3<q*.o@%37773*3%@##@##&7#..XXoO@@%mg3777777777777w77@.O@*777773776763w773$$3777773<773w77w##6777<<q777733..@%730w7ww73w7773% O@*qq7773*#@####@&q@ XXo.@O@%Vd7733q<q773w77777O O@3<377w37w733w3633@#<37qq3q<3<33777@#377<q<37777q*.o@%wq7737w7777w0w#.O@-3773w7*#####@#*woX.XXo@@O<Bw33777w7*w377w677O.@#-7773777w7w773373@#33777q777w7733<@%w7773777w77s%.o#*wwww7ww777w7w<@.O#*777777%@#####@37oXXXXo@@Owxs777w76766w73w767o.@#37777737w763667w*@%777w77w7337730%@&33377q<7777",
"**Oo#%3q<37q777733<*%.o$-qq3w073####$#@%7@XXXXX#$%*Mx37373w3w3w777777#.O@-77q77777737677q3%@*37773--*77*363$#7777737q3773*oo#*77777333777<*3#oO%%q777773##%###@*3+.X.Xo$%$<Hd77737q7w777w777w@ @@37737q<3w77776<3<%#33w77*---<3333<$%337q7q37733*%.o#*7w773777337333@.@%3ww37776####$$$%3O.X.Xo%#%7Hd7<3777777w776773O @#777733ww377777773$%3377q*--*3373;*@%337777377w3%%.o#*7w377777773**<@.@%333w77w3##%@##%-7o.oX.O%#$uHu77737777w7773767o.#%*w7777w76w37767w*#%77777*---3333<%#*<7<733<7773",
"..@@37<<qq<3777u3o...@*Cd3q<777377776w7*@@@@+@#zCMxq77w3qw7777373wu77# O@3w733w73w7ww377<33<##w7w%...O#@@##*3@%7w7q73qwwo.@#3777777q7q77*o. o@3Hd7777337<33377w*@@@@@@@HmCdwu77ww77737773ww7uO @@3w7q<3377777776<333@$w77#...@@@@@@3*@*7073qw<3<oo@%3w777737777w*...o@3Ht77767777w77767%@@@@@@%BCHd3w<3<w7w7w77777wwwo.@#3w73377773w77337773@%0wqO...@@@@@$3*@%3w7u7w3w*XX#%777777773w7w*.X.O@wHu7777737777<3<*##@@#@@*BHHs7777w0w6336777wu67o.+#7w7w7777777673w733*@*ww7O..o@+@@@%q*@*qqw3qqq77",
"..@@33q337377q7**oooo%3xu*3777777ww377w%$$%#$$%sxkd777**--377777w3*%*@.@%*337<q37w37777373<3%$-*-#Xoo@***#%77$%%3**7-***o.#@377wq3<<773%%ooo@%3xw*7777w37w3w<3q*$%$%-@%ddxs<37*-***7w7777--%*@o@%**777<q7w377w7u3<03$%3**@oo.#%%%%%<<#%*-3**3-**Xo@%33777w37773*%.o.@%wlw%77773777677w0%#$$$$$*ddxu777<-3%*3777773***oX$**33337777w3q3777373#%**-Oooo$*%%$%q*#***3**---%.o#%u73ww77w773*#oXX@*wx7*77w7w7777777w*#%#%$#3zzzw777**%*7777777*%*%oo%***73076w7w3777777w-#%***Oooo%%%%#-3*#%*<-*3-33*",
"..@$33q7w7q<73wo.@@@%Cd@@@%73w7q77777777w773777#@@$77w#...%w7777w-...o@uH*@3q3777377777q7qq73-@@.o@@@wCCBw7777*@@@@#@@@@o.@%777373q3w73o.@@@*Jw@@@*7w7777377q<0<3<<3773@@@%3qw@..X*q3777w-...O@dH%@3773q73w7633w<3q<7*@O.O@@@dCHH33q3w*@@@@@@#@@.X@$q37777w7773Xo##@3H3@@#*w7ww77w7773w777w700*##@%w7wO...3w7777w#..X+#zB##777776777<377ww773*@O.O@@@kCZCq<<3u%@#@@@#@@@.X#%7777377377*.o@@@7K3@@@7w3737w3w77737777777-@#@%ww7oX.Xw73www7@...+#Bz#$77w7737763w7777777%@o.+@@#xHHx3q777%@@@@@@@@@",
"+O@@3<w70q3377w+.@#<3xd%%%%*3q<77w737373777w777%%@$3<#@Ooo%77377%#ooo@3wl%@*73777w73w3773q3<<<%%o@7**wxxzw777w3%%%$%%$%%Oo##3w777q77q<3o @#*wl0%%%**73777w773703q7<3777%%@%<-%Oooo*377<7%@ooo@*sx%#3737776777773qq337*%@o#3**dxxd77<773%%%%%%%%#oO@%q777w773773.X#%*wz7%%%3%777377777677ww3733*%%@%7%$OoOO3777w3%@ooo#3zd%@77w3376w3<q3q37777*%@o$<<*dxxxq<377%%%%%%%%%#XO#%77373w7w77-.o@%3wz3%%%*%33w37737w373773w773%#@%w%$OooO77777*%+ooo*6zs#%w7w67737637777777w*%Oo*3*3zxzd77773*%%%%%%%%#",
"@@@@<q<737<q770o.@#Cx33<7q%@*w<<777w7w7ww677w6w3<@%q% o@#@*7w0u*.o@@@wKs-%@37w773w7w773q<<3q333*@-CHJs773w777w773w77w773#@@#73w73w77q73o.@-Jz33777#@7w3w7773q7q<377<777q3@%7@.O@@@7w3w3%.o@@@sKs3##37wq3w37676w03<<q7q7*@3HCKu7333q3773777773<73#@@%q777377ww33.X@*Fz37777#@w77ww3w3w37677<77w7w-@%w@.O#@@33w7w# X#@@zFw3##7777w77763q<<3q7777w%@pCCJu33777<777w73777w7*@@#%w7w777733w%.o@7Kd3337w@#w777773q777w777w7333*@*wX.+@##uwu77@ O###zH7*##w733w7w77w7777ww3377%#dHCNw737q777qq077773737",
"3333**7377w7773@X3wss77777*%%*3*76w7w76366w7w7633#@#@o#3333%%*#@oO<77ugu*%@37777<<73<q7w377w337<@-Cxkw77777w3w777667377776w3-%377w36776+O37ss77377-%%*7777w7w377ww66667w3###@o%3733%%%#@o@737sdw7##*w77777737<<3773<q73%@3Hzsw637763w76677<33<<q3w77%*737733w77O@3wgsw77<3*%**3777737773773w3w77%#@#@o%333%%%%@@O$773sz33##37377w7w377777777w37*@uCkdq7q33<q67777w7w36<73333%-<3<<q377*o#3wsd37777***&3377w77w36776<77w3%@##OO*33<-%-%@@o%qq3aaq*##7w777w77777737777w77#@sBzsw767777w7w7q3<qq33<",
"HHHC##7w7w07733%%CH777u3777w$#*u63www77077w7077w<#@ o@3GHH%@@@..@%HHHl777#@*w70wu3q0qw7w777333w3@3Gg<3u73w7773w77u77w7w3BHFz@%w777u6767$%ZH773w07u0w##7773036u77w7w73w776#O o@wCHF%@@@..@3HHKd777##307w773qqw3qq7<3wqqw-@wFs36uw676w777w7wq0qqqwHKFsO%uww37www7@%FB6777wq<q7@#77u3w0u3wwu777777u*$o.o#dCGC$@@@ o@wFZHs73<@#3w0w70377w7w33w77007*@dCd773q<q736uw37w6wu67uHKKd@%q3030qww3#3Fg37w7773*q@@w<773w30u6776u77u7*#o O#xGGm@@@O o@wKCCq<q3@#77ww7www77<w0w7q7www-@zHu3673u7www307qq333q73",
"wd33**3777777w7@o*767w7ww777*<$%6777767ww7673777;o+O#waats***%O@7usssw7773**%%-33q7777776777@@@@@%ww77<777777667677w6773ss3*--37w3w7777+O*377w737777**%%333w67773w676777*ooO%ussss*%%%O@uwsudu337**%%%*77w77q<<377<;@O@@@*su67777777677w7w7q<33<sw3***66377767%OO3*6777w3q77*%%%667w767676w3w36<%oo+%daaaa*%%%O#wssus7w37**%%%*7767w7777w77*@O@@@7du3777<37w776w7776777wdw**%<33q<<377*o@3337w777q77*-%-77777w7777w37766%oOO*ddaau%%*%O%wadadwq<7*%*%%*777773636773%O@@@#ws7777w66777667773qq<7q",
"33#@77w7w73w737O.@#77373q77737#@67777676u73w777w<.o@*Kk-333w7*#%HN777773w7<#@@#700q7<7u7w3w7.  .@%w3777763w3ww66773w3w7w73@#ww777737w36X.@#73w7w77w377##w777<7w377773w77*.o#7Cs7677w3*#*Gl37*<3ww73#@@#7w0u77qqqqww*.X.o@%7777773w6w7763773w77<373@%w7w77777773.X@%ww773<07ww3@#7677767676777<30$.o#pKa3<3ww3*@3Hl377777773@@@%777w0w7w637u* ..o@*7777q7qq737777677w77737*@%w33<w3q<77*.o@%377773q73q<@@73w773w7673w73w7# O#dKw3<3qqq*@qGd3373<<7w*@#@%7w7u7ww77777% ..O#%73w7737677663w77<q3<77",
"77$@6777u777777o.@#7777w777w#+##377w776w7677777+O.o@-Hp33q7773##Bx37w3<q777****%$%$%$%@O+oOo@OO%xw#&ww377w3w73737w67777773@%77777777<3<o.@$33w77773w@O@$6677660w7w36773OO.o@7Hw3w37363@*Ck377777w37*3-%%%#%#%$OOOOOO@OO%x3#*37w773677w3ww777q<0<73@%7777w777773.o@%w777w3<3q@O@#77w3w37373777w%Oo.o#qCu70<7733@-Cd7qw37677733**#%%$%#%OOOOOO@@O*z*#*w77w377w3767676w777w73@%w777q<77w7*.o@%0w777q3<*++@%w3777777777u77*oo.O@sCw73<<q0-@qHs7777777w6***%#%%%$%#OOOOOOO@O7s%$3776w766777w7q7773<77",
"77$$67w3776w77wO.@#773777730o.+#*7777677w667w76X .X@-Hd37q77<3#%BBw7773q7w73w77@##@#@@o ....@$@-Hw@%77777377ww7w737w777777##777w777733<oo@$3<ww7w777o.@$w77677w763w7763...o@3Huw777w<*@%Ck3777777ww7w7*#@$##@@o. ...@$$7Ku@*w7377w6777777u7733<373@%76w6377777-oX@%77377q03<.o@%7777777w7w3w773...O@qHw733773*@-Hs777777773w0w*@#@##@@X... o@@@wC*@*0777q773w7ww7767w3637*@%0777q<7767*.o#%0773w<3q<..@%3w77w77377637u%.. O@sHu7<33q<-@7Hs77777q7w77uu*##@#@@@.... O##@dF3@-6w777w67673777773<77",
"33#@67636%oooOo@@%367q733w7w+.+#36w37w66w7777+.@@@@@*Jz7307755#$HN777377777w7w7**7*<@XO@@+@@szls7*@*3w7w7w773777767ww66<73##7377<#ooooo@@*337777377wo.@#676w77w377777Oo+@@@@<Hd<777776@%Hk<77w337w77777*<3*7@XO@@@@@dxxds*@%w377w77777777377333373@%w73w7+ooooo@@*337q7373<7o.@$737676w7w7677oo@@@@@wCw3<37q33@%Cz77w3w773777737**6*OX@@@@@$xdxdu%#*37w7377w37707ww7777w73@%03777+oooo++#333777w7q7*.o@#uq333w3ww3w0*oo+@@@#sHu733<<w*#3Hsq373777777<<*6*%67oo@@@@@%xxxaw#@*7777w777677373w73w37",
"33$$<5636%.... @$37673qq7773O.@#*7767776w73w7O.@@@$@*Cd77w7733#%Nz777wq37w3w77777<37#.O%###$NHHl7*@*777377777u77w376636633##ww773#..X..@%3337777w77wO.+#6777777776w36oX#%@@@3Ca73w7763#%Cx<7777ww777w7773*77O @$@$@%CCGd7%@*7776373w73w3w0w733333*@#0w777+....o#%<3<73qw7q77o.@#7w7776373767*.o#@$@$qGu3qq<333@3Hd7777377w77<3<76676O.@#%@@-HHJd*%#63w777777777w73776*63**@%u7737oX...o#%33777737773.o@%<7<q77777777*.o$###@uCu7<qq37*@7Hs73ww77w777776*636*o.@@@%@*CHCs3%#7w777373w3w7w7w77333*",
"oo@@37q%oO@@@@@pB$$3357www73@ @#363777w3w3777$@gxVxxz7q7377777##u7w763737w7w3w37%.ooO@3xzzBzuwww733*###-37777w337<7q@X.ooo@%33w-oO@O@@@xz#$7777w3u67O.@$<<3<37u6w7733@#zlNxMdq776777w3##u7777777037777ww%XXoO@dmmglxwuw7w36%###6w3w776777w37@.oooo@%737#oO@@@@@zd#%7777w3w77oo@%w36777w3777w3@%zmxkxdwqq776w33@$w777w7773<q77q37@oo.O@sBlxxguwu736*$#$#6w77777777767Oooo.O@%7ww@oO+@@@%Bw@*3377ww3q-o.@%76777777w<7w*@*Hlllxw7777777<*@&w77777773777777u@oooO#zBNlxgqu7776*%##%7676777w377w*oo.o",
"o.@@--<$.O%#$#%dB%#3336%**<3@.@$*7w7777767773%#zVJVHx777w7w377##36377w7w73737766%oo.O%pCNBBB7767773*###-*77w737w73<*OXoo..@$**<#.O%%@%%xl#%3777*3%**oX@$<3q3w777377w3%%zVNxJg7773w6776#%*3w7w7737u3w777*#oX.O%dCxCHx77773w6%###*66777w3w773*O..X.o@@-3-@.@%$$#3xx#%3773-*3**oo@%763w677777w3*#%zmVCCd3<<63777*#%37w7373wq<37737*@...@%zBNHCx7777w77%##@**3w7w773w33*o....o@%-<<O.@%%$$*Ns#%7373*--<%oo#%73w3w3w63663*#*zNHCHs77w73w37*#&777w7w7ww7w3w73*O..o#%zBNVCx7777637#%#$*673w6777773*o.o.",
"@@@@...o@3HBNHVu773##u%. ...O@*7w77763w367736w3#%77ww77737737776#%377677777w77*.o@@@3Hd377w3773777337ww##3w7w773ww@.O@@@@@@@o..o@3HHHJVuw33@%u#....o@@33<q<3770w7w7777*#%w7ww7777776703*#%36377w7777733.o@@@wHu7777w777w7763777##*7777w3<7O.@@@@@@@@o..o@wHBNNNw77*@%3@. ..o@@7777w776w33773777#%w7w77<77w77777*@%773w77q3<373%.O@@@zCt33w7q7777363w7w3#%33737<<w7XX@@@@@@@O...O@gHCBBxw77*@*7O...o.@$3<w37w367777777u*#*w<7w3777u7w773*@3373w7w77770w#.O@@@zBw33w303q777w77*w7@%w3776w0w7o.@@@@",
"%%-%oo.O%7NNNxNw773##%#ooooX@#3w777w7w763w7w7**#@7773w77w77ww3w3@#0w7767w3777%%oO%*%wza37776w7w77737777#@3w7773*%*@X@*%%*%*@.o.O*wlNllxw773@@*@oo.oo@%3<33<q773773777*%#@37737w73w777wu*@%w3w77377w36%%X+%%%tVw77777ww77677w776$#67776**%%@o$*%%%*%%.o.#-szBNNx77w3@$-@.oooo@%3767377776q7707%%#%77777q773w7w67*@%7773w7<3q07-@.@3%*sNw73<7777q7w777776#$<w777-%*%Oo%%*%%%*@Xoo@*dBxBxz777*@$*OooXoO@-<33w767773773w**##%77777777773w7<-@*3<777373ww3%#.@*%-zzw7<37q773w63w3373#$77776*%%%oo%3-%",
"KZCn%#@*Hz77w73w773#@.X@@@@@*w77766377w377w7wo.@$7w777w377w77733@%7w77w7763w6XX@*HCJz673ww376677w7<q377%@37777* ..o@dHCCCGCj#@@3Hg773qq<773@@.o@##@@*3<3q<777737777w%oo#%3737w3777w76w6*@%777w3w7377*.o#3HHFsww73w67737777w7776#@677w7#...O@kKCKZGGg##@wHs77777673*@O.o#@@@@*w777376w7w33<qq-.X@%73qw37q37763w7*@*7377w3<0<0%.o@7HNHs6673w3w77w3377777*@$37q<w@...@@zHZHHHZa@@@dHu7777777q%@o.O@@#@@77w7777w7w3ww367%.o@%37w37q377w07w0%@*u37w37w777$.O@pJHCw7w77777qu77777w77*@%77w7uO...@$HZHH",
"kxxg#@*7Bs773777777$#o@*3*33**77777w677777370o.@$73777w730377733@$773w3677<36.X@%Zzzu67w3777w776773q77*-#**%%%#ooo#*uxxkxxxa#%<qzs377733773-@o@%**3***3<q373w7w777733o.@#w7w773w3w36<77*@%w77777ww77*.o@*Fxzw73767777w777737776*%**%%%#ooo%*dxgxxxju##3ulw77w673733-@o#**3*3*3777w773776q73<*.o@%u7<3q<3w7w3777*@*7w77770<<0%.O@wHxxu7677777w777w777ww7%$--%%%@ooo%*dlzzxxd<@%*uxw7773w37q*%@o%****33*33777373777767*.o#%37w77<3777377w-@*7w773w777w$ O@wHxxw77773w337777377w73%%**#%$+ooO%wszdz",
"<777@%JC37737q0377373@*FFKHH3@*7w37776w3<7733o.@#6w377377w3w7733@$w37763w37w3o.@%Hz37777777w677773777w3w7#@...X@@@uGu777q<<-@-Hl777777<q3q<3*@7CHHHF%@3q3q3q3w073w7w6X.@%777737q77w777w3@%77777337673..@*Zs6776777373w7ww376w3376#+....#@@dKu77777<*@3Hd3376377w777w*@qHJKHF$#*ww3677376w377< o#%7q377q3673w7w7*@%7773w3<3q3% o@7Zd337777w773qw3373w777w<@O.  O@##zH77773<3-@uJa37777w77777w%@sFHJFB##7w677w7w7ww77w%.o#%77777wqw777377%@*w3w7777777$.o@uGa<77q7777ww7777w77777w*@O . O#@@BF7777",
"777*O@w7w77q73w777w337wzsgsz*%%*673w7776u3ww7o.@#777773q77773w73##w7677w777##o+7wgw3w73w7773w7777ww377777*%ooo@777ukw7777<q;O@0073q30w3q<73377uggsgz3%%-<777773777736oX@#6777q<37737w77%@%ww73qwu73##o@7ugs7w730w7w777733w7776w77%%ooo#77qugq77777q*o$qq7673w773w77777wzdzss****763w7w7777773.o#%773w3q<7777737*@%777w7733<%@o@3ugw3w777737773w7w777777w*%$oOo%7w3sg777w3qq%O%qq777w7w777w73w3dzgzss%%**77637777366w%.o#$777w33<363ww77%#%7737777w*#@o%7ugq77733w77733w73w773w773%#ooo*67wds7777",
"77w3X.@@w777ww036677wHz677w37u#@335<7773w7777O.@#773<3w77w37w37*@$777777<77o.@$Hz37777w3w36677667766773w<33$#@-GCJdq77ww37u%.o@#6677w3w37677sHz*33773w#@q<7777w7w37w3..@$77337777w7w3q0-@%7w3777776..@-Hl3777w7ww3767777u677w677767#@@3HCCs3777777u% X@%6777677w377wsHg3676773@#3377777w377u*.o@%7777777w377777*@%q77777q3-.X@3Hd77w777w767377u6666777777u3##@wKHHu6777777u# O@%w77ww3767w76zHs77766w3@#w77777w7777w-.o@%333773w67w376u%@%37777777%.o#3Cd377777w3w377777773777777w*@#@dCFHq77q37",
"777*XX@%3377777767773ss7773367**%%37777*@@@@@O+7w%-%*<77773w77*%**73w377333o.@$Fx777w37777773w67776777773<<OO@%Hxdw<w777777*.o#%u6777777773wusu67w7<q7**%*7q777$+@@+@O@dw%%%*773737777%-*%777777673XX@%Nl377773077773w73667777767w*oO@*Hxdw777w73w7%.o#%773w67777773us77777777*%%%77737#@@+++O@u*%%%*7w7773w77%%%*777773<3*.o@<Cd7777w73737w3w73776777w777*oO@qCds77w3w3777#.O@33773737773767sw73w77*3*%%*77777#@@++@O%s3$%%37776777u*#*3777373337-.o@qZd777777377w773w377w7w37677%o@#dCdd773w77",
"ww77oX@#wqq7<uw33uw77w373w77ww77##37wqw@  ...O#Bx#@@%w77w0q377#@333wwww0333O.@%CC77w0ww3w377737ww33uw0w3<w-XX@*Cx37w77wqwww*.o#%770ww7u76uw3w33w7wq33777##wwq3w@.....@#Hz@@@%33770337*@#<377w7w3763XX@%Fd3wqww77w330w7wwu7w07w6w77*.o@3Hd7w7wq03w37%.o#*3w677uw73w7w677w703u6673@%w773uO.....#*Ks@@@*<7777777*@%q7qqqq33q7*.o@3Gx7q7w7777w30u6<w7w0u3w37<w% o#wJu3773uw077w#.o@*q37ww07uwu677737773www73@%u67wwo..o..@7Fw@@@33w7w7w773@*w77w77w37w*.O@qZd7w7w770770w7wu7s7w73w7w7u# o#dHs7q77777",
"3773.o@%377773w7w737777773w73w76##67w%OOO@OOOwguu**<&@*3qw7777**$*37773#OOO.o@#wu77737773w777w7w77w7737773<.X@%Hx7777773377*.X@%u737376667777777733w7773#$777%o@O+O+@wguu***%%*77w7q77%-%3w7370#O+O.o@%su377773w777w37377773766ww7*.o@3Hd77773q7777%.o#%7767773677306w7w7w777333@%77w#OOO+++@ddu7***%%37w3w376*%$*7337<@OOO.o@%aw777373w3w7w6677773763w73<%.O@qKu7666677777@.O@*3w73776737667776677777w*@*777@OOOOOO@sss7*3%%%6737377**%%*w7373@OOo.O@*dw077377w766766676637677377#.O@sCw7773w73",
"77<*oX@%w7777w033776676w77377w76$@333%.O####$xC7q030*@*3<7377776@%77737+....X@#73w77737777w73qq<73773777qq<.o@%Hd77w37<q7766.o#%w37777w7777w3w77qq377w3*#$773#.O#####zH77w0w3@%w777w77w*@%77777O....X##773w77w7777w7q<<36777w37777*.o@3Hs33w777w777%.o#%77w377w3777w37773w307w33@$77q+.+####$CN77wu7*@-w3w3w73w%@%33333o....o@%373777w37777777w777w77w3777%.o#3Hu3777w37w77# o@*u7377w373w63w7w37673737*@%337O.@####*Hd77w7u$@363w7777w*@%77773.....o#*q3<773<<<7w77w3367663777w<7#.O#uCu77w37w3",
"q7Oo@@*333w677q7w7w377673ww77w76*3%@ooO3xxkkxdu7<3<q*@%<77w777u*.o%##%##@@@@@**#%w777w773w37<<337w3ww7w33Oo@#ggwu773w73w7*Oo+#7*6676w637w776733w37773w7q**$@oOO3xlzzguw77737%@*7ww777w7*.O%@$##@@@+@#**#*w77777w773733qq7767773w6oo@*zdwww7777777*oO@#373w773w773w7<773w777w77<3<&#@oO@qzzxxguw77730%@-w67677w7%oO#$$$$@@@@@@<*@*w7777w73w7777w76637773w*oO@-Cdq77777377w*oO@%3377w773w7777w3777767www76**@@o@@uBzklgt777737$@*77773w7w@.@%@%##@@@@+#7*#-377qq3<773wu7w7777w767w%oO@3xuuw73w7777",
"3*oo@%37u67w77w7673w7w6777776w7w33@O.o%3GCCCCu77<033*@%3777777w*oo##@%#$%@##$36##7*373w37777q37qw777773<<o.@%Hxw377w377776.X@*777w77w7w33w37766777777773q*@O O$pHCHHH777w376%@*73<7777w*.o%#$$$%#####73##*37777w7773<q3<w7w7w777*.o@&Hs73u773w7w7*.o#%u77366667377q7w777ww677777q*@O.O$aHHHCM777ww3w%@*7776777w%.O$$$$%@$##@%3-@**66773777777w3777w3777u%.o@-Cu777777w3w7%.o$*7w7w3777777u7776w3w3w73<w37%@O @%zCCCHz0w7777w$@*7w37w77w#.O$$##%#####%w%@-33*<33qw7776777w3677667%.O@wHs377777777",
"<q##*3777677w777776773w777w3677773oo@%zdqqqqqw7730<3<@-3q7w3w337@%nBNzNBzw333676*###*w773w77773q376777<33o.@%w07777w<7w373@#377776w7767777677u77w3w77773q&oo@<Md3w7w7w77777w%@*37777w77*@*nBxNxNB7767767&%##*77w3q7q<3q7033736676.o#%7777<77777776@#63777w77777wq33u37777773w3w7<%Xo@qCd373q77q77777%@*776w7777*O<mmxmHxxq33333<*@##*u773w7w77w73w776<66*.o#%wq3ww7777777*@%73777777w377673w7776773767777#.O@wzsqqqq7767w777#@33777w777%@7ClHxzBz<377q7<%@@%<q30666776w3776w7w77%.o@*7w777w7w377",
"73##77w7777777u677w7w377w7w7733w3- o@*Kd7777w7777q373#&<77737737@-CxMCxCnu7777w7*##@%<;3<333377777777377*o.@$37777777377w*#$777w777ww6773w776w773737777w7*.o@3Jd7777w366737w*#*3737w77w*@*CNmnBCCw3q<33w&@#@%<*33*337777777777333.o@%7777777737773#%77w37777w7w777677777773u67777%.o#wCw677<w7773w3w&#**7w777w0%@3HHzCNNVqq<<377*@@@%3<33;3377w7777777w3*.o#%77q37w373773*@%3377u376777767w3737737777w77q@.O#dHu<3qw777w7776%#*3777777w%@wHBNBNBlq3<7w37*$@@-<-37*77u7w7w37w3777%.o@%37773737677",
"w3$#6307w777w3766w66767737777w7731.o@*Hg77w7373w737773*@*3www77*@*Kx307w<77777377w#.+@@@@@<qw7w30w76w07u3oX@%377w3w37w7777#$77777677767767776w77w7w777737%.o@3Jd377777777w7376%@*w737w33@3Hs<077qq77qq77w7@.O@@#@@377w33w7w7ww737.o@%7ww3w777w3ww*##777776w73737w77ww3w67ww766777%.o@uHd67663777777733-@633w7733@3Cdw7w77<33qq777w@.@@@@@$qq77u7w3ww733w*.o#%77767777w67w*@%ww776w77w6733w777w3ww7w373777# O@uH77<737777737u33$#763ww7w*@wCuw777373q777777o.@@@@$%w77307u777u77u%.o#*<3w7w7w73w7",
"%*##677w367376w377w77766777ww077w*oo@*Cd77777377<qq377*@&37777*%@%Hx7q0<7w7777763*#.@**%%%-<3**<3****%**-o.@#377377w7737*3@$73w3667377767ww3777637w7667w7*.o@3Gd7377w3w7737667%@*77777*%@*Hs<q<3<7773<77*-@.@3***-**7*33*7*%%%**%..@#77776736377*%##737367677777677w3667767773767%.O@wHu6ww3776<773733%#35<733*%@7Fs377777<q3<7q**Oo#-*%<%*<%7--****%***#.o@%7<3737777w3*%@%77736737377w7667736677w77376q#.O#uCu7770737w7w6667%#637773*%@uHu777377<q67773%+X$%-%%-%**7*****%%***#.o@%777w3776w37",
"..@#7777u<7w77u777w7ww767u777w77q7 o+<Hz7qq7uw3w30<q7u*+*7730woX@-Jx<30q777w77us*.o@wCHCCV%@@@@@@@#o .... o@#3q77u73wuwwo.@#ww77w0www3u67w776u7w7703767ww%.o@3Jp7q3w7737uw3w76%@77ww7*.o@7Kx30q0u77u3q7w%.o@wFCCFB#@@@@@@@#o.......@%ww7u67wuwu6XX@%ww7ww766ww3w7w76u73wu7w6w0w7w% o@uFd30763w6u0ww77<#@36776%.o@uKs77770w30q77u# O@xCHHHx@@@@#@@#@X..... o@%7q<w0w3u7w3.o@%w7u777w76u307u777w777737w0u7u# O@dHs777wuw7777<u77#@6w3w7%.O@uCu73wwq3q3u77uO.+@lHCHHs@$@@@@#@#.......o@*777u777u3w6",
".o@@7777777773w37w6777777w377u7q%#o+*7zs67767777q3<<w3*%***777oX@%kd3<<3777777w##o@*uzzzkx*%%%%$%%%@oooOOoO****77377*###o.@%37w3w3777777677w77ww63777w66$@oO37zs7q777777663677*%**377*XX@*ka<<<q77w377*#@o@3dxdxzz%%#%%%%%%@oOoOooO3***77763%###.o@#67w77667w36676677w6w73763776#@o@3tzw67w337773w3<77*%**776*.o@3zw733w3q3777*#@.%*dxzgdd%%%%%%%%%Ooooooo+<-%33777*%###.o@%u777737w776w77777376w777777*#@X#3szw776w77777w3377%%**77w%.o@7xw777737q377*#+X%0szzzzs%%%%%%%%%OoXooOo@3**366776$$$#",
"..@@*<www77<7wu77ww366ww77w77777X.@%ZB33w77377w7<3q33337$@*w7*o.@$33<qq33w3q3w%..@3Fs333337333q7*33*@@#@@@$Bz@#77w7uO.. ..@@77u77777ww7767u677377w7777w*.X@*Hg77<3773w777<w77677%@*77*.X@%01333q77777w*.o@qKd37q3335773w776%@@@@#@%HsO%777<7o.....@%7u77w37777777u6u77777w7<777*.X@7Hr377776w7w3773q3077@@*7u%.o@%677w77773q3q# o@sHw33733<q33q3777#@#@@@@%Jw@%w777*.... o@%7ww77w737777w7w77w7777w37<u$.o@qFs*77660773w767w7767##w76%.o@*77773w3q777u@.O@dFw73333337766377$####@@3H*@%67776X.. ",
"OO*w****036677667#@%*777673677#@OO<0ss77377w7736<0q<q<33*@*773OO%-3<<q<<77737$#o#7usw777777q377377w*%**%*%-ss3%*####OOOOoO37****6776u6773##*%366w36776##O@wwsu7wqq33737377777773##*7w3OO%333<3<<u7w3-@@o@7usu7777w77w737773**%%%%**su%%%%#@#OoooO@w7*%%*w76777w7*@#**7677u7u33##O@wwsu677376373w77<q7w77%@37<*o@%*3w77377777-@@o%7sdw77w3<<337qq767**%%%*-*k7%%%%###+ooOo@w3*&%*w6776767*##**6w377w77*#+o$7usw77777ww77777737777##777%o@%3777777<<q<*#oo*wssw777w7*703w7377*%*%%%%3z7%%*#@##oOoo",
"@@NN@@+#wwu3w7u77X.@#w776ww77wo.@@HC63w73w63w777<0<3<333%@*733%#00q3<33qw37w7..@%Zz777w77777777q77733777773<33*#O   O@@@@%Fg@@+#u776u7ww*..O%w7u777u76..@%Kz33773<<q7w7w77w3w3w0%@3777@%w7333<037777<.X@3Ks3777w76w777w7w7777w7w77776u*#o ..+###@%Hs@@+%w30wu7w7*.X@%77ww777u*..@3Fg663w7w77w77777737w73##*77*@%ww6777w7777u% o@<Hs377773q0<<73<7w7w7w7w7wq33w%#....#+##@3K7@O@*w76u7u7u#.o@*7wwu7777*.o@qKd36w6w777373w63www766##77w%#*w7777ww3q33u% o#tHu3777w7777w737777773w77w3366%#. ..@###",
"**ssuwsw%%%#OOO@+O@uw%%%#OO@OOO@wu*77777w3777w37777777w3%@*w77#@w7w73w67777@OO@wuuu67776673w77777777w7w377777w%ooOOO3aua**wdddd7%%#@O+O++O#sw%%%@OO++@O@wu**77w73w3w3w77w7777777%@3763@$u376w777w36++O#ussw7w77w3777w366w367w776377777%ooO+O3ssu*<dsdda<%%%@++++++#s7%%%@O@OO@O#uw3<3777q377777w<q33<q77##377*@%7777737wq3<@OO%wuuww7377766377w7w7w7w776737377#oo+O+7ssw*3ssssd*%%%@O++++O%s3%%%@O+O@OO$a7*37777777w3w3777ww3766#$7733@*76u373773w%@@O%dssw6773w777w0777w3736777w7w367#X++O@wuus",
"ww7wCHKd@@#o.....@%Cz#@@O.....@#BB@#w7w73w7777773w77w37u%@*777##37377777w77o.@%Hn66uw6737777w3w67w3w377777w330%.o%##dKJCwq3uCGKd@#@o.....@%Hs@@#o.....@#Hz@%qq7767776773377wu7w7%#**73#$6w773777776..#*Hl377w773773w7777773w3677q7q37u#.O###xHHCw33sHCH3@@@.....X@*Hw@@@o.....@-Kd@%33w3q777w3733q<qq37w##*773@%u76w7w73<3-.o@3Jz673ww77777w7737373737677w7ww<@.+$##BFGC773sFZC3@@@.....o#7Fw@@@X....X@3Jw@%w<7w7773777777376uu7##3w3*@%u67w7w7377% o@wKs63776677777373w777w676737763wO.+#@%CHHC",
"7777wwau***%O+@+@usus***$@@OO@7dsu**%%7777w337w777wu%ooO@@*773##%%w37w36373o.@%zz736377w7w373677777773773777w7*@%gusdwuww77uwuww***#O+++@ssuu*%3#O@++@usuw**$%777w77777w7w77%oOO@@3373##%%3777w3u76XX@%Bz373777w7777w37777w763w337q<73*O%ddgsuuu7777dwa3%**@+++O#sss7**3#OO@O@sdwq-%%-7w33<7777w3<3<#oOO##37w*@#%%3777773<-oo@*Hg77w37w3w367w37767767767w37777$O3zssuuuq677uuuw7***@O@@O$ssu7*%*@O@O+#sdqq;%@33qw3<w77777777#oOO@#777*@$#*37777w7q% o@3Hu77u6w37ww73w77776w773777376w3$O7szsuuuw",
"777ww337u3w*@####BC7777u*@####xHw77*@$7673w7w737w337%...O#377w#@@%7763w7773O.@%NB7w3w77373w67763w3777w77w3w7w7*#7ZCHs<7q777777777u6%####%BB76w76*##@#$zHw7w3@%7w6w773w3w7377#.. @@3773##@%w63w73776XX@%Hzw7w77w3763w776677377w77w7337w*@wHCHw3<7777733q3w77%####*BB777w7%####%Hz7w3%@*77<qq37773q7<3#...@#77w*#@@%77w73w<3-.o@3Js3767777w73w777667763w3w77773w*@sFHHu7776767777wq7<$#@@@3Hz3w7w7%#@##-Hg33w%@<q73w77w3w77ww7o...@$3733@@@*w77u3w77%oO@7Cs77773w7777w373w76377ww37w7777%@zFZHq773",
"3ww77777376637*6*www77*#<kxxxxuqw3733*###*<777w777*ooO#+3Nw37733**#%6777w77o.@%Nn377776w76777w3w7376w7w37ww7773@3Ckq773<w773ww77w373*6*3*u0377*$3xglxkww367***###*667w3777%oO@O@7zw737776*#%377w7w7..@*Hz7776ww767w377w3766377w3w3wq33*@wGdw77w33q73q7773676*3*67uu373*#wzzdzzww777w3*%@#377777w33$oO@O@uz77w7*3*&@*377777* o@3Hs77w77u637w37w367377w367w7777q-@uCww7777w36777w777w3*7337ww77w%#sNzzzz0w77<33%###6773w36<7#.O@+@sz3773337%#*037773*.o@3Hu777366776777w377673w7w6w3677u%@sHs77777",
"773777u7w777677777773w*#*CZCHmu7677w3*###*33w7777*-.o%##wHu6753w7*@%77w337wo.#%Nz7776377w3w776777w77367677377w*@*Hd<77q7377w7777777w776w77w73w*@wHVHHnw7w7w37*###*77777777@.O#$$sHw3w7776*@%w77777*oo@*Nz77777773w773w77w77w67777737q3*@7Cu77773<3ww7777w776w777777w7w%@uBHHHB7377777$@@#*67w3633<@.O%%%zBw7w73w7*@*w37777<Xo#3Hs7776766777777u67w3w7777373w3w%@uHs3777777w37636777777777007w7%#sBBHBz37773q3%@##677777733@.@$$%Hzw777377%@*w7777w-.O%wHs777w77773w3773w767w3737763w66%@dNw77777",
"77777777036w7766777w7373*#*w7q77773w77663%@*377w3oo@*BBBs376w3777*@%3<77770#@NN073777w7776377777w367737677w77w*@%w737w33773777777777w77777777w77%@7ww777677777766%#*7767-Xo$3Cxxuw7777777*@%3776w73@@Hx76773766773666673037776w37777<w*@%w77777wq377ww77676w773677777777%#63777w77777<3<*##7767w$.O@3NNxu77w77777*@*w77w333@%mz7w7w7677376w37777w76776w7w77777%@*73777w777w777w3w7q7777777777w77%#77w76773<<37337$#777w0#.O@tNzBww7777w77%@*77w7<<-@*Fsww7773767677wu777w3w7776777w767%@3w377w77",
"7777ww77w77777u377777w7w*@%w7q773w7777773*@*****-.o%*HzBsw77766ww%#%33w7773%$zzw7ww773w673w763w3763w7w77q77777*#%*3q777q3ww777w773ww773w777w7w77%@*77777w7777wu77%@%***3%Xo%7CCCw77773w77*#%367ww73@-ll03w7w77667w77777wu73w77767w7737*$%777w777q<773777w77777w7773w773w%@*ww7777wq7q3337%#****3%XO%wNNN777777w73*#%367333<@%Vd377773w7w77763w7<37677737373w77*#**3773w773063w7777777ww37w3w7777$#73w73w7qq337776$#****3#.@%uBNN7w77w7777*#*37673<-@*Bd77w77w777w77667777737673w673767%#**3w7777",
"777w77ww3666w37ww7777777%@%q3q3<67777w367%#o...O@@%Cz777ww37777777w*#%7777w##3w77w7w6w677w37677w77w36776777w7w7w*@*7777677w366777w377w7777q<q377%@<q<q377w3736777%@X.XX@@@*Hl3w3777w337777w*@%77777%#333<777377w777777766677w77677w3<7*q*@%w777w3377777777w36777w77w3777%#*67w37w7w777w77$@o...@@@7Hdw7777w7w7w7377*@-33<73@$33777w673677673776677w366777777w7<3%#333<q7q7q3w367u37676637w377677##*77w77777676773#@...o@@@7Hu7777777777w77w$@377<3*@-77737777w363w366676737777w777737qq3%@;33<<3",
"w3737737u777777733w77w77*#%q<q7777w363w77*#oo.o%-%*xg77737776w677w7*#%77w73##*77307777w77367w7766777w7w6767%%%-%#@*3w6737776773w7667u3677733<q7<%@*33q7777w7w7w37%$oXXX%*%7zd377w7777w7776u%#%77773@#q7qq377w7w0w3w6w676773w3677773*%*&&#@*7w777<q7776w3677777w33773w7w3%@*77377373777337%$..oo*%%uzd77766373737773%@-3<773@%7376w777w67767w3wu33w77773w77**%*%-#@*qq<37373q77776w77777w6uw7w36u##77773ww67376w63%@oooO3%%uNu7777w73w373w7w%@%w77w*@#73ww7w363w77777u7777w3w673777*%%%%*##<7q<q<",
"3w7w67w7w377w3u77737777s*@%q<q773777777777<%##@BJKV7q3777377776677w*@%w7777#@7w77w7777367w763w3776w37766766.....o@%w377w737377777w7767w777<q3u7u%@*q37w7773777u3777$@@$HHZz6377777773w7ww733@%77337##7w73w7w67773677377w767763w37u*.... o@*76777w777u67776w3363w73w3777u%#*w7w3w67w3777w7w3#@@*FZFs63q<777w36777733%@-73333@$3777666w777w6w7667w66737777<w-.....O+<3q30<777777667767w3776w37767u##3w77w7377w677w775#@@*FCHs77w7777ww777w777@@*w677*#%0773777777777670377w7677777wu% ... O@3wq<3<",
"777366u73w77777767w77w*#%@%003q7w77676w3ww3%%%*udxd773q7w0w7777677w*#*%37*###7777w77w67776737767777677767%$ooOoo@***67767w7w663w767w77363w3q<<*#$#*qq73773w7666w7w7**#*sszs337777ww76773w76%#**3q%%@$737777377767763w777u7777w777$#ooooo@w**6777373w73w67776w7677w7777*###%0777767773w777w7*%%%dszs73w773w776773733*-**7<%%#-w777w77373w776777w3777w663w<##ooooo%<--<3<<730q7766w73w7773777776*###677767w773w7777w*%%%*udzu777777777777377w3%**33%##%w77w77776w3w3w7w77637673w77*#@ooooO-**%33q7",
"7w03w37w7u0w7777u77ww7%.o@*7w<7qw3u7w7u73w3uw7w#@37w03q3w7u67ww6773ww*@*wO.+$7777w730w3u037w7uw7w066w3wwwo.@##@@6Kw@*u7w30777037ww6776u777u7qq#.o@*q7737w3w0w777733w373@#67ww7w7u70w7w37777w7%@*3o.@#3773337w0wu677www6wu70w703u< .#@@@@wK3@*w7ww376w3www367ww77u7777u@ O@3033w3wu673u77733q703@#77wu63ww7w37w3w7w7w0%@*3X.#%3w76u7767w37ww777wwu7ww7w37-.X@@##@dJ*@3w00q3u77wu7w7w7u670w7677uo.+#377w3w3ww7w0w777677u*@%777w3qw3w3w7w3ww7w73%@3-.o@%77qw373773q03u667u6w3u66<67* o$@@@@zH$@<q3<",
"73w7777666w77766667377*o#w77q<77766636677777773##777773qw73w73w7w7777*@$*o.@$6776w7w3766w7777733733w773w3+O7w77wwz*@*w777w767ww777677667w37777%o%q<q77w7w77376777w77673#$677373667377737u777w%@%*o.##7q7w7w773w767w3776767377w66<O@3qw3qsd*@*w7w77777777773w66w7766u67#o%77w77773777q7777q<7303@%67w67773777676777773%@%%X.@$37763w6773w767677776637w3773o@qw3wwdd%@330<777773776677777w777777#o*w366w77677677667w3w77%@%7w7w73q7776w3737w773##%%.o@%373737w777<7763773w7776776u*o#q7wwwds$%3777",
"777777w67w3776w677777w%@3Hs7w377w3w777370w77777#%37773777777777737w77%@@@X.@#6667w777677673w677w77w777776%#BHHHFk3*@*77377w3w737w3w77w373w77qq*@wKd37777377w77w6w337w73@$6w777w366376737037<7%@@@..@#q<7377777777737w377763777673#$HCHJHs3%@*7777373w767w7777777777367*@sFt7w773777737q<w3q377-#%37367w3777776w77w337%@@@.o@$w7377w3w7777776w7376667777w3@-HCFHFd3$#<<3077w77776u77777777w66ww%#zHuw67677677w6777777ww*@%37733<<7777777777w<3#@@@ o@%3q37w7777q36w3w777773736w33-@<CCCHHw7#@<qq3",
"w37676w777777wu6w3w73O@@-lu73w77773777w73777w77##3777ww37w7776w377w77%3**@o3w%*w773w77777777773w7737w3776##BNsusw3%@%w7w77773767773773w7773w*O@@*duq777w777777w677w7773@$737777777w7773ww77663***@+ww%%777w377www6777773w7w77777<@%Cmadpw3%@3w737w7ww777366777w6w37w%+@@3s77377ww3w7q<33q773w7*#%w7w7777663w7637777w7***%O@w7%*37777376763w6w7w777w7767w*@%Hxsssw7$@<3<37703w3w3676w3w763w77%++@7s67776w7w777767w3w33w%#%377<qq3w773w3w77773<---%O@t3%<<73w3w7<37777w3777w7w777w-@-Hkdud77#@377<",
"7777777<733377773w3u*.o@%3777777w37777w376677w7#$ww777776u77w77777w377www%#zH##33<33<qq3<777w37773777777w$$zN0667w%@*7777w7w73773777w73<377w% o#%63w3w77737w77q<737w373@%377777w66777777u77w7ww77%#CV@$773773<<q3w367777w7w777773#%Hl37w3w%@*7ww3q77u77373730w77777q# O@*630w7w7376767777w7w366@$w67w0w7767w7673733q73<q<##Hs@%7777w7777w377www77q33<q7w3#%Cz*7w73$#677w77767776u6773777w0ww@.o#*77w7777w7777776773w7w%@*7673w773w3677w7w3w7wu677#*Jw@%33<3<<<0q7w77w7w7<3<0<33q<@-Hd<7337##*7w7",
"73w7777*o@%%%#%37766%.o@%w777w7w77w37773u677777%#777w67366733773w3u773377#@sC3*#%0<q<37<q37777777w73777@o@#wuw7777*3%$+O*3777w7%o#%#%#%3<730%.o@*u7777737w77777q7w73w73@#377777367773w73666373773##NN**%*0w7q0<q777777w777777w6+O@#uw377773%%#OO73q3777#o@%%#$$7777u$XO@*u7w373767w7667776776u*#%7777377w663737w7q<<7q333#%Cz**#*77377w777733777777q<37OO@#uu3777333%#++73w7w77#o##%$$%77377#.+#*3773w73373w667w777777%@%77u77777777733776776776*@%Hd*%$-<300<3<77777777q0<03<<OO@%dq377w73*%#Oo",
"w3u7w7u%.o#@@@#%u766-.o%%qq7u3w777u3wu7www7w773##6770ww077w0u67w7u777w337%#zCu3#%<<0qwqq77w337w7w37w773o.@$367w33w7w%@..3w777sw%.o#@@@#7w777%.O#*677w37wwww7wwww3wu7773@$3qq3w773u0ww7706u7ww03w7%#NB73@%7<30<w3666www7<www7w76o.@%3777ww037%@..777ww3w@.O@#@@#77777#.O#*77777w3770w0w7ww77377*@%7u77w77777u7w77qw037u3<<#%Bzw*@&37ww7w6ww3w6u7wq377u77X.#%77ww77w77#@.X7w7u03u+.+@@#@#3q377+.+#33777w0w7uw3w6w7w0w3773@%637w0036u6w7ww77w7777ww3#%Cx7*@*3wq<q3<wwwww0u73q30<33.o$%w3q0w0w37#@o.",
"w7773w7%.O@3zzz*###Xo@%xq@%7<ww7777q377777737+X@%7666776w777767673w77<6%#szu77<**@%33q<<777uw7377773w#o@@szw7777777777#@*77w67w#.O@wzzz%%##oO@%M*#*3w7777777777777773Oo@%337773ww7373<7w6773777%#uzuw77**#-<q33w76u3777337770+X+@ggw777w7w7733@@777<u73@.O@sNzz$#%@oO+3N*#3w77737667w77767w07oo@%7777w6676663w7777q7773%%sguu77*%#33777u37776w773q777oo+#zg7w77773763*@#7373w7wO.+$sxxd%#$+o+@7x*#3777377777w7777377*oO#%6w773w7677377367w66767#%gguu73<%#<<q0<3737773770<3<<OoO%xd<w7373777**@@",
"37*7*37%.o#wHHB%##@.o#3Cw@*77777q3<<77777673*oX#%667776w3777w37366377w6%@gHw777w;@%<--33763%77%w73337@.@%zn777737737u<$#**7**36# O%tHHB%@#@.o%uC7@*7<667677w77777777*oo#*37777q33677773w<73777w#@xHw77wq*@%*-3--*333*7*37*%30o.#%zB7637377w3w3##37*3333@.O$zHNB$##@.O$wH*@*7377w7w776777773**Xo#%7777377w3766767777w373##BC777ww&O**3***373367*73-333oX#*Hx77777w77777##33*3736O.@%zHCx#@#O.+#sH*@37737w777777777777%.o$*7777777776767w37377676@#Hl7777u%@*3<;;3777373**37773XX#-Cx7737777w773##",
"XXX.o..o@*Hdw7u76**@%Bxw3#%3777773q3w777776@.@#zz7w76677773w777w67w7733%@dBw7777<#OXXo.o@##@#@oXXX.#7%@wBu77667ww7w7q7$#oo.o.o.o@7Nt30w733*@*xdw%@*76677777673q33w7+.@#Nzw77w377w7767667w7w776w$@xmq7737*@OoXXXX@#@@#@o.XoX%3%#snu777w7w777777#@.Xo..oXO@sNs0w7733-@3Vd7%@37w777777<w777773oX+%Bs37w7w777777676677773w3#@Bz7733w&#O.XXo.@#@@#Oo.XX.-7##Bx7w7w777373w76#@.XX.XXXO@sBuq3w733%@7Bs7$#337w77w7666w76w3wXo@*Bs*7w77w377763w777w77677@%Hl37773%@oX XXo####$O.o.Xo*w@$Ck<w77773773773@@",
"X.XXo..O%7Ma*7w776*%*Cz7%@%3307w7ww733****3O.#%szw367w776w7776w777w7777%@dHu3w7u*$@.XXo @%%%%$XoXX.@*%#sHw777u7733773q%#oXo..X.+%wBs33773**%3Cd73#**3376777w73*****oX#*zz377737737677w673667777$@xC7q77w-#+.XXXX#%%%%@ooXoo@*##zH67376777w6677%#o..oo..@%sBw773w33-%wCu3*#*37733w36633*****o.%*zs773w3w3737373733w7w777##MH37w3w&#OXXooo%%$%%@.ooXX$*$$lBw77737w7777w6#@XXXXXXo@*sBw777733*%uCs3$$3*7777337773**%3%.o#3zs37ww37773736673w303767@#Bz77w7q%#oXoo.o%%%%*O.oo.o%*@%Hx<3777ww7w7w73##",
"#@@#@@@%Cx7766uw7#$Bx73777%@*w7373077%.....@#gH##67777766w3w7637773776w%@dJ7777733-@@@@@sHNHBz@@@@#o.O@sHu3w73w37qq37737##@@#@#*Hd777<77*#%Cx77737%@3w73w73ww#.....@#zx##33w7w77w7776377u777w3w#@xH7777<<q*@@@@@zCBHHs@@@@@o.@@zNw7w77677w776766#@#@@@@7Fs777777*@*xs77337#@37736wu6uO...X.@#Hz@%u7w77737w7w7w7w7776777##xC3777773$@@@@@zNHNHr@@@@@oXO@Hxw777w7w673w7776@@##@@OsBu777777-@7Cd77777@#3w777wwwwO.....@%Hu#%w7773w77w7w777w76w77w3#%BB7303w33$@@@@$zBBNC3@@@@@. @#Cxq77777773777777",
"%##$$##*Ns777w777#%BB37377*$*3**--%%%@ooooo$*sz*%%*773777w3677w3<qq3q<3%@zCu3q3q3w3**&-%sBzzzs%$$$%+X#*szw7w377w7730673w%#%#%%#3zs3377773@%Hz07633*%*3--**%%%@ooooo%*zd%%**377w767777w367777737%#gH3377q773%3%--zzNzzs#%$$%Oo#3sz7737w677w777763%#$$%$$wNw377w773@-Cj37777*#3*&***%%%@ooooo%<ld%%**77w7w767677777w36777$#xn7773733----**zxxxNu$$$$$Oo%*zzw76767377w37366%#%$$$#wxq737733*@3Gd3q7w3%%*****%%%%@.oooo*7xd%%**73737w7w7q7777677w76#%Bx77u7730<*-3%3zxxVx7%%$$$oo**zz6w7w7777w377677",
"7773w6w7w777737ww#@BBw7ww73w#@@@@@....@#@@@sHs777#$77w7777773w7733<q<33%@dCw733<w7sHHBHHu30ww777777%@sHu63776u77777w776777773763w77ww73w7@$Bzw77<377@@@@@@...o@@@@@xHw703@%777w777w363w7w3w7737#@xH777<376sHHFHHw7737307777%@zHw3w7w733w6w66676w77w73673737773773@-Gd3776767#@@@@+...O@#@@#MCw<q*@%7777773w3w3w363w7766$#Cn777w733kJNHHBq3q77777w73$@zC0367373ww3w777w7773777676q3qw777q3O3Gd777776*@@@@#o...O##@##Cxw<3&@*777w7373733w77777376##Cx7777730lCHHFBw33w77<3w73$$NB37737376673w7w377",
"7w3w77w7037777w-%37zs6777677*%%%%%Ooo@**3*3uzw673@#777w3663w7366q<w3<<3%@dHu773767uzzzlsw77737w3w7w%@uCu7w7767777w777w3777ww7357773q077*3*wzs7777777*%%%-@Ooo#*33-wsz77w*@%33w37363w77770337777%@xC7q<q336uzzllzw77w7w7777w%@sHw777677w767w377777w67w3767w73766*-*3xd3777u73%%%*%#ooo#7*3*3sx7333@*77777777w367w7777776$#xB3ww373<sllszz7773777777w$#zH0777w6777736673767ww67663q737773*%3qjd777w366%%%%%#ooo%3***6gs777*@*7ww3777w37737w7w6w73#%NB77w73<3sztlzs37770q3<773$$NN3777677w376773w67",
"777777u7w773770##zB777677w77377373#@@*FHHHHw37773@%373w76u777w77q33<q33%@dHw77773w77333377773w77677*@wHu73w667w3733w73w777777w77777<037#@HB7773w77w33<337*#@@7KFHCKw77777@#37777w77776w3w7w77w7%@xH733q<w777333377777377w77%@sCu3w77673777773w3w77773w77767ww36@%Cxq3<3q3w7w77377*@@@uZZHHCw77<q*@%7www7w777773w76w3w33##BBw777777w3733w777ww30w773$@zH07773w7677w777w7777337w7w77w777*@-Ck33777777777637%@##wHHCHH6w777*@*777773w7777w7370367*@%Bz7777w3<w3333w77w33733730##NN33w763w77w3767777",
"7663777777ww777##lH377w773733w3777*%%3zdsudq37767*%%*37w7w37777w<777<*%*7dd377q37w373w3w77777773777%@3sw7w3777w7767w36<777777377<q33733#$zzw77w77773377ww**%%7gduddq7w733%%%333336<777w733777***7ss3777337763w77w7777w33773%$7dw77w7767777w66777736377w33737773#%Cx777q3777777w77<%%%wdddssw73<q-%%%*3773w367777373733**wss7337373<qw367w7w733<q677$#ss77w377w6w6373w776367w737377w3773@*Cdw37w367w773737**%-3ssgsuq377w3%%%666377777777<<*3***37gd7733q<0<<7777w77773<7377$#ss766777673w7w77367",
"777w763w77377w7%#zH33w367w7w77w73w7w37773w7qw7w377%@$w737377ww770w773-@uHu3qq3q<73777777w7w7<37ww7w%@*777367w637w363w376w3w67ww73q<q77<$%NH37337777w77733w7w7w77337q*w7w73*@%37<w77677677ww77%@sHu7w7730w7w377733777777w777%@3773w367w77w7773w677w7w7777w737773#%CC777q<77w377337q<33qw777377q<30w*@*0w767773w7777737#@zHw77w77q7q<3777737377q73w76$@67677w777777w7w3677w7777q7qw777773@*Hx777733w367w7w7777w77w777377730w%@*u7w773wq77w3ww3w##BB7777q<<0<3077673777q03qw77$#367773w767w3737w077",
"w37777w3w3w777w#@ww77777w3773037777377w7w77767w77w3#%0777w773777+OO#7*@uHw773q3<7w777w3777777w77777%@*777w773uw3777u7w77367777373<w7w73@%ww77w73w337777777w777037777377777*@*777366w777%O++%7%#sH0777377773w7w7w77w33777w37%@*777763w6777w6767737777w6w3673w773@%wq33q3<7u73777w3w7737w7w377q<q377*@*6777677777%O@O%w##zC7q7373<q<q3w37777w37777777%#*w77636776w777763w377u377373w77773@-pq373777777w377w7773777777qw7w377*@*66777w3773#O@O*7#@nB773q0q3<3<qw3w777q37777773##3w37777w3w76776w77w",
"773w73w77737w77-@3773w7777777w7773ww7777777777376w%#%w7730w7777*...+7*@wHu3q<<3q3w7763w7773w3w7<3w7%@*u7777766776<6673w67773w3w7q737773#@3373w7w77w773w77737w7w77777w773w7*@%3w7w77776w%...+u%@sBw3w7w777777733w73w7w773w7w%#3w7677w766660w73w7w7777377677677w6#$33q<<3q3w7w3w777777q737777733q<37%@*763w3w777u#...#w%@NC733q7q<33q<77663w7777u7777$@3w673w7766w3w677w77777w77w7773w333@%773ww773w77777777w7w7773w3q37777<%@*73w777677w@...%w%#zNq7q<3<3qq<377373w73w73q7<6##377663w773767763773",
"w77677w677776ww#@333<7q3<77q7777w3767377w7677777603@%337773653OOO@@+o@@uHu77w3667w77737777777w7ww*#**3677w7w3w377773776777w3w3736367376##77773773776777w3w3677u67777w7w377*@**77ww37w*OO+@@Oo@#dFw7w37w366777w3w377w37677*#%3377777w3776777w37677w3w3ww37367w36##77w<q33<q7777w367777w36777w67777w*@%76777777*OO@@OOo@#xC777ww377w376767777w7w0w3*#**777w373776777w3767377377w3737w776*##77w3777w7w377w7w36777w3777w766677*@*7777w77w*oO@@OOO@#NNq377w3377w36677w676w7777*$*3377w377w7w377777w67",
"36773ww6w763777%#3q<q7<3q37366w377767w3ww76677667w*#%7373w333*o.###O.o@uCu77777730777w3w77w363773*@%w77773736777776w773w6777777w7w670w6##677ww77w7w3767677777376776737767w*@%7337773w*.o#@#O.+#aCw777776773w7367776367w7w%@33373w373w7w33w7367w77777u3777w6777*##7773q<q307u777777w363w7767377w373%#*67773733* o@##O @#xCuw737777367w77<w36377376%#*w777777w773w6777767w3ww777w7w73777*#%767w77737776737763w67773w6w76w7w3*@*67777777%.O###o.@-xzq77677w3w77773w7777w7667$#*77777767377677w37377",
"63w377w77w6ww7663@@<37qq3w777u777773w767w3w777736w76*#3773@ooo@#znBw@*ndww7ww3777w337767w377767*#%*63767767w3w776730w7w776w37776w7777776*#%777w3673w7w3777677w73w7w7w376777**@*777Oooo@%CxM7@7xau676737377777w777w3w76w*@*66<77w777w673w7w3w763777676<763w77w366*#%73<q7<q3377w3363w7777677w363w7776%#3373oooo@*HxN3@uVu7w773w777w763w363w77777%#**7737w3773737376w3w3w767u63w37w3w7w7w6*@*7w377w7w3677377w776w3777777777w*3%@*3w3oooO@3Bzg%@dNw0w777u77667377777766067%#**w3777w7w77376373w7367",
"7w77673777776777<%#<3<3<w77773w6w37w37677737w6ww7777*@$73*O...#%nnHs@7Cu37777766777w663w77w7w373@%77w777w377u3w766uw373777763w77373w3w773##373w77767w377w3w773ww37363w77777u*@*73*o..o@*nCCq@uZu66737w7ww63w777<7777767*@%w37777w7737767777773w73w736677773w77773@%3q<33q3q<7777w77776w37763w777w3w3%@373*o..o#3ClC3@dCu777773w7767377w3w77673w%@*77ww77w77w7w7ww7767737776677777737373u3@*3777307773w7w6737777630w777w67777%@37**.. O#3CBH*@xB737777773777ww63w766ww67%@*w7w77337377w77w777w077",
"7677w3w376637667<33#%37<377w3777w7w77367w366766776w0%$%7#.O@@@xBw003@%ww777777w3737773773*w33533@%w37736w776677767777677w3w3666767767777373@*7777w36766736776767637367667773%@*7OXO@@@xB7w7*@%7q7w3w77763777w366363777w*@%6w3w3w36777w3777766w377w3w73767667777737<@%37ww7w7737736773w677w33*767w773%@33O.@@@%Nz37w%#-77673ww6777w3w33763777676*@*673733w337773w37w3677666777677w366777733*@*7w3366776777376w7w367*76373w336%@*3oX+@@*Nd7w0%#7w77q37777w776337677w3w6w7#@37333w36373w77677777773",
"77677677777w7w3w3*%##q7377733w6337377w67777777777777*#%*@.#*%%xx773*@*7777773w777w667w3ww777<63*@%w777w73776667777w373w37777777367763w733**##76w7677w7777763w77<7w7w777773w0%#%*OX#---xx777%@%777777w3w7773w766u3737777*@%776777w77373w7w67377w776777w77776667733*%@%37737377w3ww77677777377w777377w%@%%oo#%%3lz773%@-777<673777767776777763w77%@*7777777737w777777667766776w37677777777**%#3773773w77677w77377677ww7w7w77w7##**oo%%%3xd773%@30w73q<7773676w773w7367677%@*u777777w7w367777w373q3",
"w7w77367w37777673X.@$3337w3w737w6776w7773763w366w677*#O.O@dKZZu77w7*@%777377737377w3w76773733773@%7777777776w3763673677ww776673w7373777w*XX@#377773336666w3w3w36767737677w77*#o.@@zHCx77w73-@%7737773667w77777w3773777w*@*0w776736737677377w77367766w367w763737w*.o@%3776776677737677w36766637737w673#o.O#NHNz7777w%@%q77ww33377777376766w3w3w3%@*363w33w37737w77373737333663w7w3773773u%.O@%7777367w7w7w3677376676376777w33$#XX@$CHJxw7w77##*77qq33737w777776667w7777w%@*773373767763w3373qw07w",
"37367w67w73w776*%o.@%<q777777w776776373ww77w776w37w3%+Oo@*dxxx77777*@%737ww37w7w6u7737677w77776%@$77w3w33w773w77w770w773366777377w7ww36*%.X@%w6w3w777777777777w3777307677w77%Ooo#*llxzw777<-@377w3w677773667673ww7w7776*@*3776776776w3763w73w6777776u63w377w7w6%#.o#%377773w763ww77763w7w377677w7330#Ooo%3zlll3w770%@-q7737773w773ww77637777777*@*w7777777773w777w7w7w7w77u767730w7w773%@.o@%3777w773736763w7w773w7w7767777w#+oo%<xxnd37777%#*773<<qw0773w3w77777773w67$@67777w777677w77q7777373",
"3w777777377776wo. o@#3773ww7777773773677u77777w7777<#.o#uKu<333<77u%@%63w777w777677w7w3w37677773@%w7w773677w3w3777w3777w3w67676w7w77777o .X@$70777777w36737377w7w7w37w676w6w# o#sHw67373w77*@33337777w363w3w3q3q336<w3w*#%776776777777<377w373777w3ww6777w777q3...o@*777w0677w7736777w37777773777w37@ O#lH3376777w7%@*777w776w37776w377w77777<7%@&73<q33<77777777663667677w373777777w0*.. O@-ww7673w3ww77677w7w37w3u7667<qq3O +%xC77777w3w0%@*w7767766w777w3667777w7w37%@*w77777w7w3777w377w777w",
"777773w7u7766%#+OOO33377<7377w777w3ww776663w67677776%.O@uHw373<37773%***377637736773767767w73w73@%37377w677677w7773ww777777777777777w%@OOo@333w373w373w77w7w77w737767667776w#.+#sFw77w7w7733%%**w7w373w7777777<<7w67773*@%w7w7w3ww7777736u777w677677766w77773$@Ooo@w3777737w776ww77673w7w3w37w77777u@ @@lHq33w77777*%%*6636377w76377w773w3w3q3q%@&333q<qq3777777777w7w7ww7737w77u7773##oOO@7*77777676737776737767777763w33<3O @#Cx777777773%%**373w37u373w77773w6737u77%@377ww7737767<7777737q77",
"7w377wu76w36wO.+@@#HN3w7q3<7w077w76737677777777677<u%.O@wKd33q7737w77*@*67w3777w7ww3777776377763@%3777777w363w37w3773w377w367w77w777wo.@@@%Hz73w7w77777777777w3773767w76777u#.O#sK037777s7w73%@*036777777w777q7uw777777*@%w77777377uw7336w37w7777w777777q77w7X @@@*Fl3w7766w776737677677367w77w3777u@ @@xCq<7773w77uw$@37w3w77367w77376w377w37<%@*w33<q<7uwwwq3ww377767737www777w377*.o#@@7Kg3777w37777ww7w773767w7777w7<q<wO.@#CCw737q77777w#@*677w7w7766737777677367w#@3w777777w7w3qw777w37777",
"73w77377777*#+O%uwwsd337773w73733767w777w63w77733w%#@.O@7dw<<<3qw7377*@*3w773w3w7w7773w773w7755*@#-377777$#%*%*77777777763w77677w77#@OO7w7utd7333w7776w3777w770w7w77777677*+O.+#7z0w777767377%@*w77776w373777330373w73w*@%%*77w77@@%%%-36777373w7777w767777#@O@qwsusw3777u77663ww777w3767773w77777%@O.+@ug77777w77777$@77777w67773w66777777777u%@#%3q<33*O#-%%*3773w77777737373w777#@o@7wwudw77773w7767337367w7777w7773773-@o.@#ud77q<33w3w77#%3w7777377777w663w3w7w76w%@%**3w77*+#%%%3773q77777",
"ww7777s3w77@.+#zFFB733777u77ww7377377w37w7777w7uuu*...o@*777qq3<77w76%@*6777w3776777776767677773#@@*37373X.@@@$7337766u77u6777u7wwuO.@#xCZB73w777w777*76w7w37777w3w77uu6wu%...O@*7777777w7777%@*777376777w3777706777w37*@#@%u7773o.@@@%333776677u7u77u77w03o @%CHHx3777w7u7w77w3777677677w3677777w#...@@*7777w77737w*%@*767733777w3767737667w3u%@@@*7w3q*.o@@@%ww366777uu6s7u667q77o.@%HHKx<77u7w3w0777677w7w776q37w3q73w0@...@@33w77w7w36777$#736777w333w77777777737<3%@@@-337w*.o@@@%w773333ww",
"++++OO@OOO@o.O#7uus7<33+++++@*%%3ww763w766666#++oO++@O%sw7q73<3q773773*%#33w7777w76667673w6uw776****%@O@@O@ussw%%%%%%%+O++++++O+OOOo.@@wduu77w%OOO@O#%%%377777w776777OO++O+OOo*sw7w73w7u3w7773*%%37w76w677w7777qw*737763**%%%@+@OO@sds3%%%%%%%+++OOO+++++O+oX@@wsuuq7u#OO++O%$#*76w3777777w73@@++++++O3lq77777737w7333*%%6w67w7676677wwwu777777****%%@O@+O#ssw*%%%#%%#++oO++++++OO+.o@%uduw377#OOO+@%%$*w73336777<7q*++O++++O@3d77777373777w63*#*6w7777w7776w33w777ww3<3*3%%#@@O+O%sts*%%%%%%#OO",
".......... ..O#*7u7w7w*.....O@@#667777w37u7u7o....X###wHs37qw0q03u7u77w%@-7w773wu7wuw7wuw7w73ww7777*@o...@%BHHz@##@##+X. ............@#*777u7u#... .@@@#63w07w7w7uww7X....o##@sFd737w37w7ww77q7%@*76w376w7w73u7qw77wu77w7ww%@o..o@-CHFt@@@#@@#...............@@3777qu7O.....@@@$7uw7wwww7u36*.....o$#@zFu7ww7w3w3w7www7##67w77w3u67w7777u7w3q3777ww%@...o@*HFK3@#@@@#+...............@#7777qwwO.....@@+%w77w73w0u<<u*.....o#@#xFwu77703wu67w6w6##737w37uw377u367u7www77w7w7#@...X@7HHH*@@@@@@@ .",
"++@+O@O@@@@@@3z*#+oo+oo@++++7xgs%#%#%#%+oooOo@O+++%sxds7u7777q3<w773w773%%$$#%%66767373737377776733@oO@O@wzwuu7%****6*#++#+++@+@O@@+@dd%#OoOooo@@O@@uzzs#%#%@%%Oooooo+++++%zzzsu33w777w777777w3*3%$$$%*77767q77<77w3667777w#XO@O@ddwsw73******#@+++#++@++++#@as%#oOoooO@@@@@sszt##%##%%+oooooO@@@+%zszrw7777w77777737773*#$$%#%w7777w76673w773q7777@.@@O@gduwu733*3**%#+O#@++@++@@O@#du%#oOoOoO@+++@szz7#%$#%#%Oooooo@+@O@3xzzdw77777w7766777773*$#%$#*7776760w77777773w777Oo@O@$zsuwu3**3*3**O@",
"#########$#$@dK*@. .. o%$#$@sHFH%@#@@$$O.....@####*BCFd37w7777q37w066667w%#@##$33q3377737773w7<3733@ O%@#zB77w7777777w%###########$#%xH%@.....O%+%$$xGGx#@#####O... .@##%@3FHHu677q37w37w3777w377%####%33<73<3<q3q7<77777*7O.@##%zB77w377u6777$###$#####$%##%xx-@.X..XO$###%xCFx#@#@##$o.....###$@3HBHw677w7w777w7776777w$####%33373w777777w3<377*7oo@##%Bzw667w6737w*$#######@#%@%@%xx#O.....@@###%BHCs@@%%@##o.. .o@%@##wHHNu7w77777w7660w673w3$##@#*77w73777w7777w373636o.###*Hz63w3w3w3w66##",
"*636*3*6BBxVxaw77@@@@@%NzBNzswww@%xlNzN7@@@@@sBBxns$*uw77773w37777ww666w363**3*#$$#%*q737w76777*oooO@3NVguu7773ww766w73*36*33**wNzzNxw33*@@@@@-zVlxxwwqq@%xBNxV*@@@@@znBNBw#%776w3q77377w77377w766***3*#####-q3q<773q3q$oooO@sNBxww777773w6677*3*3*3633wxxdCxw73*@@@@O7mnBBzw7w7@3CxxVx*+@@@#zxlzBw$*s776737377737773w6733*333&#$$$@*7777773<3u#Xoo@@sBBzuu76w7777w737*3363**3*sBBxxxuw7%@@@@@uxBNxz7uu*@3xxlNx#@@@@%xxmzN7%3w7<3766663767w777676**333%@##$#3773777ww77@.ooO#xxCz3w76777677776*6",
"7w76777uCNBNCu777%@%$%-NBBBCu77w#%zHBBHw##$##sBBBHz##*77703w737777w6777777677w3#@$#@%333333*3*3%...@%dBNNuw77w373w3w6767673w677sHCBBHw773#$$%@3HVCxCu7q<#*BzHCC7@%#%%zCNNNs@%3363q3<7w7737ww763603w77w3###@#*33377*3**3#.X.@$sNBC7773w7w773w73736677733sHNNCHq77*@$$#%wCnBBnw7w*@*BVVCH*####%NBHNH7@*37777w377w373w37776376w77&@##@@*33333*3*<7@...@#xnBx7677w677w37777w373w77wzHNHCx737*@@%%@dHBBCn777*@3BxCCV*@%@#*CVCNC3@%37377w377w377377w3677777w*@####373373*73*3@...#%BHHz337776777677777",
"777ww7777u70w7q77##NmVx37u7777777*#%7w77333w7ww77777*@*<7w777w7773037777w77777363337%@@@@#o.X.Xo@@@3Vdw7w637w377777w7777776777ww7w777w777@%BzHsw00wq77777*#%w3773337773w3w77%@37<<3q73w7773773w7w73777663w77%@@#@@o..o.o@@@wHs0w77w777733w777w7w7w77w33uw77377773@*HVVd76u7u77773*#%77q766673w7w7w76%@%33w773w737w773w775<77736*33w3%@#@@@.Xo..o#@@dBs6uw777637w77777w77w77777667737w77w*@3BNNdw777w777q3*@&q37733373q7ww33w##333w773w7777w773w77w7777763336#@@@#@.....O@@@zxw3w73w7767776777773",
"77w77677377w77q**@%xxmdq37733w7677@#37773777w373777w-#%*7377w7w3777w777677667777<q<**%%%%%ooXoXo%%%wxd7777w777776673777w3777w73w3ww777w*%@%BBNs73w77777773@$7ww73<3<77w7777w*#3*7777w377u7766w37u76767663ww3*%%%**XX.o.O*%%wBw37776777777777w7w7w3777777w33qq<3*%@*mVxdq7w367677<*@$7w777w377776077w%#3377w3777ww367676<767773777733%%%%*$o.ooo@%%%dNw3<777w776w77w77677677777767377777*%@3NzNs3w77377w7<*@&0w6w3<3037776777*$**67w3w36676777777777337w3333-**%%%@o.XXX#*%%xxw7777w33776777w777w",
"66377w77w777777o.@@703<30w7ww776w3#$w7w3<777777w7w773w*@*w76373w3w77w7733w3w7776q3*@wJVHHH%@@#@*CHHd37776w76w3w376uww663w7w337777737777oX@#777u77777q77763@%77w7<333773777w3w7$@*uw7773w667377w77767777373%@wHCCCM#####<HHHs6777w3w7w377777636373w77777w3w77<33.X@%3w33<77w373w3q*@&77776367w7737737ww$@33777377763w673w73w3w70w7w%@sHCHHx#@##@wFHHuw76677777377w6377w3w77w3777uqw7777*.o#*7ww37077w77w76&@&3777<0q<77773w6777#@776u77777w6w3ww36w767777<3%@zHNNHz@###@sHHHw37w77777w7w3w36373w3",
"77w377w3373w77qO.@$3q<7377773u7ww7@$7777w7w376w77w3373*%**66w7773776367w77w773633<<@3sdxzz%$$$#*dkxsw7w377763w7w77773w7737777w77q3777<7oX@$w77w37w37q7w373##w637<37qq3733w3767*#**<77737767w7736w33w7w7w77*$7szlxs&$%$%*sgzuw37737363w7w66w767w37737777w7737<<*Xo@%3<3q<7763777w3*@%q37w7w76367w777777%%*%677w7777w77373677w773777%%wszzxd%%#%#7dzlw37673w7w7w7737w377776<3w7w3737w3773..#*33777377777777*@*u677q33qq<q3777777*%**66w377w77677737676w3763<*-wpxzzs%#%%$6szkw77773w77673w3w773w3w",
"3w7763w7w7777wwo.@$<33q7677766767*@$73w307777637777w7w77#@*u3777w773w77377367w7w<qq3%@3w37777773@$33377777767w77773w7776w7777377773w733o.@#7777773q<33q77*@%u7w7qq73<3qq7777777w$@*7w337w773w67777677373777w%@333q7<733*@%77776777w777736u37677777w3w777777q7w3Xo@%3q0<<3w70w773<*@%3w737773w763ww777736$#377w7767377w7ww73w77777377%@673373777%@*77w777677373w77777663w63w773w73q73w7*.o@%w7773773w773w7%@*76w7q<<q33q<3w773w76##77776733w7777w7w7w3w77<37w@@333776667%@*777777773w77677776w777",
"73677777777*@##Oo@$777w7w7w3677ww7@%<777u76777w373733qq7%@*u777w7777777w636377777wq3*@&<7777w3<*@%777q33<<q37u7777w0w37366777773777%###OO@#3777377777w6w0*#%w3u7377w3w3777w7w37w%@377777377w3777777w377w737w%@%w777777w-@%7777w3777ww3736w377w37777w777777w%$$@OO@%377w7737w377wq*@%q3737777777w37777377$@33<37777777w77377w37677673$#*63w3ww73%@*3<77777w3w37w3w7767777w7u6777777q%%@@OO@%77w3ww7w37777w*@%77773q37767373677w37##77w7w377777777673w777777q3$#<<w373w37%#%7377w77737767777w7w377",
"7w6773u7u77#  .@#@@7773737777w77w7##337777773w777w7w<<33%@*w773w77u7w7777w7w7w7w<q73&@-q3q777733@%q77<<qq3q<3w776773777w773w77wwwwuo ..@@@#<777ww377777736@#7777q773777777377677%#*7w7777u77773wu777w776ww77%#*w3w3q773-@%u77777w363777w77777777w3w3w77u777o   @@@%<7w377w7ww7773*@%<37q773w63773w73w077#@<37wq7www77777w77367w7777w$#3w7777377%@%q377777777w77336773w7737w7777wu73.  o@@@%w777737777777w%@*ww77777u767w7w6u6367$#7703w7<3w7777777777u7777<3$@33777wu67%@3w3777777w7w37677377777",
"7776@@@@@#*@O@O7uwp7777376w37w77#@@#73w3w3667366w377q37q%@*7%%*%%%%%77777777w377qw3q*@-<3<q7w7w7%%%*<3333q3<77w766w3w3777773O@@@@#%@OOO7wuu33uq<3w7w7766@@#$77ww377w7777777ww776%@37*%%%**%*w777373w3w373777%@*77<q7777*%%%-7w733w77w3776w7737w7773*O@@@@$*+OOOuuww377776u67777*@@@%<q3qw7777w7777ww307w%@3*%%%%%%%*w377376w7637w6w7$#3w7w377773%%%<737w77773w3w63w33777770%O@@@@%*OOO@wuw3377<3737677u*@@@*373w3w77w3w773677w77#$73%%%%%%%-ww737w377w3777qq##3<77w7676%*%%3w37777773w7w773ww777",
"w3w6. .. o@@@@@xHHBq3w7w77767w76..@%7w7777767w777777773w#@*7#@@@@@@%7ww777777777<777%@*3q7333737w*@%<<q37<3q3w37767u777376w*.....o@##@$BCCV3<q3377737773.X@%u7777777w3w73w77366u%@*7#@@@@++%w73ww77777677777%@*7q33777w7w%@-w77w777677736w3ww777w77*.....O@@@@%HJJx37q776w6w777*.o@%3q<<373w63w777377w73#@33@@@@+@@%w737677773w77777$@*773w7777uq%@*qq733w7777777w77w77376u# ....+@@@@-HHCx373qq7w77666#.o@%w777777777377w7773w7$#w*+@@#@@@3777w73w730w7w337$#337737<77w7#@37777w3w367733q773777",
"36@O++@OO%dddddauws77737w3677w76oX@%w7w377w7733w77w337w7**%%wdddsddw#$%$%*w3<3q77377**%%*77w773<77**$%%%$<77w377773w377w76+O++@OO*ddzududaa3<q<q7w37677*.X@%w77773773w3677777377**%%ussddss7%%#%%*73w37773773*%%6673737777*%%#-#%6w3777w6777w3773*OOO@OOO3dddddupwuw37776<7w377*.o@%77<3777w367776737767**%3dssssssw%$%%%6766w3737w7**%%677777w77**%%%$$%7<7<3777677w37ww*o+++@OOqddddsupaw77737w3w3776%.o@*7777w3w67777776w3777*%%*ssssssd*%$%$%6777773w777--#%7773w37373*%%%#%*w77737737737777",
"77X.@##@@3KHGJZu777w3ww73w6su3w7o.@#373w6u3u7w77773ww737w7%@xFKZBHKd@@@@@*w70qw7q0w37w%@*777q3qq77<*@@@@#33<773<w70w7u7776X.##@##wFZCHCq7<3q733030w7w767XX@%0www70w767777w7wq0w73<#@BHHCHHF7+@#+#*7w3w77w0w70w#@*u7www3w3ww%+@@#@6773w3ww777ww767*.o####@sZHCKCq7777w7wq77773w7*.o#%w70q7u63773076u0ww7w77##ZCCHFHH6@@@@#3w7773w0ww777##67ww3w03777%@@@@#377q0q73w3ww7737%.o###@#kHHZHH7<33qqqq776776uu%.o#3w73w7777u73wwwww6u30w*@%CZFFFZH*@@@##6w7u77w33w3<3@#767www7ww67#@#@@%w777w3w0w7ww777",
"O++@sszsdwuuuuu7w77773777w3767OoO@zs7377673w7w77777w777777%@wuuuwsuu**33*%%3<37<3q7q77**%#3037q377q3**<*3$%$%%%337776777+O+#zszssuuuuuuq777777qq777736OO+#zt37w77w367367<q3q37w33<##wuusssu7*****%%677677737776*%%77w777w377--7**%$$%$*777w67663+O+#ssdssuuuuuu777qw3w337376u6oO@%du3q33677w7w3w777w<67w77##uuwsuuu6*****$%7767777w777**#%7ww3777w733*-*-%%$%$*777733773+O+*zsgssuuuuuu7q<77777377776*o++*gw3773737w67767777676w73#%susuuuu3%****%%637q7777w<33-%%7777777773*3**%##%%#*w777w3w73",
"..#$BBHHHz37777q777w7w7777776<oX@%BB7w7777677366u773w777w7%@*77767777w776%@*q3q<u37q777u%@7q3q<3q33<333w3$@##@%366776676oX#*BHHHHs77777777q3w33<76w3w3X.@*Fz773773w770w73q<<3q7773%@77777777uww76##67767u73w7777#@77373w777773307####@#37766667*XX#3HHHHCu377777q777777q7wu77*.o@*Kx77<q77777767777776u677##776777773w776##773w77777w766##66777w777w777q-####@%37763767*.o#6HHCHNu7777<733q7777ww3w37*.o#7Fs777w7w7w677w6677<7777<@%7777777w77w63@$7q733w77773<3@%ww7773w75677w7*#@###*33<7*7333",
"@#zxuwawu33q77qqq7777377<33<37O.@%Cx77w377777w37q77777w7w3%@*65767w777w36#@*77ww3737qq3u$@3w777q3qq<w7777333333###%#####@@llwwwuu33q3ww7737w7777<03<33.o@%Hx77777w77w7667777w337w7##*777w77w37673$$*33<7qq3<<q37##7777w7q3<<q37w737*33-#$@@#####@#zz7uww3q<<q7777377w7773<<<3<.X@*Hz3w777777w777w377w36<73##3337777736676##663773<qq3737##777w3<q37777w3<33333%@%@######@%Bswwwwu7w77377<3w7777<<<3<0% o@3Hd77773w733ww7q773777773@$777w77w767773@$w77w7777337w3@%3q<33q<<3qq3777733*7%@##@@#$$$",
"##zN777w7q<<777733w7qw773<3<3*O.@%Ml7777777773q73777773766##337777033w777*#637773wq73<77%#-<773q<<33377777773w-##@@##@###%Nl77777q<<77777w77q77<00<3<-oo$*Bx77q3737767773q7777w73*##63w7w77377w7<%$<373q3<3q3q<u$#3*77w73wq3q<737w7373-#@$$###@##%Cz777w733333q77w7337w7<0003%Xo%*Bg7777w3w733w7773w3w67**#$7777w3w7w7777##33<77q<3<7733#$*33wq3q<3q77773q7777-##$@#@####*Hd777777377w77qq33q77700<3<%XO%7Cs7777777w773733w07773**@%77777703773w*#%737373w777733@$33q<<q3q3<7777773w77*@##%#@$##",
"77w0777777q3w377773<3q77q<qqOo@@zNww<37w7w73w77373w3777w@.+#37w377776673w7*%@3777373777733%@3777q3<q7q77w37w77733337337377w07w7777q3w37777777wwq<<3<OX@@Vxw377www7w73w7w3<w7w7w7+.@#303w377w7637<<3#$37<7777373w77#$73373777377w7w7w77w37q33337337u7w737w3<q<q77w37w7777q03<oX@$Ng03773703777q37w7776677OX@$73777737376773*#%3w3q3777w3w33#%777733<<73w37773qq3<33337377*7ww77w3w3w377w33q7w77qq<33<XX@%Cs3<7w7wu6037777<q7w77<3oo#$w7w36777w777w7*#%7w77373w7673-@%73<37<q<q377w7w77737*7733*33",
"777777770q73w7q777<<3-**<333@X#%xx777<----%-377w7w776w77+.+#*77766u6777w777#@3w37w7w7777**@@*377773q<33377777777777777777777777777<3w7373w777**%<0<0OX$-xx3<3<%-%**6w773q7333737O.+#7777w37773w7033#@qq3773qw777**@@*3770w777777737777773q7773777773w7w7q73q<37777733***733<oo%*Bdw77*%-***773w736677u3wo.@#7ww3w3w7w777w33##w77<3q<7777*%@@*377<qq37w77777<3<3q3373w777777w7777u7773w777377**%*300;oo%3ms3<33*%**37773w73773w33o.@$077766u3366777*@%7377w7w3776-$@$3<3<q3q3<3q33737ww77777<7w77",
"77ww3773w777q7wqw3w3*...@3<3%@zCs7777%.....%u73ww377w37u@.O#377777ww7766777#$3337u77w7wwO.X.@#7777w373www3w77q7777w077wwwww777www<37303w7377%...@3<3%#xVwq7q3#.....%w777377w7777O.O#377777666w37<3<#%7q7w3777777o..o@#7377w7w7qw7w37777w7w7777wq77w777770<3773qqw37u#...%777@$CVqqq7w@....X*77777766777wo.@$7377377w3737773@%w7w3q337777o. o@%q77763777w333q777q77q3<3<3w7u7777w7777777w77qw@...;<<3$%Cx3w<7wO.o..X73<77777w77w7XX##077777www7w777*#%u77w77676w%o. o@3773777q3w07w773777<q3q<377",
"***%%%3-**%*****-%%%#ooo@<7<$Owd3***%#ooooo%*3q7777777*%O.@@*7w777777777776#O*3****737*%Oooo#*77777*%%**--*77777w7-%%$**-%**%%**--%*3*****%*#ooo%<q3@@pp*3*%%@ooooo$*77ww77777*%o.@#37737<6677w7q3<+@******37w%%oooo%-73777*%*****-w737777*%%$******%%**--%*--**-%%%@ooo%777@@pw***%%+ooooo*3<77777677%%X.@#7w77777377w377*@@*%-%33<77*%oooO%*73777%%*3%--3;777777%-%%-*****%*****%******%%%@ooo%q3<O@j0***%%Ooo.oo*377777w373%$X.@%w77776373737w7*o#%**%*7w77%%ooo@%*77q77*******37773w3<%%%-3*",
"@@#@.o@@@o.o@@@@@....@##%uwwO O@@@@O.o#@@@@@@<7777w3wu#...O#670366wwwwwwww3oo@@@@@%uuu@ O@@@7q7uwww@ o@@@@@7qqqq7u@...O@@@#@.X@@@o o@@@@@.. X@@@-q03o.@@@@@O o%@##@@#3wu77w7ww@...@#737wwwwu770w0q3o @@@@@-37wO.@@@#73w0w7uO O@@@@#37uu7w7O ..@@@@#@.o@@@o.+@@@@+...o@@#-w77.o@@@@@o O@@@@#@@37ww77u6uo...@#6733ww3w677ww0*.o@@@@@*77wo.@@@%7ww3wwwO.@#@@@%7wuwqqwo...@@#@#O.o@@@X.+@@+#O...O@#@<7w3XX@@@@@o.O#@@@@@@ww77u373qo...@#www7u7w767w30u%.o@@@$@*766..@@@%377u3w3X.@@@@@%7w3w03q....@@",
"%%%%OO*33%o#3377*+oo@3*@####@O*3337*o@3333333-%**73w%#+oOo*773w7667776773%#oO**366*%##Oo*w37%-%%###+o%333333%#@$##OooO*3%%%%o@33w$o%7*3*-OOo@q%##$##Oo<3333*O@376*3*3**%3777%#O+Oo*37w7777w776663%@OO33333-%-@+o**33*%-%##@@o*33333*%#@###@ooO*3*%%#o#337#o%3<33*Ooo#*%#####OO<3337%o%w3337*3-*%*766%$+oOO*33w3w377767673%#o@30733*%%#Oo333*%%%%###Oo%3333-*%@#@#@OoOO**%%%#o$w77@o*3*73%ooo#3%####@o@33<33#o%33w77w3%-**777%#OoOO3777w7773667773@#o#73333*%%$o+*333%*%####ooq<333%%%#####OOOO33",
"7777#*BFGa@wKKJJK%@@-Fz@O...O@xKHCKx@<HHHJCJK%@@@333$ O@#@zHw377w3u777677O @$BHHHFs@O O@sKJC#@@O...o#wFHHCH#@.. . O@@@zH0007@*FHH3@dJHHHB##@*Kw@o.. O#CHHHKd@7KJFHHHC%@@#77u@ O@@@zH0w677767777w7o.@%VJJHFu@X @#xKKB@@@O.. O@dFJCKm@@   ..O@@@xHw7w*@3GCH%$zFLCJz##@3Kw@o   @#CCCGKw@aJJFHHHB#@@%7ww@.O@@#CH77w7777777773..@%FHHHH3@..@@NHHs@@@o ..O#zFFKKx@O.. ..@@@$CVw3u*@wHZH*#BHHCKd##@wK*@o  X@-CCCCF7@sKKHHHHz@@@%77wO.@@#%Fz77w7w77777w7*.o@3KHHCC*@..@%HHFs@@@o...+#HHHCFd@o . . @@@-CF",
"7773**dsl-o@3uddd*--%#%#@OOo&udadddu**dsddddd***3%%@OO%twwss77w77777w73%@OO3wdsssg7*@O%ussdd***%+oo%usddssw#@OOOOO%duwasw737%3zsg%o%7sdsd*%%%-%@@OOO*udddddw*0ddssdss-%*%%#@@O%wuswu0777w777w36#@OO7wdddds7%@O3uddds--%%o@o%usddddw#@OO@OO-wuwddw333*3das#o*wdddu***%###@OOO7wdudddw%qddssddw3***%#+OO*uwuuu7737w3w3w3w#@O@wwsddss3%@O3wsszu%**#OOo3wssdddw#@OOO@O7wuwdw3w7*%wgss@o*3sddw*%%%%##OOOO3wddsss73sdsssszw3%-%*#@OO7wwwss6737363w773#@O@wwddsss3*OO7wsss7%**@oOO3wdssssw@@OOOO@3wwudd",
"77www377w% o@%w<377w- o+@##@uKw33373w37*3<33370q3@@ o@7FFHw3777777w73w0@ @#xH7777737*@wHu373w37*###3Jd33337#@###@#wKCCw377w777777@ O@*w3777w% o@#@##xJ33*737w773<333q00w*#+.o@uKCHu63736u776w77O @#HC733337w%@sFw3737ww-@#@uFu37773@@@@@#@sHFHw3377ww7q73O @@333777w#.O@##@#HC333<37q733*76337ww*#o.O#sHHH77w3w7377w377o.@%Hx3777777%#zH77777wu*@@@zFu*73w*@@#@#@@xJHHq777w77<7wwo.@@3737q7w@.O@#@@%CM333w66377373373773*@o @#zCHH776<73w7w3776..@*Hx7*w777w$$NN733wwww%@##nH7773w-@##@$@#VVBB77",
"w76733OOOOO*dwq77777-O%ddsss3*<377777w77w3q3q3<33XOO%zwsts77773w7307770+ O@kHw777w77*@uHu7773w7<---<s7773%%wsdddsduuuuq37777w*OOO@O3gq7<w77q%O%sudss<*37w73737w737<w7737*oOO*ddwuu73w7w776w6367+.@#HC7777w33%@sHu77777<<3**www373$%ddxddsguuws737777q%OOO@O0dw37777w%O*gddsu*333q73<7777776w7777%oo+*guuww777737w777777o.@#CB7773w77##xHw7777377%33ws77w*#3dgddgddduww77773<u#oO++@udw777w7w#O3dssls**33777w3*777777777w#oO@3suuwww73w7w3777733Xo@%Hz7737777##Hz77773773-<*wu73w-#3sddddddppdw77",
"77w77*.. o@wJd3<3w773@-CCHCC-@-0777777q3q<<q3<q<-.X$*Hg63777w777w3w7773@.@@xBw77w07w-@wFu77777q33ww737777$$NZHHBHHd7<7777w3w7% . O@dKu<7w373*@7CHCCH%@<3777377ww3<7w37q3*.o#7Kd373776777w7w7737+.O#xN077777w%@sFu33<3<q377w377773@%CKKHHHHs7773w7777q#...O$zHw637777%#uZHHCH##3*773q7q3777w7777u%.o#uZu366w377w33767777o.@%Cx777<q33$@zBw777w3w7w703777w3@%CHMHCHKd*33q777w37@...@#CC7773w77*@dCCJCV@$3377777777q<<3777w# O#sHu7637w3<7777u666*Xo@%Gz77w7377#$lH3777q33q7q777777<O*ZHCCCGCw37737",
"7737%#O@@3ztu3qq7777-oO%*wuu<-%$373w3w<33<3q3q3q%XX#%s77067337w7773773wO O#kCw7773773-%%%$3777<37737777w7$$NBswswd7<3777777*%@@@@3xuww77777w%.@%<uwu3-$%3w7w777777773w7w*.o@<ww7777777w6w6377w7O.@#xBw7777377**%$%33<3<377773w3w3@$Cxwuwww77777777w*$$++O7zsw77ww77w#.@%7wwu33#%777<773q77377777# o#*uww7777777767w7777o.@#BB7773q<q3***%#3w773777w7773w<@%Cxqwuww77777777w-#@+@@wxww7777w77@o@-wuww3<$%777773w333qqw373# O@*u73733w773w3w77776X.@%Cz777ww773-%%#%773q<737773qq31@-Hdwuwuu7777q7",
"7w73@@#$#7Hs77<3w377-.o@%37737#@377777qq77q<<3<7*XX@$33w377w7737777w77<@.O#gNu777377<u%@@@*777qq77w3777w7$#zn77777q3<37q773*@@##@3Hu37777w77% o@-<7777@#3777w77777w7777*%.o@%7777777w7676677666+.@%BB7w377777w##@#<37<qq777777w73@%lx777373w77w7q7<*@###@sBs77777777#.o#337w73@#7wq3<3<qw373773<#.o#*77777w7ww37763777*o.#%Hx3773<q<3<##@#7777777w777337<@-Ck<7777w37777777*@#$#@dH0w7q7w333@ O@*73<03@$w777777w773<3<77# O@*77w777733<76673736XX@*Jx73w3777w7@@@%7777w3777777<31@-Ca<37777q7777",
"73oo@*zBxdw777q3q773%oo@-w773w%@3777q33<7703q07oX.o@%w777773w3w73w777$o@@*37w3w77ww3777333$$w33<w773w773777%#77w77<3qq<373oo@*NNxpww7w777773%.O@-37w73##w773w7337703q33oX.o#%377ww77776776767#o+@-33w773ww7776763*#%q33<7ww37737w3-%-777w7773w777*oo@*nMNsw7776w7w<u#.O@*7w77*@%73<3qq<3777w3w-oo.O#%7777737377773w77@o+#*7ww33wq<33q7*333$$3w77777w7w373;-%%q77w773w7777*.O#7xHxuw777777777@o@@<q<3<<@%w3w3w7773q0w33-ooXO#*w7377773w77777wwoo@@3373q77777773337*#%wq73w777<3q0<<-#<q777777w3w3",
"77XX@%zBHd77w77w7777*.o@%w7777%#*33733366*3**3*XXXo$*<777ww3777777w7w# O#*77<q37637373763w##777333773<77773@#77q7773773776.X@*NBCd7777777w6u%.o#*777w7#$333333*37*****%o..O%*777377w7w377ww3u#.O@3777w77w777767377##w77777777777773@$<33<q3<qq3<7*.o@3HVBs7777w777w0#.O#%w7777#%w*6w33333**3-<%...O&%u5*77q3q<<36w377O.O#77ww7w367777w6673#%w773q777<33377*@%ww7w7777w37w-.o@7HNBs77w37w3w37@.O#<q3<w*%%3*3333336**3*3#...@%377w733w737377773o.@$<<<7w377777766737@%7w377377<q<<77*@*777w7w77777",
"w3X.@#7w7777377w3ww7*.o@%7777373@@@@@@@%u#.....+@@%Hx7777777q37u7w773#.+#*s73q777w7w7w7777##73ww7w3wq37w7w7@#7q373w077w777XX@%37w77777w330w6%..@*777w633#@@@#@@*w@.....@@@*Cz77777733w7773776O.O#3777377033w767w77@@w77773w7w7w7q73#$3q<<<q<3<3q3-.o@%w777777767w77w# O@*wq7777*@@@@@@@*wo....X@#@7Zu*uy7<3q33qq77w7uo.@$77w367777w363u776@#777w377330<3ww*@%777777w7777<-.o@*7767777777777u@.O@-q77773-@#@@@@@3wo....o@#@wHd7777w777w7w77q73o.@$q<373773w77u7773-@%73w77w7u330<w7%@*3w737377w77",
"%-oo#%w7ww73w7773%%-%oO%*77q7w73%%%#%#$%*#.ooo.%%%-Nx777w373777w77w77#.+#*3737w77w77w36777%#*37733*%%-;<3*3%%*337w77ww37*%oo$*u7q777u7w76%%*#.+%*w7w7773%%%@%##*7@oo.oo%*%7Cd3<7777w3777u7777@.O#3w7w7737777w3w777%%-3377*%%-*-*<**$--133q337777-%.O$*7777w777w77%**$o@%37777773$$$#%%@%<OXXo.O%*%<nu<557777<q3<7736w+.@#777w777363w777777#%*6w7<<%%<--<-3-@%**7777w7733-#.O%*7wu7w76w333%%*@X@33w77w333#$$%%%%*%oXXX.+*%%wHu7777777w3777w377o.@$3337w7w73733w7ww3$#*7737*%%%;-<*7*#%*376776w777",
".o@#77w7777w77w73o...@*Kx77773ww3366337*@@@####NCCN3777<7w7w777377w7u# o@*u7q7377w67763w3w73@#7wu#...O@@@@@7*@%<7w773777X.@%767337q777333...o@7Fsw77777w3776777%@@@#@@#HVJx777u7w763w77766w3u+.O@377377w773w7737w773@#33w#...O@@@@#7-+$3q3<q77q*.o@%777773w7w7773...o@wFuq7qww77w77633w%+#@@@@%CCCg5<u5u0w3q<3q<73w77o.O#*77373ww76776w3w77%@%76wO ..+@@@@%7*@*7w77377<*.o@*37777737777w%...O@sJu77777777777333@@#@##@*FHCs677776u3w777730uw7o.@#<<q3w777w7w6773777-@%7wuo...@@@@@%7%@*76773w777",
"..@@w3w3u7w776u%#oooO3wsw**73w77337377w*#%%#%%%wddp<q<*$%#37w7777<%@%@o#***377776w7777w777w3%%**%#ooo#3*-%*<3%%****3*%--X.@#777w<q<q03w%#Ooo@7ws3**7737733w7773*#%#%%%%wppwq77*$%%6667w3u3#%%+o%%**7777777w3777u37w3%%**-@ooo%---%%73%%<----****oo@#w7777w77w3*%#XOo@*ws7*77377w7w6w3w7*%@%%%$-dwdu76u##%%3377737*#%%Oo%***77677777777777776#%*%%+ooo%3<*%%7*$**---%***%.X#%377777ww773%#..o#*7d<-77777777q<333%$%$%$%*suuu777%%%%6677777-#%#Oo%***7777777777677q773$%**#+ooO*3-3$-3*%%*********",
"..@#33777737w3uo.@#@%FsO@@*777w73w<w7767<<77737#@@$3qq#...%73677w%...o@uZ*@<773w776w7737777777@O..@@@dKCCq3377*@@@@@@@@@XX@%7777<33qu<7..@@@*Kw@#@*77w77337777w77773773@@@%q7w+.. *77777u#.. o@sH%@7w3w73w773w77777773@O o#@@zCHV37733*@@@@@@#@@..@%0w77733w77*o.#@@3F7O@@3w777377777777773w77*@@@%w6u+...*3<37qu#...+#nH$#7773w77w3w3w76w667*#o.o@@#xCKC7733w%@#@@@@@@@..#%03w7777777*.o###wF*@@@77773w777<3373777w77*+@@%q77o..X66q77uq@.. @#HV#%77w77w3w6w3767<77q%@o.+@@#VCJl373w7%@@@#@@#@@",
"oO@#3773w3777<6o.@@3wsu*%*%%3w77773<7777u3777w3-%@%q-@+oXo%777w3#@Ooo#qag%@377777<7w76w73w7w77%#o#<73sgddq<q3<<%*%%*%%-%+o##7373q7w7777oX@%3wz7%%%%%33w37777w7733w777w7*%@$7%@@ooo36777*#Oooo%7sz%#7377773776377w77w77%#O#3*3tdzdq77373*%--%%*%%OO@%3777w777w7*.o#%6wdw%**%%777w67667w777777qq<%%@%7##+oOX37q33-#+ooX%3ss##6777737773737777773*@o%773dzzdw7737**%*%-*%%%O+@%u337w77377*.o#%6sz3*-%-%w777w3q<7777776u776%#@%w%#OOo+6777*%#+ooO<wdp#%w77773637777wq<q30-*Oo*733dggs77777*%%%%%%*%%",
"#@@@77wwu63w76uo @%HH7737w%@*77777w77ww770w77770q@$w% o#@#3w76u* o@@@7Kd7%@*w7w376u3u73767737w77#*CCFd37<<3q<3q377<7u7w0##@#w07w3703777o.@%Jz377w7%@3w77w7w7w37ww7w737377@%w# O@#+33w37*.o#@@sFs7##73www6ww37wu6377377w*@wHKHd37q7777777<<w77773#@@%w77w3777033..@3Cx7ww73$@7730u776w030ww773730*@%w+.+###37<qq%.X##@zHu7##3w66u00w3w7w7w3ww7w7*@dKJHw377777w777377w77u*@#@%qq3w0w7w7w%..#3Hs737<3@#w3w33qw3qq7q77630w7u3@*wo.O@##7777u# O@#@xKw*@#q7wwww7w77630w<0<q37%#gHHH373777ww77w30w76u7w",
"swww%*3w6677w7w#Owtsu77w77**%*377ww377777w33777w<#@@OO%uws*%%$@Oo@wuwddw3%@37777ww67777w7w37737*@6Hgsw3w0<37737q7q33q<7wuwww%%3<w77377*@@3wdu377w3**%*677663667737w37777-@@@OO<www*%$%@Oo#dqwdaq3##3w37*<33q77777777377*@3Hzuw7763737376<37777w3wuww%%773q33<33O@wusu67777**%%777w37677w<33q3<0q*@#+OO<wwu%%%$O+O%pwwss77##37763q<3<7q37w7<3<33%@sCdd77767777w66777777qq3aw7%%33<3qq<3-O#sssw37777*%%*66777777w3<q3w7777%@@@OO7uww*%%%O@O3wwwdd73@#37777377w3767<q33<37%#sHss7w777w377w377767w67",
"VHFB##77773w373%@NH37777777w#@*77373773w777w77773@O o@3JBH*@@@..@*KHGx373%@377w36777w3637777307*@*Zs*777q3q77w733q<qq377VHKx@%qq377w773#%HC37w777767#@73777w76u77773773w<$O o@wGHH%@@@.X#*CHCd<q<%@7773wqq<<777q777337w*@3Hw37777w7w7w777w73w377CHKd@%w7<7<q3<<$*Hz367733w73##377367w776qq<<<<<3*#o.o#aGHH@@@@ o@wCHFs733##67w773<q373w7377<7<q%@wHs777w77w3637uw3w777<wCCJw@%w3q3<3<q<#*Fg6w7777773@#76w73q77773q<q7773*@o.@@xCHN@#@O.o@dHHHw373@$37w77776367w73q<q3q7%@gBw66377w73777777w36377",
"tw****3777777w6Oo%3w7777w3773*%$777ww7770377wq37*oo@$ddwus3***@@ddusaq7733%%$$%66w763w777733+O++@%sw7w67<<3<7w7737733q37wu****q37737w73Oo--37777w377*3%%67777703777w777u*ooO%padwd3***O#guusuw<77**%%%%737q3w37qw7w3OOOO@3sw77737677w3677w7ww7w3uw***<37q33<<73oO333777w703w3*%%7w763w3737q3q3<q%Xo+*gaudw--*%O%dduusw7w33%%%#333q<377777qq-OOO@@7d77377363w77773777w3q<aw*<-<3w0<<33<*o@3*777777w73**$*37q773w337307w7w$oOO7suuuw***%O%ddssdq773*-%%$*77w3w7637773%OOO@@7s777w3777w77w3363w7776",
"37##77w7w377777o.@@777w3w7776w#@3777373ww7733777*Xo@-Jd3677777#$CB73377733w$@$$7777w777677<<X..X@%w377773qq3ww77w77w<77777@%77<377w7773o.@@37w77776377#@3w3w77w7w377w766%Xo@0Ga3337777@*Zx777777<33#@@#777<3w73w373*X..o@*77777w7767763w7777377733@#q777q<q<3q-Xo@$w77737w777*@#76737767q7<3q<qq%.O#wGu<3<<033@<Kd377773773@@@%3<03377w3737%...o@*77ww77w77776w3w773q73<7*@%77w*q30<q3*.o@%73w3w73733*@%q3377w77w77w777w#.O#dCu777w7w*@7Fs7333777w3@@@*7777773w777q#...O@33w7777w7777777w76777w3",
"w7%@67777677w67o.@#73w3w377w@X@#37w77377777w773Oo.o@%Cs<73w773#%Hz7w3ww735533**#$$$$%$+XooooO@O%zw#3677677777w777773777<33$$77qq7777773oX@%7777w77ww+o@$736737w77673376oo.o$3Hd73w3q73@%Hz*w777w37773*3#%%@$%#Oooooo@@O*z7%*7676w7w377w773<3737777#%3qw7333q33;..@%3377w7773OO@%7w3w77773q373q%oo O@wCu30<0031@-Hx77777ww7<-3*%#%#@$$$oooooo@@O3x*@337w3367777773w37<q003-@$w7773<3333-.o@%w77777w33o+##737377w377w737%oo.O@dHw77777w*@wHs77w7w7777**3%##$##%#oooooO@@@qz-@37w367663w7w377777776",
"37$#67w3w666667OX@$777777730O @#*7377w67ww7773*X..o@-Hl37w7777@%Bx77773735<3773@@@#@+#o.. .X@$$%Fs@%w7w3w6w777w777w0777<w3@$7737w3337*3oX@#7ww736767o @$7w67w73773ww76*...o@3Hd7733<73@*Hz777777w7w333*#@@@@@@o ...o##@3F7@%7w7w37763w37ww7w7w3w<*##7733<<3*<--Xo@%7w777ww73X.@@7677w773777733%.X.O@7Hw30<<<3-@<Cd777w77373q33*#@@@%@@o.X.Xo@%#wJ3@37777w776w3w377773<<<3-@%3777<<<<33%.o@*777w3773*.X#%uw7w7777w73733#...O@dCw777777*@7Hs77373777w730*@#@##@+X.. .O$$@aF3@-7w77777w377777w37777",
"7w#@6776w%XXXXX+@*677w773w77@ @#3776w777w7777OX@@@@@3Cz*7w7733@%Hlw3777777777w7*7w67@X+#@@@@xmmjw*@%777666777w377w377uqqq7$$77377#.oXoX@#*373w77777wO.+#677767w767777oo@@@@@3Cd777<377@%Cx37w7w7w3w73<733777@.O@@@@#xNBdw%@*w3*7737677773u77u7w337#%w37w7+Xo.oo@@337w3733777oo@%7776377w7777-oo@@@@@qCd<033<0<@*Hz77w7<37q3<7<3333<qO.+@@@#%zxxdw%@*73777777367w7777037qu*$%q7q3q+XXXoo@#3337w77w773XX@%667763w37777*Xo@@@@@dHw7w33<7-@wHs77677777777w776363o.+#@@@%mxxa3#@37763w37776w3w3<6ww7u",
"**@%7776*#XXXXX#%*676377773wO.O#3676373w7773qOX$$$$$7Bd7737773@%lz3w773w77377w7663%3@X+$$%%%xMVx3*#%73*3w7766w6777737**%--@$77w<3@X.XXX#%33773w76w7wo.@#373w7733w7w77oX#%$$$3Vw3q77<77@%Cd373777773777773*%3Oo@%#%%*xlHz7%#*663w7w7777777777****--@%q777*OXXo.o$%33w777w773*X.@$63w3w773w3w7<oo$$$%$qCw<<3<3<-@*Bd77*77q<3q7733<*--*OX#%$$$*HNHd7%#*733w63w67763w3w7<*****@%37<3*oXXXXo%%3337w77737*..#%77677w76777q%XO%@%%$sCu77733w3@7Ns333773ww77w777**%3oX#%$$%<CmGw3-@337*w773w77767776****",
".o@@3qw%.+@@@@@xV%@37w77wq<u+.@#*7wwu7wwu6777##BBBHHd777w77wu6##76037w0wu77w037w*...o@wKHVCxwq7q77w*@##*77777u7w03w7O....o@%3qw$.o@@@@@lx$$qq7<w7777o.@#373a3q3a77wu7##NBHHBg7w7u7w7u6@#7u7w77u77ww0w67w#...O@dHVCHn0w7w77w%###733qq377u77w7O....o@%3qw@.O@@@@@Hz@%7q37wwww7o.@$777wu773u7676@%HBHCCu7w7u77773@%w3ww377w77ww77<w#...O@xHBBHzw777737%@##33503wu677u73o....o@%77w@.@+@@+%Vs@%777w7w773.o@$77u77wu76w3w3@*HBHCHu777u667w%@*7<7777www777wwwwO..X@@xHCCZxqq7w677####77777w03ww777....",
"oo@@%%*$.@-%%%%lx%%<377%**%*+.##6677777766773%#szBBBg77ww77766#%*3w777777777w76*%.oo@*uxxxVxq777763*##$*33w777776u3%+Xoooo@@-%-@X@--%%-ls%%*<7-%*%**Oo#%77<q<7<377377#%zzxnxs337777766#%%3777773u377776*@ooo@%dHxxxkw7777w7*###*<737w77777**O.oooo@#%%%@o@*%%%<xs%%3<33%%%*%Oo#%7777737w667u6#*dzNBzu7w777w777#%*37777737777w7-%@ooo#*xxBBxz77777w7%#%$337w73<7777**oooooO@#***Oo$<%-%-Vs#%37w*%%3%%oo$%u37773777773*#*zlzBxq777736773#%333w77377777373*@ooo@-xxxxMd<777667%##%*377w777777*%oooo",
"@@@@X..X@7HHCHCwww3+#u% ....O#*uu6777ww730u77w7##77w0ww3370w7ww7@%67uw7ww377w77.X@#@wKd7w7w3777uw3777w0$@737ww7w7u#.O##@@@@@...o@wHHHHCw3w3@%w#.....O#<qwq33qw7q7u3w7w3@%77qw073www73w73@%0wu7ww67u77u*.o@@@dKd7377q370wu773ww7##7q70qwuu3+.@@@@@@@O...o@sHHHCHq7w*@%q@ ...o@#<7www77w6u7w37777@%w3w77u7770w777*@%773ww3w7ww3u%.o#@@kJu377w7u7wu7u7w776@#7w77uww7wO.@@@@@@@O ..O@jJCGCmq7w%@*wO.....@#7ww03wu7w7777u7u*@%7qw7wu7w03w77u*@*77370wwwu65u#.O@@@zH3wwqq77wq7ww737u6#%7w3777wu7o.@@@@",
"**3-oooO*wzzzNz0q33@@%@Ooooo#%*<3w737777uw766%%@#7773777w7377737@%77677773w77%#o@*%3wxs3773w77773w77773%#3w7777#%#+.#6***3*%ooo@%uzlxxz7333@@%@ooooo@%37777q7<q33q777*##@777777w3777777*#%07763777763##o@33*wxw77777w737767w377$@<3737*##%+o%3----3%ooo#*szzxxd37w*@#%+ooooo$%7737w7776777777%$@%7767777767773w*@*377777w377*%@o#***dxw73w3677037773w77##76<67*##-Oo--%33*3#ooO#*dxxxkj37w%@#%OooooO%*7777766637w766*%##%377w7777777w67*@*3ww7377766*##.$33%zxw37777u7773w7w7w*#%u77333#%#oO**3*",
"ZGCC$@@*Hz766377<33@@.o@@@@@*qq<7w3w3q3q66776o.@$w7777w37w377<33##w7677w77737..@%HHHg3w77373ww3767w7776#@357ww% ..o@sFKHHCHx#@@6Ku337777w3*@O.o@##@@7u<7w7w7<7w7<3q73o.@%37777773ww77ww*#%3773777w77*.o@3BHFs777777w3777w777767#@q<77q$ ..O@gHHHZGGx#@@uHs376367<3<@O.O@@@@@6w7w77w377w3w7763.o#%6677w767w7w377*@%677w37<777% O@7JHHw7777w3777w37736777@$7w777#...@@zHBHCHKp@#@dKu*777777w3@o.O#@@@#37777w377777377w*.X#%7w7777w37777w7*#*w377777777#.o#sHHHw6763w3w777777w7<63@$73737O ..O%CCHC",
"gddp#$0qzs777w767<3*%o@773qq**3<7377777<7773uo.@#77777w773777533@%077763777wwo.@%Hzgw3777w7w77773w3677<*%%*@##@OoO%uussgztgu@%7szu3ww777777*#O#77777*%33376777w7q33<3o.@%777w73w7737777*+%77ww777777*.o@3Hzduw77w73w777733w6776*%%%#@@@Ooo*7ddxdkdgw@%7wzu376w7733<%#o%q7qw7**7777737777777w*.o@%6776w777776w77*@*7777w7337w% O@wHxdw7777367w73w77w776***%%###+oOO*7dszzjdd7@*wszw7377q77w%%@O*77w73%*777367w3w77766%.o#%77w7773w7w3777%@*777777w77u#.O#rHll06737777w7w76737766%**%@@#@OOO77dzxd",
"733<@%Gx6776777673<<<@*JJJCJ-@<77w3w77q377ww6o.@#3373w37w0737733@#363w773<333..@%Hg3777ww377777w7763w3w37#@.. X@@@wFs3773333@*Kx*777w3777w7w3@3HHJZK%@33677677w7q<3<3oo@#337337777777wu*@%7737w3w37w*.o@*Zs377ww73777777777777773@@ ..o@#@sHu373733-@3Kx*77667w3<37w%@wGZKHC#@77777w73737w773.o@%3776737ww3737w*@*367737w330% o@3Kd777777w7737777776777u*@O...o#@@zHw7*733<%@wKw33<q3q3<7737%@gZCJHC##ww7w763777737w%.o#%67w77w377w7w37*@&<7w3737777#.o#wFs7377w7w77w737677677ww*@O . O@@@NC7333",
"3q03OO;37673w7u77qq33wwdaadd*-%%7777777777376oX##7w77777777w7733#$w77776<33@@O@wtsw77777773w7773777w76767**OOO#swwusw377333*o@**77773w7777777wuusuad**%%677776w73<q3<..@%3777w77w77w777*#%w73q77w77@OO#ussu777777w77w3w3w763w3w73*%@OO%wuuuu7777773%o@<330377777<q7qwwauauss**#%w3777w7w7376%.X#%www77w76767673*@%w763w733-@OO%tusw3777w7673w776w3w3w3w33*%OOO*suwuuw76333w%o#7w773q<<3q7773uwuuddss*%%%7673w7w77w7w%.o#%63w77777737777%@*37337w6w%++O%ussw77763737733w73w7w7777**%O@O3wuwss7777",
"<773X.@$337777w377w77ZB6773<q3$@*7q<7qw3w7ww7O.@#77w377w37w37ww3##777777w7wo.@%HB73w7776776777w3w36777w3<3<%@@*CFKd77u7773w%..@%w77776677w67sHz6w73373#@w3677w37777w3o.#$<q3w7733w37777*@%77777w376..@*Cx77737776677777737w67667773##@3HHHs63w767w7% O@*33<7w36633q<sHs7777w66@#77w77w77u7w6*.X#%777w7w77777777*O*37<q33qq-.X@3Hx37w7w07777w7776w7w777777w3###wHHZu7777w777# O@*w77ww36673w3sFs3733736@%73337w777777* o#%77w757777w777w*@*7u777w7u%.o#wKz777376w777ww37w3w377673qw*@%@dFKHw77u33",
"7773XX@%q<3w773w67377uu677q<3q**%%33<37%OO+oOO@us%#%%w77773w73%$**w777w3373o.@%Bz776w673773w677776773w7733;oo@<Hxdw773767w7*.o@*w7w7ww6777w77su7373w7333#*w7w6w#OoOOO+@sw#%$%77w777776%$3*w77777u7*oo@*Cx777q7q373w3w3w6w7777w677u*oO@<Czu777673777% o@*33777777q<73wuu7776w63**%*77777@OoOOOO#zw#%#%w77w7w7w%%%3*773q<q<3-.o@3Hd7777737w37377u6373773w7<3%XO@7Cg3777w7376s# O@*377377777w76wus77777w7**%*77777@OOOOOO%g3#$%33w73w3703#%*777w77777%.o@7Hs377w777767377777777767w<3%oO@dCdww77777",
"q773X.@%777777u377w677777q333wqq$@3<q77#.....@$Bl##@$3777w7777##7<w3773<<3qo.@%Hzw77377ww7w776w3w3w76367003 o@%Cz7777w7777w*.o@%w77777667766767677777777#$7766w+.....#%Hx#@@%733776776#%w777777w777X.@*Czw77w377777w36770667w77777%.o@*Hs776777w77w%.O@%q7w3w3w73q7w7677777u7w76@#7w7w3O.....@*Fs@##*77737773*@%w*77773377%.o@3Fs37777<33w77w37777w3777770%.O@uHu373777w77w#.O$*77q3w37766777676777q67w%@%77777o... o@3Cw@#@*73777770*@%w3w337773w%.o@7Fs777773w677w66777767w3w737$ O#uCu<777777",
"377*XX@$w73q767w3w77w76377<q73<<##<33%oO@@O@@szw03*3-@377w77773*#%u777q@oooX.@@3w063w7733736777677377w770<;.o@%Hd77w777376u*.o@%w73w3w7ww6776w7w77773w73#$777%X+@@@@@sz77333*#*3w3w766**#%7w77wOooo.o@#ww77w777u76767763w677373w77*.o@3Hg7763w73777% o@*33q77737<73063w37<66777*@$777@oO@@++@zzw33*7%#*ww7w7777%#*ww77<+ooo.o@%7ww7773qq777773w777773w3w7w%.O@7Hu67ww6776w7# O@*w3q777667u673w77w777w763@%3w7@o@@@@O%zgw67*7%#373w77376*$*773w3ooXX.o#*u73w777777763u766w3w777377q$ O@wHww77w777",
"<q3*.o#$3wq377w373677w3w77777w77##<3<%.O#####zBw3777*#%<77w37777@#7333w@...XX@#377w7776w7376w7w3w377q7q<0<-Xo#*Hx777777w773*.o#%777w0377377w3w77777w7w33#%336#.+%###%kC773<q%@*336776773@%73333O....o#%773<777w3777w7w3w77w7667737%.o#3Hu7w3776w777%.o$*<q777777q37w777www777w36##337@.@$#$#*Hl3w373%@*w3w37w3w*@%77033o.X..o#*377<3q<3<7w377w6673777w7777%.O@wHs33777w7736#.O#*w7w377w37w77w36737377w0%#%3*7O.@####%Bz3777w$@333<q7777*@*77733o....o#%*7777w7377w37u6w33677677677#.@@sHw7777377",
"33oo@#<qq37777777w677367w3w3q07733@@.o@*NBzCBu777767*@*37w773w7*Xo#@@#@@@#@@#<3$$7w76w777w77377677773733<OX@%xx7w7303w7363oo@#777777w76ww7736377w3733w773*#@.o@7BBzNmu377q73*@*37763w77*.o####$@@#@@#**#%733w773w3637777w637773w*oo@*Bs777776377w*oo@%73<3773w77q<77w777677673w70-%O.O@uBNNBz0<3777w%#*w7777773%.O%@@@#@@#@@$7*@3733q3q773w763u77w3w777w*.o@3Nsw777767377*.o@%7677773w77733w763w3ww773w77%#OoO@dBNzCzww77776$@%3q<37w77#.O$$@##@@##@%w*#-w7777w773w776777763w777%.o@7Bws73w37w77",
"<3oo#%<3337373u7w7777w77377w777733@Ooo#7HBHxNu7777wu*@*w7u6766w*Xo%%%$$$%##$#77$%36*3776w3677376w3w7777q<o.@%Bx77w3w777w6*oo#%777w7ww777376w7w77777w77777*@O.O%wBBNCB7q3737u%@*76w3w3w0%.O$#$$$####%%73#%33337703w77776603w37777*oo@%Hz77w777w76w*.o#*77qq337373337w7w3777767677<-@O.@%dCMBBm37q7777%#*77767773%.O%#%#$#%###%7*#%3*3<773767777w777677777%Xo@*Cu376w777w67%XO$%7777ww6673776777w7777777777%@o.@%dHBHxz7777w7w%@37q37303<@.@%$$$$%%###%u%#-3**7w37767777736w3w3w36%.O@7Bw3w77w7377",
"7q##<33<q<7w7w77373w7773w7777qw733.o@3Hd7777w773w337*@%77w677736@*BNCHmCCw<77777*@##%w77763w7w77773777<3<o.@%7777777w37776@#777w7777667767777w66777377773*.o#3Hs777777<3qq77*@*7777777w*@3HCCHNHBs77<337*@@@*77w77767776u777663w3.X@$6777w3w777637@%77373<<q7w7w<q7q77777wwuw3763%.o@7Cu37777q<33w76%@%0w3w7777%@*HBHHHNn7777777%@#@*w7qw3767603663w777q*.o@%q3w76373w7773@%w7767777777w7u776737q377w377w#.O#sCw777773ww7736#@37<3qw773&@wCVCNHBz77w3777%@##3777w376w37w7777776u%.o#*776w7777w77",
"73$$6777w76677ww63777w3667666w377*oo#*Jx377777ww3ww7*#%*77w3w773@%BHxzzzzu777363*%#O%-*-**3003<3777377773o.#$3377777777777##7<w37777776673777773737w03u77*.o#wHs67737uw37777*$**77777w3-@*HBBzzBC773w377%%#O%3*33*7777737q30<3<q*o.#%377wq<777767*##66767766737767<6w3737q77q3773%.o@pCa3703qq3q7w67*%%*35777w73@7HBzzzBM377q<w7*$@@%33**3776677737777w7*.o#%w370377777ww*#%777w66w3767377773<q<3w777777<#.O$uHw7w7w6667w766%%**3777777*@uHNzBzNg7q<7777%%@@*****377777776777u7w%.o#-3<<3q3q<q<q",
"7w##73w7377uw7777w6u73u677u7777773.o@3Kx7q7q7u37773w77*@*73w07w3@-Hz7w7w77677w7w6w%.o@@@@@<q<<qw73w0w7u33o.#$3q7u3w77uw7q3##7u30w3w7776uww7u7wqww073w7677*.o#3Hs3w7w663ww36uww%@*wqwq3w<@*Hg677737uq3w7777#.O@@@@@6w7<w073<300003oo@%73q0wq76wwuw3#%7www776u7w7u7u7u3w7w77qw3w7q3*.o@uKd7qw737a3ww67w7%@36w777w*@3Hg366670w37<q7qwO O@@@@#w7www7w0w777u7*.X#%73ww7u73w77w*#%www777ww76u0777u7q33777uwww77#.O#sHu7777ww77uwu377#@377w7uw*@wCw77777w03u3q77wO @@@@@#w7w3w777u777ww%.o#-<3q<0<0w777",
"$%@#67u7u6w377<777677w777w3367777*o.@*Hd7377777777777w*@*77737$$@-Fz777777w3777w*#@o#37*33%%-<&****%%####o.#%333777u7w77%###777w3767w3w337777ww33w7w76777*.o@3Fd673w6777776777%@*7<77<%@@*Hs*73677q37777*$@o#3*7*3*********-##%##.o@%7777w77777*%###777777377w3777w377777uq<7q77q%.o@uHu3777q7<3773w6w%#733773##@7Hs7737777q773<*#@o%3*73***%****%%%###@#.o#%37u77w7777w%#@%03w777777w7w7wq3w3<q773737777#.O@dHww77w37676<7w77##37<673##@uCu3<q<77<q7w77%$Oo**633***-%*****###%#+.o#-37733qq7777",
"..@#677776777wu3w77773w6777w7u3w7<.o@*Cdww773w77w7w777%@-w7773o.@-Zzw73w6w773w76*.X@7HHHHC%@@@@@@@@o ......O#773773w777*o.@%w7777766u77777777w77777373w77* .@3Kd6777777773w777#@*u3<3-.X@7Hz77w77773w777#.O@wHCHFB@@@@@@#@@o ......@@7q37w77u7w7..#%w7663ww773w73w3w773w773q<3<q3%.o@wFs3777377<777777#@3w777%.o@7Hs77w73q3w77<q# O@jKFZHz@@@#@@@$@X......X@%w77w777u7w%..@%w777ww677377w3<3q73qw7w777777#.O@dHs3730w7776677w7#@3773w% O@wKuq<33773q737qO @@xHCZHs@@@#@@#@#.......o#*3q7q<<377ww",
"..@#67777<777w3w376777773w3w7377#@o+wsdu373<q3773377w7**%%*77*oX@%su77777377777$@o#3udzsdd**%%%%***@OoOoOO+77*-3737w%@#@X.##77w7w7w3777w77667w377w77w376@@o@wudu37773w676777w3**%%777*Xo@%dw7776u77w<7*@@o$wugsgsd***%**%**@oo+OOO@w3%*7w777%@@@XX#%777w73777w37777w777773ww777*#+o#wugww7w77777377777&*%*377*.o@*xw77777777q3%@+o%qsgssss%-%%**%**+oOoOOO@u****7777#@@@.o$%7777u6<777w73777<7773w37777*#+o%wdd777777w37777777**%3333#.O@7du777qw7w777%@@O*wszgsdw3%*%%*%**OOOooOo#w3%*77777##@#",
"..@@6<w3w3773w773w76ww7767777ww7..#%Hx773qq7773q7w77777w%@*w73oX@#737<677w3w77*.X#3Kd77773373<3<777*@######CB@%77w7wO.. .X@$77w33777w7777uw77777633w767*.o@*Kx37w7767777w777776u%@37q*.o@%w777w6777333*.X#7Ks77777777*77777%####@@@Hg@%77uw7.....o@#u7w77w3w7777w37w<6777w77<3w*.o#7Ka773737773ww7w3777u#@377%.o@*3773w3773w3w$ o@dKu77777737677767%##@@@@*Kw@*q<<77.....o@%w776667777377u77q37777w77qu%.o@wFu7777w777w7w7777777%#337% O@%<3773w7777qu@ O@dC77767773u77777*#@@####7J3@-3www%.. .",
"OOw0%%%*w7w377w77#+%%66<77773w#+O@wudw777377q7w777w37777%@*737O@**w7667673677@@O@sssu7777777<q<377u*****%%*uu**%#++++OOOO@3u%%%*777677w73@@%-37776<776#@O@ddsu7737777w363776w7w7%@-<q*O@-3776677777w<@@O#uddu77u77w37373777*%&%%*3*dw**%#O+++OOOO@u7%%%*73673777*+#%*66677773<@Oo#audu7777w3777777737w37#@67w*O@*w777w777777-OOO%dda037777777777737%***3*3*d7*%%#++++OO+o@s7%%%%767637w7*+#%-<w*3w367*@OO%sug777w77ww667373u777w##776*O#3<3<777777w3%OOO*ddd67777777w77777w*****%*7g3-%%#O+@OOo+",
"##NH#@@#w76u7307w..@#u66u77<u3o.@%HH773ww0u<3737777uw3w7%#*uw7##77q7u3w6uw777..@%Fz77w77w7q7<w7w776ww77w7u7737*@O...O##@##Hx@@@%u76uww37*..@%w7<u677w3..@%Jz777w00w763w7w3u637w7%#*w73@%37wwuw77wu733..@*Kz73w77w77www7ww7u<<u<qw77777*#o...+##@#%Hz+#+%ww77w3ww*.X@*77uw7uwq<.X#*Jx7777ww77730w7<uw300w##6733@%77w73w73w3wu- o@7Kd7w7w7w7w7ww7u7w7w7w7733w77<*@X...@#@#@*Fs@@@%7u3ww737%.o@%qww77777%.o@qKd73ww377w3u77ww00w73w#%77w*@%qqqqq7w3w7u7% O@aKu76w7ww77w77uww77w7777777733%@....@#@#",
"3%wssssu%#%@OOOOoO@du%#%@ooOOo+@us**7777777777w77w377677%@%777##77777377w37Oo#@ssuu3<6637w7w33776763777ww77777%oo@++7zss6*uszsz7$$$@ooOOO@@du%%#@OOOOOO@dd%%777777w7773777q777<3%@-<37@%w7777w77377+O+$sssw3773777737677777w377737777w#Xo+++wlss**wszsg3$%$OOOOo++$zw$%$@oOOOOO$sw%*w7777666777w77w77777#@377*@$7737377777*OO@%jdw7777w377677w3776777376777q3w$.O@O#uuga*7uszss3%%#OOOOOO@%s7%%#+ooOOO+%zw3333776777w377773777w3##77w*@3w777773<37%o++*zsu77777w773777777w367737677373@o++O@uddg",
"7w7wHHZs@@@o.....@%Cx@@#o....X@$BB##773<77u3w73ww3w377w7%@37w7##7777ww3w3w7o.@%BB66w76uwq3777w3w3w7w6u303w77w7% o###sFHKu777HHHu@@@o.....@%Ft@@#o  ...#%Cx@%q77u7ww37uw77u337773##3<w7@$77w730w07u7.X@*Fz37ww7w773www6u77u3wu73w00w37w#.+$##zFFBw77wCHH3@@@X.....#*Fu@@@X....X#*Fs@%077ww7w7763077w37733%#37w3@%7w7w7w7www*.o@3Jx77ww3q7ww77uww7w7u77w76q773q0#.+%##BCZM773sHBH3@+@o....O@3C3@@@o....o#3Fw@$73777u773w7377w76776##7773@$w77w7<uq7u%.o#3Hs777w73wwww7ww7w3wu677w37u7w7wO.+##%CHHC",
"777wuuu7*36%O@@@@dxuq<*3*+++O@tzsw*3#%337w7w37*7377w%XXX@@*773#@$%37777w777o.@%Bz77777w33377777ww3w7677w777377*@*zzsuwww363w3wu733*$@@@@#gxww733%O@@@@dzuq<-@%77w77w6767773q$Xoo@@*373##@*77777w776. @*Bz33w77w3666737w37377777773777w*+3xgxdwww777wuwu73*3@@@@@#zzu7333$@O@+#kxsww%#%7377666677773u#ooX@@676*@##*737w7737*.o@*Gd377773<7776666737367w3633qq77%+7xzB7wqq777wuwu636*@@@@O*zzw73-3#@++O$zg77**#30<6736777w77w6+XXo@#7373@##*w777q373*.o@7Hs3773777377377777777666377w3w3#OszBzuuqq",
"w3777777767*@%##$xMw<3<3*$%#%%sHw77*#%33633w77w77777$.XXO%3777##@%33w77373wo.@%xz773w777<q7777737737<777w7w77w7@6HHHs<7qw7773<37367%@@##%Cxw7w3<*#@%@%BB773-#%73*77767773q3<#...@#<373#@#%7*w377w3*XX@*Hz777777w777677777w77w3w777777w*@7KHCw076w7777777303%##@@%Cz77<33%$$$$%xx777%@33367777777773*@..o@$*773###*73w777w3*.o@3Cx7777<3q63w3667777w773w7q<<37<%@sZBBwwq<77777777377#@###*Hs73w33%##$%*Bz33w%@%3367w3w776w766+.XX#%7ww%##@**3w7<37w%.O@7Hsw77w377777ww7w763w37777w77777%@zZBB77<<",
"736w77w7w3776w777q777q-#3CCNlHw7w3777*###*777773773Xo@@+wBw36ww*3-#%337q377o.@%Nn7777673w7w77377w366w7773w377w*@*Zsw7777367777w7777676*73w3777*@wCVxNNw73w777%@#@*77w7777q%.o@#@sNw77733<*@&w77777*oX@%Cz337w766777w767376773767<q3373%@7Ha37w377777767777733337733077*@sHzHBNw77w77**@##*<5777w77$oO@@@sBw77w377%#%0w37w7*.o@<Cs6w77377777w6w7673677777773q77*@sZu77377ww03w377w73373336uw73w%#dHNNzx3w77w33$###33377w777@o+#+#xB77ww377%$*37wq73%.o@3Hs377q777w777w777776w77773w36w7%@gBww7777",
"7w7777w677w3777777773w3#-lzNNNw377w3w*#$#*363w7w7%#.O**$wCu6777773+#7q73w77O.%%lz777767w37377w3w77773767777777*@7Cs37777w7767777w677w7w7737777*@3xxCNN377773w*###*6*77777*%.+$%%dC337777u*@*03w6w33oo%*Nz677377uw363767wu3w377w73q<q73<@7Hu37367w3w7u377737777777w7077*@wzxCBz077777**@%$3*3w3633*@.@%#%zBw777337%@%377777*oo%3Cs6377w3w637777767w3w77w37777q7-@uBw77w777777777707777777776677%#dBxNVx7767373%###377w7373*@.#%%%zzw737777%@*0w3773%.O*wNs77733w73766776w6377w3w6777777%@sC777777",
"77w77777w33w77w7737w7777-@%37w77777w67w7w%@%77333Xo@*NBBsw3w7737w*@%3w77w37##BBw307ww3w76776w777w37777w3w7777w*@%7w03w77373w7w773736w7777w7q7w77%#*uw377w37w77u77%#*w777-.o@3CBNs77w3w773*@%3777773@%Vx7w37777773w77w3w7667w76373<w77q*@%w777w7737373w777w77777ww37ww733%@3w7ww3737w677w7$#33w7w#.O@7HBCs77777w77*@%737w773@*ng777w377777w77w6w7w767373w7w3733%@*773w33777w3w3w70337w77777777777$#3377776773777w7##7w777#.O#uHBBw77767777%@*777w7w-@-Hs777<37q7777w3w7777w773677776777%@*7777w77",
"3w7777w777677ww77w777777-@3w77776w7777777%@*7<533.o@*HHBs77776w7u*#%7777777##BB77w7377376777373w77663w77373w7w*@%777777ww7777377w7w7777w77777q<q%@*q3w77777w77776%@3w77w%.o@*HHHd777777w33@%w763w73@%Hx777663w3w77767737777673w7q73773*@%7777673w7w7773w3w773w77q7773777%#%773777w736w777$#67773%.O@wCNHww77w7777*#-ww7377*@*Cx37w77773w63w777w63777w77773q773%@%w7w77w773w7773777w737w77ww3w73w##7w77w73w7w773w7$$77777#.O@sZBB0w773w77w%@*7q7777-@-Hz773qq<3733w73076w73w67763w3w777%@773w7777"
};
