/* XPM */
static char *xpm_[] = {
/* columns rows colors chars-per-pixel */
"480 480 151 2 ",
"   c #47352F",
".  c #49352F",
"X  c #4B3730",
"o  c #4D3932",
"O  c #543E37",
"+  c #553F38",
"@  c #564037",
"#  c #564038",
"$  c #5A443B",
"%  c #5F483E",
"&  c #61473F",
"*  c #634A3F",
"=  c #624B3F",
"-  c #634B3F",
";  c #624A3F",
":  c #61493F",
">  c #61493F",
",  c #5B4640",
"<  c #5E4841",
"1  c #614940",
"2  c #614941",
"3  c #624940",
"4  c #634940",
"5  c #624A40",
"6  c #634A40",
"7  c #624B40",
"8  c #634B40",
"9  c #634A41",
"0  c #634B41",
"q  c #614A42",
"w  c #644A40",
"e  c #644B40",
"r  c #644B41",
"t  c #654B41",
"y  c #654B42",
"u  c #634C41",
"i  c #644C40",
"p  c #654C40",
"a  c #644C41",
"s  c #654C41",
"d  c #654D41",
"f  c #664C41",
"g  c #664D41",
"h  c #674D41",
"j  c #674E41",
"k  c #644C42",
"l  c #654C42",
"z  c #654D42",
"x  c #664C42",
"c  c #674C42",
"v  c #664D42",
"b  c #674D42",
"n  c #664C43",
"m  c #664D43",
"M  c #674D43",
"N  c #654E42",
"B  c #664E42",
"V  c #674E42",
"C  c #664E43",
"Z  c #674E43",
"A  c #674F43",
"S  c #674E44",
"D  c #674F44",
"F  c #674F47",
"G  c #664D42",
"H  c #684D42",
"J  c #684E42",
"K  c #684F42",
"L  c #684E43",
"P  c #684F43",
"I  c #684E44",
"U  c #684F44",
"Y  c #694F44",
"T  c #694F45",
"R  c #6A4F44",
"E  c #684F44",
"W  c #665047",
"Q  c #6A5145",
"!  c #6B5145",
"~  c #6A5046",
"^  c #6B5247",
"/  c #6A5046",
"(  c #675048",
")  c #6A5249",
"_  c #6B524A",
"`  c #6C5248",
"'  c #6D5449",
"]  c #6E554A",
"[  c #6F554B",
"{  c #6D544B",
"}  c #6F584E",
"|  c #70564C",
" . c #70574E",
".. c #70574E",
"X. c #71584F",
"o. c #71584F",
"O. c #715850",
"+. c #715950",
"@. c #725950",
"#. c #765C51",
"$. c #725950",
"%. c #785F56",
"&. c #795F58",
"*. c #7A6057",
"=. c #7D6359",
"-. c #7D635A",
";. c #7E635A",
":. c #7E645A",
">. c #7E645B",
",. c #7E645C",
"<. c #7D635A",
"1. c #80665D",
"2. c #81665E",
"3. c #81675E",
"4. c #82675F",
"5. c #81675E",
"6. c #82685F",
"7. c #836760",
"8. c #826860",
"9. c #836860",
"0. c #836960",
"q. c #836961",
"w. c #846961",
"e. c #846A61",
"r. c #856962",
"t. c #856A62",
"y. c #856B62",
"u. c #856B63",
"i. c #866B63",
"p. c #866C63",
"a. c #866B64",
"s. c #866C64",
"d. c #876C64",
"f. c #876C65",
"g. c #876D65",
"h. c #866B63",
"j. c #886C64",
"k. c #886D65",
"l. c #886E66",
"z. c #896E66",
"x. c #896F67",
"c. c #8A6E66",
"v. c #8A6F67",
"b. c #896E66",
"n. c #8B6F68",
"m. c #8B7067",
"M. c #8A7068",
"N. c #8B7068",
"B. c #8D726A",
"V. c #8B7068",
"C. c None",
/* pixels */
"C.C.C.C.C.C.C.C.C.C.C.C.C.C.C.C.C.C.C.C.C.C.C.C.C.C.C.C.C.C.C.C.C.C.C.C.C.C.C.C.C.C.C.C.C.C.C.C.C.C.C.C.C.C.C.C.C.C.C.C.C.C.C.C.C.C.C.C.C.C.C.C.C.C.C.C.C.C.C.C.C.C.C.C.C.C.C.C.C.C.C.C.C.C.C.C.C.C.C.C.C.C.C.C.C.C.C.C.C.C.C.C.C.C.C.C.C.C.C.C.C.C.C.C.C.C.C.C.C.C.C.C.C.C.C.C.C.C.C.C.C.C.C.C.C.C.C.C.C.C.C.C.C.C.C.C.C.C.C.C.C.C.C.C.C.C.C.C.C.C.C.C.C.C.C.C.C.C.C.C.C.C.C.C.C.C.C.C.C.C.C.C.C.C.C.C.C.C.C.C.C.C.C.C.C.C.C.C.C.C.C.C.C.C.C.C.C.C.C.C.C.C.C.C.C.C.C.C.C.C.C.C.C.C.C.C.C.C.C.C.C.C.C.C.C.C.C.C.C.C.C.C.C.C.C.C.C.C.C.C.C.C.C.C.C.C.C.C.C.C.C.C.C.C.C.C.C.C.C.C.C.C.C.C.C.C.C.C.C.C.C.C.C.C.C.C.C.C.C.C.C.C.C.C.C.C.C.C.C.C.C.C.C.C.C.C.C.C.C.C.C.C.C.C.C.C.C.C.C.C.C.C.C.C.C.C.C.C.C.C.C.C.C.C.C.C.C.C.C.C.C.C.C.C.C.C.C.C.C.C.C.C.C.C.C.C.C.C.C.C.C.C.C.C.C.C.C.C.C.C.C.C.C.C.C.C.C.C.C.C.C.C.C.C.C.C.C.C.C.C.C.C.C.C.C.C.C.C.C.C.C.C.C.C.C.C.C.C.C.C.C.C.C.C.C.C.C.C.C.C.C.C.C.C.C.C.C.C.C.C.C.C.C.C.C.C.C.C.C.C.C.C.C.C.C.C.C.C.C.C.C.C.C.C.C.C.C.C.C.C.C.C.C.C.C.C.C.C.C.C.",
"C.C.C.C.C.C.C.C.C.C.C.C.C.C.C.C.C.C.C.C.C.C.C.C.C.C.C.C.C.C.C.C.C.C.C.C.C.C.C.C.C.C.C.C.C.C.C.C.C.C.C.C.C.C.C.C.C.C.C.C.C.C.C.C.C.C.C.C.C.C.C.C.C.C.C.C.C.C.C.C.C.C.C.C.C.C.C.C.C.C.C.C.C.C.C.C.C.C.C.C.C.C.C.C.C.C.C.C.C.C.C.C.C.C.C.C.C.C.C.C.C.C.C.C.C.C.C.C.C.C.C.C.C.C.C.C.C.C.C.C.C.C.C.C.C.C.C.C.C.C.C.C.C.C.C.C.C.C.C.C.C.C.C.C.C.C.C.C.C.C.C.C.C.C.C.C.C.C.C.C.C.C.C.C.C.C.C.C.C.C.C.C.C.C.C.C.C.C.C.C.C.C.C.C.C.C.C.C.C.C.C.C.C.C.C.C.C.C.C.C.C.C.C.C.C.C.C.C.C.C.C.C.C.C.C.C.C.C.C.C.C.C.C.C.C.C.C.C.C.C.C.C.C.C.C.C.C.C.C.C.C.C.C.C.C.C.C.C.C.C.C.C.C.C.C.C.C.C.C.C.C.C.C.C.C.C.C.C.C.C.C.C.C.C.C.C.C.C.C.C.C.C.C.C.C.C.C.C.C.C.C.C.C.C.C.C.C.C.C.C.C.C.C.C.C.C.C.C.C.C.C.C.C.C.C.C.C.C.C.C.C.C.C.C.C.C.C.C.C.C.C.C.C.C.C.C.C.C.C.C.C.C.C.C.C.C.C.C.C.C.C.C.C.C.C.C.C.C.C.C.C.C.C.C.C.C.C.C.C.C.C.C.C.C.C.C.C.C.C.C.C.C.C.C.C.C.C.C.C.C.C.C.C.C.C.C.C.C.C.C.C.C.C.C.C.C.C.C.C.C.C.C.C.C.C.C.C.C.C.C.C.C.C.C.C.C.C.C.C.C.C.C.C.C.C.C.C.C.C.C.C.C.C.C.C.C.C.C.C.C.C.C.C.C.C.C.C.C.C.C.",
"C.C.C.C.C.C.C.C.C.C.C.C.C.C.C.C.C.C.C.C.C.C.C.C.C.C.C.C.C.C.C.C.C.C.C.C.C.C.C.C.C.C.C.C.C.C.C.C.C.C.C.C.C.C.C.C.C.C.C.C.C.C.C.C.C.C.C.C.C.C.C.C.C.C.C.C.C.C.C.C.C.C.C.C.C.C.C.C.C.C.C.C.C.C.C.C.C.C.C.C.C.C.C.C.C.C.C.C.C.C.C.C.C.C.C.C.C.C.C.C.C.C.C.C.C.C.C.C.C.C.C.C.C.C.C.C.C.C.C.C.C.C.C.C.C.C.C.C.C.C.C.C.C.C.C.C.C.C.C.C.C.C.C.C.C.C.C.C.C.C.C.C.C.C.C.C.C.C.C.C.C.C.C.C.C.C.C.C.C.C.C.C.C.C.C.C.C.C.C.C.C.C.C.C.C.C.C.C.C.C.C.C.C.C.C.C.C.C.C.C.C.C.C.C.C.C.C.C.C.C.C.C.C.C.C.C.C.C.C.C.C.C.C.C.C.C.C.C.C.C.C.C.C.C.C.C.C.C.C.C.C.C.C.C.C.C.C.C.C.C.C.C.C.C.C.C.C.C.C.C.C.C.C.C.C.C.C.C.C.C.C.C.C.C.C.C.C.C.C.C.C.C.C.C.C.C.C.C.C.C.C.C.C.C.C.C.C.C.C.C.C.C.C.C.C.C.C.C.C.C.C.C.C.C.C.C.C.C.C.C.C.C.C.C.C.C.C.C.C.C.C.C.C.C.C.C.C.C.C.C.C.C.C.C.C.C.C.C.C.C.C.C.C.C.C.C.C.C.C.C.C.C.C.C.C.C.C.C.C.C.C.C.C.C.C.C.C.C.C.C.C.C.C.C.C.C.C.C.C.C.C.C.C.C.C.C.C.C.C.C.C.C.C.C.C.C.C.C.C.C.C.C.C.C.C.C.C.C.C.C.C.C.C.C.C.C.C.C.C.C.C.C.C.C.C.C.C.C.C.C.C.C.C.C.C.C.C.C.C.C.C.C.C.C.C.C.C.C.C.C.",
"C.C.C.C.C.C.C.C.C.C.C.C.C.C.C.C.C.C.C.C.C.C.C.C.C.C.C.C.C.C.C.C.C.C.C.C.C.C.C.C.C.C.C.C.C.C.C.C.C.C.C.C.C.C.C.C.C.C.C.C.C.C.C.C.C.C.C.C.C.C.C.C.C.C.C.C.C.C.C.C.C.C.C.C.C.C.C.C.C.C.C.C.C.C.C.C.C.C.C.C.C.C.C.C.C.C.C.C.C.C.C.C.C.C.C.C.C.C.C.C.C.C.C.C.C.C.C.C.C.C.C.C.C.C.C.C.C.C.C.C.C.C.C.C.C.C.C.C.C.C.C.C.C.C.C.C.C.C.C.C.C.C.C.C.C.C.C.C.C.C.C.C.C.C.C.C.C.C.C.C.C.C.C.C.C.C.C.C.C.C.C.C.C.C.C.C.C.C.C.C.C.C.C.C.C.C.C.C.C.C.C.C.C.C.C.C.C.C.C.C.C.C.C.C.C.C.C.C.C.C.C.C.C.C.C.C.C.C.C.C.C.C.C.C.C.C.C.C.C.C.C.C.C.C.C.C.C.C.C.C.C.C.C.C.C.C.C.C.C.C.C.C.C.C.C.C.C.C.C.C.C.C.C.C.C.C.C.C.C.C.C.C.C.C.C.C.C.C.C.C.C.C.C.C.C.C.C.C.C.C.C.C.C.C.C.C.C.C.C.C.C.C.C.C.C.C.C.C.C.C.C.C.C.C.C.C.C.C.C.C.C.C.C.C.C.C.C.C.C.C.C.C.C.C.C.C.C.C.C.C.C.C.C.C.C.C.C.C.C.C.C.C.C.C.C.C.C.C.C.C.C.C.C.C.C.C.C.C.C.C.C.C.C.C.C.C.C.C.C.C.C.C.C.C.C.C.C.C.C.C.C.C.C.C.C.C.C.C.C.C.C.C.C.C.C.C.C.C.C.C.C.C.C.C.C.C.C.C.C.C.C.C.C.C.C.C.C.C.C.C.C.C.C.C.C.C.C.C.C.C.C.C.C.C.C.C.C.C.C.C.C.C.C.C.C.C.C.C.C.C.",
"C.C.C.C.C.C.C.C.C.C.C.C.C.C.C.C.C.C.C.C.C.C.C.C.C.C.C.C.C.C.C.C.C.C.C.C.C.C.C.C.C.C.C.C.C.C.C.C.C.C.C.C.C.C.C.C.C.C.C.C.C.C.C.C.C.C.C.C.C.C.C.C.C.C.C.C.C.C.C.C.C.C.C.C.C.C.C.C.C.C.C.C.C.C.C.C.C.C.C.C.C.C.C.C.C.C.C.C.C.C.C.C.C.C.C.C.C.C.C.C.C.C.C.C.C.C.C.C.C.C.C.C.C.C.C.C.C.C.C.C.C.C.C.C.C.C.C.C.C.C.C.C.C.C.C.C.C.C.C.C.C.C.C.C.C.C.C.C.C.C.C.C.C.C.C.C.C.C.C.C.C.C.C.C.C.C.C.C.C.C.C.C.C.C.C.C.C.C.C.C.C.C.C.C.C.C.C.C.C.C.C.C.C.C.C.C.C.C.C.C.C.C.C.C.C.C.C.C.C.C.C.C.C.C.C.C.C.C.C.C.C.C.C.C.C.C.C.C.C.C.C.C.C.C.C.C.C.C.C.C.C.C.C.C.C.C.C.C.C.C.C.C.C.C.C.C.C.C.C.C.C.C.C.C.C.C.C.C.C.C.C.C.C.C.C.C.C.C.C.C.C.C.C.C.C.C.C.C.C.C.C.C.C.C.C.C.C.C.C.C.C.C.C.C.C.C.C.C.C.C.C.C.C.C.C.C.C.C.C.C.C.C.C.C.C.C.C.C.C.C.C.C.C.C.C.C.C.C.C.C.C.C.C.C.C.C.C.C.C.C.C.C.C.C.C.C.C.C.C.C.C.C.C.C.C.C.C.C.C.C.C.C.C.C.C.C.C.C.C.C.C.C.C.C.C.C.C.C.C.C.C.C.C.C.C.C.C.C.C.C.C.C.C.C.C.C.C.C.C.C.C.C.C.C.C.C.C.C.C.C.C.C.C.C.C.C.C.C.C.C.C.C.C.C.C.C.C.C.C.C.C.C.C.C.C.C.C.C.C.C.C.C.C.C.C.C.C.C.C.C.",
"C.C.C.C.C.C.C.C.C.C.C.C.C.C.C.C.C.C.C.C.C.C.C.C.C.C.C.C.C.C.C.C.C.C.C.C.C.C.C.C.C.C.C.C.C.C.C.C.C.C.C.C.C.C.C.C.C.C.C.C.C.C.C.C.C.C.C.C.C.C.C.C.C.C.C.C.C.C.C.C.C.C.C.C.C.C.C.C.C.C.C.C.C.C.C.C.C.C.C.C.C.C.C.C.C.C.C.C.C.C.C.C.C.C.C.C.C.C.C.C.C.C.C.C.C.C.C.C.C.C.C.C.C.C.C.C.C.C.C.C.C.C.C.C.C.C.C.C.C.C.C.C.C.C.C.C.C.C.C.C.C.C.C.C.C.C.C.C.C.C.C.C.C.C.C.C.C.C.C.C.C.C.C.C.C.C.C.C.C.C.C.C.C.C.C.C.C.C.C.C.C.C.C.C.C.C.C.C.C.C.C.C.C.C.C.C.C.C.C.C.C.C.C.C.C.C.C.C.C.C.C.C.C.C.C.C.C.C.C.C.C.C.C.C.C.C.C.C.C.C.C.C.C.C.C.C.C.C.C.C.C.C.C.C.C.C.C.C.C.C.C.C.C.C.C.C.C.C.C.C.C.C.C.C.C.C.C.C.C.C.C.C.C.C.C.C.C.C.C.C.C.C.C.C.C.C.C.C.C.C.C.C.C.C.C.C.C.C.C.C.C.C.C.C.C.C.C.C.C.C.C.C.C.C.C.C.C.C.C.C.C.C.C.C.C.C.C.C.C.C.C.C.C.C.C.C.C.C.C.C.C.C.C.C.C.C.C.C.C.C.C.C.C.C.C.C.C.C.C.C.C.C.C.C.C.C.C.C.C.C.C.C.C.C.C.C.C.C.C.C.C.C.C.C.C.C.C.C.C.C.C.C.C.C.C.C.C.C.C.C.C.C.C.C.C.C.C.C.C.C.C.C.C.C.C.C.C.C.C.C.C.C.C.C.C.C.C.C.C.C.C.C.C.C.C.C.C.C.C.C.C.C.C.C.C.C.C.C.C.C.C.C.C.C.C.C.C.C.C.C.",
"C.C.C.C.C.C.C.C.C.C.C.C.C.C.C.C.C.C.C.C.C.C.C.C.C.C.C.C.C.C.C.C.C.C.C.C.C.C.C.C.C.C.C.C.C.C.C.C.C.C.C.C.C.C.C.C.C.C.C.C.C.C.C.C.C.C.C.C.C.C.C.C.C.C.C.C.C.C.C.C.C.C.C.C.C.C.C.C.C.C.C.C.C.C.C.C.C.C.C.C.C.C.C.C.C.C.C.C.C.C.C.C.C.C.C.C.C.C.C.C.C.C.C.C.C.C.C.C.C.C.C.C.C.C.C.C.C.C.C.C.C.C.C.C.C.C.C.C.C.C.C.C.C.C.C.C.C.C.C.C.C.C.C.C.C.C.C.C.C.C.C.C.C.C.C.C.C.C.C.C.C.C.C.C.C.C.C.C.C.C.C.C.C.C.C.C.C.C.C.C.C.C.C.C.C.C.C.C.C.C.C.C.C.C.C.C.C.C.C.C.C.C.C.C.C.C.C.C.C.C.C.C.C.C.C.C.C.C.C.C.C.C.C.C.C.C.C.C.C.C.C.C.C.C.C.C.C.C.C.C.C.C.C.C.C.C.C.C.C.C.C.C.C.C.C.C.C.C.C.C.C.C.C.C.C.C.C.C.C.C.C.C.C.C.C.C.C.C.C.C.C.C.C.C.C.C.C.C.C.C.C.C.C.C.C.C.C.C.C.C.C.C.C.C.C.C.C.C.C.C.C.C.C.C.C.C.C.C.C.C.C.C.C.C.C.C.C.C.C.C.C.C.C.C.C.C.C.C.C.C.C.C.C.C.C.C.C.C.C.C.C.C.C.C.C.C.C.C.C.C.C.C.C.C.C.C.C.C.C.C.C.C.C.C.C.C.C.C.C.C.C.C.C.C.C.C.C.C.C.C.C.C.C.C.C.C.C.C.C.C.C.C.C.C.C.C.C.C.C.C.C.C.C.C.C.C.C.C.C.C.C.C.C.C.C.C.C.C.C.C.C.C.C.C.C.C.C.C.C.C.C.C.C.C.C.C.C.C.C.C.C.C.C.C.C.C.C.C.C.C.",
"C.C.C.C.C.C.C.C.C.C.C.C.C.C.C.C.C.C.C.C.C.C.C.C.C.C.C.C.C.C.C.C.C.C.C.C.C.C.C.C.C.C.C.C.C.C.C.C.C.C.C.C.C.C.C.C.C.C.C.C.C.C.C.C.C.C.C.C.C.C.C.C.C.C.C.C.C.C.C.C.C.C.C.C.C.C.C.C.C.C.C.C.C.C.C.C.C.C.C.C.C.C.C.C.C.C.C.C.C.C.C.C.C.C.C.C.C.C.C.C.C.C.C.C.C.C.C.C.C.C.C.C.C.C.C.C.C.C.C.C.C.C.C.C.C.C.C.C.C.C.C.C.C.C.C.C.C.C.C.C.C.C.C.C.C.C.C.C.C.C.C.C.C.C.C.C.C.C.C.C.C.C.C.C.C.C.C.C.C.C.C.C.C.C.C.C.C.C.C.C.C.C.C.C.C.C.C.C.C.C.C.C.C.C.C.C.C.C.C.C.C.C.C.C.C.C.C.C.C.C.C.C.C.C.C.C.C.C.C.C.C.C.C.C.C.C.C.C.C.C.C.C.C.C.C.C.C.C.C.C.C.C.C.C.C.C.C.C.C.C.C.C.C.C.C.C.C.C.C.C.C.C.C.C.C.C.C.C.C.C.C.C.C.C.C.C.C.C.C.C.C.C.C.C.C.C.C.C.C.C.C.C.C.C.C.C.C.C.C.C.C.C.C.C.C.C.C.C.C.C.C.C.C.C.C.C.C.C.C.C.C.C.C.C.C.C.C.C.C.C.C.C.C.C.C.C.C.C.C.C.C.C.C.C.C.C.C.C.C.C.C.C.C.C.C.C.C.C.C.C.C.C.C.C.C.C.C.C.C.C.C.C.C.C.C.C.C.C.C.C.C.C.C.C.C.C.C.C.C.C.C.C.C.C.C.C.C.C.C.C.C.C.C.C.C.C.C.C.C.C.C.C.C.C.C.C.C.C.C.C.C.C.C.C.C.C.C.C.C.C.C.C.C.C.C.C.C.C.C.C.C.C.C.C.C.C.C.C.C.C.C.C.C.C.C.C.C.C.C.C.",
"C.C.C.C.C.C.C.C.C.C.C.C.C.C.C.C.C.C.C.C.C.C.C.C.C.C.C.C.C.C.C.C.C.C.C.C.C.C.C.C.C.C.C.C.C.C.C.C.C.C.C.C.C.C.C.C.C.C.C.C.C.C.C.C.C.C.C.C.C.C.C.C.C.C.C.C.C.C.C.C.C.C.C.C.C.C.C.C.C.C.C.C.C.C.C.C.C.C.C.C.C.C.C.C.C.C.C.C.C.C.C.C.C.C.C.C.C.C.C.C.C.C.C.C.C.C.C.C.C.C.C.C.C.C.C.C.C.C.C.C.C.C.C.C.C.C.C.C.C.C.C.C.C.C.C.C.C.C.C.C.C.C.C.C.C.C.C.C.C.C.C.C.C.C.C.C.C.C.C.C.C.C.C.C.C.C.C.C.C.C.C.C.C.C.C.C.C.C.C.C.C.C.C.C.C.C.C.C.C.C.C.C.C.C.C.C.C.C.C.C.C.C.C.C.C.C.C.C.C.C.C.C.C.C.C.C.C.C.C.C.C.C.C.C.C.C.C.C.C.C.C.C.C.C.C.C.C.C.C.C.C.C.C.C.C.C.C.C.C.C.C.C.C.C.C.C.C.C.C.C.C.C.C.C.C.C.C.C.C.C.C.C.C.C.C.C.C.C.C.C.C.C.C.C.C.C.C.C.C.C.C.C.C.C.C.C.C.C.C.C.C.C.C.C.C.C.C.C.C.C.C.C.C.C.C.C.C.C.C.C.C.C.C.C.C.C.C.C.C.C.C.C.C.C.C.C.C.C.C.C.C.C.C.C.C.C.C.C.C.C.C.C.C.C.C.C.C.C.C.C.C.C.C.C.C.C.C.C.C.C.C.C.C.C.C.C.C.C.C.C.C.C.C.C.C.C.C.C.C.C.C.C.C.C.C.C.C.C.C.C.C.C.C.C.C.C.C.C.C.C.C.C.C.C.C.C.C.C.C.C.C.C.C.C.C.C.C.C.C.C.C.C.C.C.C.C.C.C.C.C.C.C.C.C.C.C.C.C.C.C.C.C.C.C.C.C.C.C.C.C.",
"C.C.C.C.C.C.C.C.C.C.C.C.C.C.C.C.C.C.C.C.C.C.C.C.C.C.C.C.C.C.C.C.C.C.C.C.C.C.C.C.C.C.C.C.C.C.C.C.C.C.C.C.C.C.C.C.C.C.C.C.C.C.C.C.C.C.C.C.C.C.C.C.C.C.C.C.C.C.C.C.C.C.C.C.C.C.C.C.C.C.C.C.C.C.C.C.C.C.C.C.C.C.C.C.C.C.C.C.C.C.C.C.C.C.C.C.C.C.C.C.C.C.C.C.C.C.C.C.C.C.C.C.C.C.C.C.C.C.C.C.C.C.C.C.C.C.C.C.C.C.C.C.C.C.C.C.C.C.C.C.C.C.C.C.C.C.C.C.C.C.C.C.C.C.C.C.C.C.C.C.C.C.C.C.C.C.C.C.C.C.C.C.C.C.C.C.C.C.C.C.C.C.C.C.C.C.C.C.C.C.C.C.C.C.C.C.C.C.C.C.C.C.C.C.C.C.C.C.C.C.C.C.C.C.C.C.C.C.C.C.C.C.C.C.C.C.C.C.C.C.C.C.C.C.C.C.C.C.C.C.C.C.C.C.C.C.C.C.C.C.C.C.C.C.C.C.C.C.C.C.C.C.C.C.C.C.C.C.C.C.C.C.C.C.C.C.C.C.C.C.C.C.C.C.C.C.C.C.C.C.C.C.C.C.C.C.C.C.C.C.C.C.C.C.C.C.C.C.C.C.C.C.C.C.C.C.C.C.C.C.C.C.C.C.C.C.C.C.C.C.C.C.C.C.C.C.C.C.C.C.C.C.C.C.C.C.C.C.C.C.C.C.C.C.C.C.C.C.C.C.C.C.C.C.C.C.C.C.C.C.C.C.C.C.C.C.C.C.C.C.C.C.C.C.C.C.C.C.C.C.C.C.C.C.C.C.C.C.C.C.C.C.C.C.C.C.C.C.C.C.C.C.C.C.C.C.C.C.C.C.C.C.C.C.C.C.C.C.C.C.C.C.C.C.C.C.C.C.C.C.C.C.C.C.C.C.C.C.C.C.C.C.C.C.C.C.C.C.C.C.",
"C.C.C.C.C.C.C.C.C.C.C.C.C.C.C.C.C.C.C.C.C.C.C.C.C.C.C.C.C.C.C.C.C.C.C.C.C.C.C.C.C.C.C.C.C.C.C.C.C.C.C.C.C.C.C.C.C.C.C.C.C.C.C.C.C.C.C.C.C.C.C.C.C.C.C.C.C.C.C.C.C.C.C.C.C.C.C.C.C.C.C.C.C.C.C.C.C.C.C.C.C.C.C.C.C.C.C.C.C.C.C.C.C.C.C.C.C.C.C.C.C.C.C.C.C.C.C.C.C.C.C.C.C.C.C.C.C.C.C.C.C.C.C.C.C.C.C.C.C.C.C.C.C.C.C.C.C.C.C.C.C.C.C.C.C.C.C.C.C.C.C.C.C.C.C.C.C.C.C.C.C.C.C.C.C.C.C.C.C.C.C.C.C.C.C.C.C.C.C.C.C.C.C.C.C.C.C.C.C.C.C.C.C.C.C.C.C.C.C.C.C.C.C.C.C.C.C.C.C.C.C.C.C.C.C.C.C.C.C.C.C.C.C.C.C.C.C.C.C.C.C.C.C.C.C.C.C.C.C.C.C.C.C.C.C.C.C.C.C.C.C.C.C.C.C.C.C.C.C.C.C.C.C.C.C.C.C.C.C.C.C.C.C.C.C.C.C.C.C.C.C.C.C.C.C.C.C.C.C.C.C.C.C.C.C.C.C.C.C.C.C.C.C.C.C.C.C.C.C.C.C.C.C.C.C.C.C.C.C.C.C.C.C.C.C.C.C.C.C.C.C.C.C.C.C.C.C.C.C.C.C.C.C.C.C.C.C.C.C.C.C.C.C.C.C.C.C.C.C.C.C.C.C.C.C.C.C.C.C.C.C.C.C.C.C.C.C.C.C.C.C.C.C.C.C.C.C.C.C.C.C.C.C.C.C.C.C.C.C.C.C.C.C.C.C.C.C.C.C.C.C.C.C.C.C.C.C.C.C.C.C.C.C.C.C.C.C.C.C.C.C.C.C.C.C.C.C.C.C.C.C.C.C.C.C.C.C.C.C.C.C.C.C.C.C.C.C.C.C.C.",
"C.C.C.C.C.C.C.C.C.C.C.C.C.C.C.C.C.C.C.C.C.C.C.C.C.C.C.C.C.C.C.C.C.C.C.C.C.C.C.C.C.C.C.C.C.C.C.C.C.C.C.C.C.C.C.C.C.C.C.C.C.C.C.C.C.C.C.C.C.C.C.C.C.C.C.C.C.C.C.C.C.C.C.C.C.C.C.C.C.C.C.C.C.C.C.C.C.C.C.C.C.C.C.C.C.C.C.C.C.C.C.C.C.C.C.C.C.C.C.C.C.C.C.C.C.C.C.C.C.C.C.C.C.C.C.C.C.C.C.C.C.C.C.C.C.C.C.C.C.C.C.C.C.C.C.C.C.C.C.C.C.C.C.C.C.C.C.C.C.C.C.C.C.C.C.C.C.C.C.C.C.C.C.C.C.C.C.C.C.C.C.C.C.C.C.C.C.C.C.C.C.C.C.C.C.C.C.C.C.C.C.C.C.C.C.C.C.C.C.C.C.C.C.C.C.C.C.C.C.C.C.C.C.C.C.C.C.C.C.C.C.C.C.C.C.C.C.C.C.C.C.C.C.C.C.C.C.C.C.C.C.C.C.C.C.C.C.C.C.C.C.C.C.C.C.C.C.C.C.C.C.C.C.C.C.C.C.C.C.C.C.C.C.C.C.C.C.C.C.C.C.C.C.C.C.C.C.C.C.C.C.C.C.C.C.C.C.C.C.C.C.C.C.C.C.C.C.C.C.C.C.C.C.C.C.C.C.C.C.C.C.C.C.C.C.C.C.C.C.C.C.C.C.C.C.C.C.C.C.C.C.C.C.C.C.C.C.C.C.C.C.C.C.C.C.C.C.C.C.C.C.C.C.C.C.C.C.C.C.C.C.C.C.C.C.C.C.C.C.C.C.C.C.C.C.C.C.C.C.C.C.C.C.C.C.C.C.C.C.C.C.C.C.C.C.C.C.C.C.C.C.C.C.C.C.C.C.C.C.C.C.C.C.C.C.C.C.C.C.C.C.C.C.C.C.C.C.C.C.C.C.C.C.C.C.C.C.C.C.C.C.C.C.C.C.C.C.C.C.C.",
"C.C.C.C.C.C.C.C.C.C.C.C.C.C.C.C.C.C.C.C.C.C.C.C.C.C.C.C.C.C.C.C.C.C.C.C.C.C.C.C.C.C.C.C.C.C.C.C.C.C.C.C.C.C.C.C.C.C.C.C.C.C.C.C.C.C.C.C.C.C.C.C.C.C.C.C.C.C.C.C.C.C.C.C.C.C.C.C.C.C.C.C.C.C.C.C.C.C.C.C.C.C.C.C.C.C.C.C.C.C.C.C.C.C.C.C.C.C.C.C.C.C.C.C.C.C.C.C.C.C.C.C.C.C.C.C.C.C.C.C.C.C.C.C.C.C.C.C.C.C.C.C.C.C.C.C.C.C.C.C.C.C.C.C.C.C.C.C.C.C.C.C.C.C.C.C.C.C.C.C.C.C.C.C.C.C.C.C.C.C.C.C.C.C.C.C.C.C.C.C.C.C.C.C.C.C.C.C.C.C.C.C.C.C.C.C.C.C.C.C.C.C.C.C.C.C.C.C.C.C.C.C.C.C.C.C.C.C.C.C.C.C.C.C.C.C.C.C.C.C.C.C.C.C.C.C.C.C.C.C.C.C.C.C.C.C.C.C.C.C.C.C.C.C.C.C.C.C.C.C.C.C.C.C.C.C.C.C.C.C.C.C.C.C.C.C.C.C.C.C.C.C.C.C.C.C.C.C.C.C.C.C.C.C.C.C.C.C.C.C.C.C.C.C.C.C.C.C.C.C.C.C.C.C.C.C.C.C.C.C.C.C.C.C.C.C.C.C.C.C.C.C.C.C.C.C.C.C.C.C.C.C.C.C.C.C.C.C.C.C.C.C.C.C.C.C.C.C.C.C.C.C.C.C.C.C.C.C.C.C.C.C.C.C.C.C.C.C.C.C.C.C.C.C.C.C.C.C.C.C.C.C.C.C.C.C.C.C.C.C.C.C.C.C.C.C.C.C.C.C.C.C.C.C.C.C.C.C.C.C.C.C.C.C.C.C.C.C.C.C.C.C.C.C.C.C.C.C.C.C.C.C.C.C.C.C.C.C.C.C.C.C.C.C.C.C.C.C.C.C.",
"C.C.C.C.C.C.C.C.C.C.C.C.C.C.C.C.C.C.C.C.C.C.C.C.C.C.C.C.C.C.C.C.C.C.C.C.C.C.C.C.C.C.C.C.C.C.C.C.C.C.C.C.C.C.C.C.C.C.C.C.C.C.C.C.C.C.C.C.C.C.C.C.C.C.C.C.C.C.C.C.C.C.C.C.C.C.C.C.C.C.C.C.C.C.C.C.C.C.C.C.C.C.C.C.C.C.C.C.C.C.C.C.C.C.C.C.C.C.C.C.C.C.C.C.C.C.C.C.C.C.C.C.C.C.C.C.C.C.C.C.C.C.C.C.C.C.C.C.C.C.C.C.C.C.C.C.C.C.C.C.C.C.C.C.C.C.C.C.C.C.C.C.C.C.C.C.C.C.C.C.C.C.C.C.C.C.C.C.C.C.C.C.C.C.C.C.C.C.C.C.C.C.C.C.C.C.C.C.C.C.C.C.C.C.C.C.C.C.C.C.C.C.C.C.C.C.C.C.C.C.C.C.C.C.C.C.C.C.C.C.C.C.C.C.C.C.C.C.C.C.C.C.C.C.C.C.C.C.C.C.C.C.C.C.C.C.C.C.C.C.C.C.C.C.C.C.C.C.C.C.C.C.C.C.C.C.C.C.C.C.C.C.C.C.C.C.C.C.C.C.C.C.C.C.C.C.C.C.C.C.C.C.C.C.C.C.C.C.C.C.C.C.C.C.C.C.C.C.C.C.C.C.C.C.C.C.C.C.C.C.C.C.C.C.C.C.C.C.C.C.C.C.C.C.C.C.C.C.C.C.C.C.C.C.C.C.C.C.C.C.C.C.C.C.C.C.C.C.C.C.C.C.C.C.C.C.C.C.C.C.C.C.C.C.C.C.C.C.C.C.C.C.C.C.C.C.C.C.C.C.C.C.C.C.C.C.C.C.C.C.C.C.C.C.C.C.C.C.C.C.C.C.C.C.C.C.C.C.C.C.C.C.C.C.C.C.C.C.C.C.C.C.C.C.C.C.C.C.C.C.C.C.C.C.C.C.C.C.C.C.C.C.C.C.C.C.C.C.C.C.",
"C.C.C.C.C.C.C.C.C.C.C.C.C.C.C.C.C.C.C.C.C.C.C.C.C.C.C.C.C.C.C.C.C.C.C.C.C.C.C.C.C.C.C.C.C.C.C.C.C.C.C.C.C.C.C.C.C.C.C.C.C.C.C.C.C.C.C.C.C.C.C.C.C.C.C.C.C.C.C.C.C.C.C.C.C.C.C.C.C.C.C.C.C.C.C.C.C.C.C.C.C.C.C.C.C.C.C.C.C.C.C.C.C.C.C.C.C.C.C.C.C.C.C.C.C.C.C.C.C.C.C.C.C.C.C.C.C.C.C.C.C.C.C.C.C.C.C.C.C.C.C.C.C.C.C.C.C.C.C.C.C.C.C.C.C.C.C.C.C.C.C.C.C.C.C.C.C.C.C.C.C.C.C.C.C.C.C.C.C.C.C.C.C.C.C.C.C.C.C.C.C.C.C.C.C.C.C.C.C.C.C.C.C.C.C.C.C.C.C.C.C.C.C.C.C.C.C.C.C.C.C.C.C.C.C.C.C.C.C.C.C.C.C.C.C.C.C.C.C.C.C.C.C.C.C.C.C.C.C.C.C.C.C.C.C.C.C.C.C.C.C.C.C.C.C.C.C.C.C.C.C.C.C.C.C.C.C.C.C.C.C.C.C.C.C.C.C.C.C.C.C.C.C.C.C.C.C.C.C.C.C.C.C.C.C.C.C.C.C.C.C.C.C.C.C.C.C.C.C.C.C.C.C.C.C.C.C.C.C.C.C.C.C.C.C.C.C.C.C.C.C.C.C.C.C.C.C.C.C.C.C.C.C.C.C.C.C.C.C.C.C.C.C.C.C.C.C.C.C.C.C.C.C.C.C.C.C.C.C.C.C.C.C.C.C.C.C.C.C.C.C.C.C.C.C.C.C.C.C.C.C.C.C.C.C.C.C.C.C.C.C.C.C.C.C.C.C.C.C.C.C.C.C.C.C.C.C.C.C.C.C.C.C.C.C.C.C.C.C.C.C.C.C.C.C.C.C.C.C.C.C.C.C.C.C.C.C.C.C.C.C.C.C.C.C.C.C.C.C.C.",
"L L z L z Q z L L z L L z L z z z L z Q z L L z L L z L L L z L L L z Q z L L z L L z Q z L L z z Q z L L z L L z L L z L z L L Q z L L z L L z L L z o . . . . . . . . . . . . . . O + $ + $ + $ + + $ + # # $ # # + # # $ # # $ # # # # # # # z L z L L z L z R L L z L L z z L L L z L L z L z L z Q z z L z L L z L z Q z L L L z L L z L L z L L z L L z L z Q z z L L z L L z Q z L z L L L L z L z L z Q z L L z L z Q z L L z z L L z L L z L L z L L z L z L z Q z L z L L z Q z L L z z L z Q z L L z L L z L L z z # + + $ + + $ # # # $ # # # # z L R L L L L L z L L z L L z z L L L L z L z Q z L L z L z z Q z L z L L z L L z L L z L L z L L z Q z L z L L z Q z z z L L L z L z Q z L L z L L L z z L z Q z L L z L L z L L L z L z L L z L z L z Q z L L z L z L L z L L z Q L L z L L z z z Q z L L z L L z z Q z L L z L L z L L z L L z L L z L - # # # # # # # $ # # $ + $ # # + + # # $ # # $ # # + $ # $ # # + O $ # # $ # # $ # # # # # # # # $ O $ O $ O $ O $ O $ O ",
"Q L L L R L L ! L L R L R R L L R R L L R L R R R R R R R n z R L L L L L L L L L L L L L c R L Q L R R L L L L R R L L L L R R L L R L L R L L R L L O X X X . . X X X . X X X X . O $ $ $ # # # $ $ # $ # $ # + $ $ $ $ O $ $ # $ $ # $ $ # $ R R R R n Q R R R R R R R R R R R R R R R R R R Q L L Q L L L L R R L L L L R R L R R R L z L L R L R R L R R R L L ! - L L L L R R R L R L R L Q L L L R L L R R R R R R R R R R R R R R R R R R R R R R R R R L z L L R R R L R L L L R L L f z R R R L L R L R R L L R L L # $ # $ $ # $ # $ # $ # $ $ & L L R R R R R R R R R R R R R R R R Q L L L L L L ! Q L L z z Q L L R L L L L L L ` L R z c R R L R R R R R R R R R R R R R R R R R Q L R R L L L L R R L L L L R R R R R R R R R L L R R R R R R R R R R R R R L z R R R R R R R R Q L L L R L L ! R R R R R R R R R R R R R R R R L L R L R R L R Q L Q z # $ $ # # $ # $ # $ # # # $ O # # $ # $ # $ # # $ # $ # $ @ # # $ # $ # $ # $ # # # $ $ $ # $ # $ # $ # # $ # $ $ # $ # ",
"z z z z L z z L z f L z z z z z z L f L z L z z L z f z z n z L L L L z L L L z L L L z z L L z z z z z L z L z L z L z L z L z z z L z z L z f L z z . . .   . . . . . . . . . . X O # # # # # + + # # + # # # O O O O # O # # O O # # O # # # f z n z z z L z z z z f z z z f z z z f z z z f z L L z L z L z L z L z L z L z z f z z L z L z z L z z f L z z L L z L z z L L z z z f z z L z z z z z L z z L L z f z z z L z z f L z f z z z z f z z z z z f L z L L z z z f z z L L z L z L L z z z z f L z z z z z L z f # # # O # # O # # # # # # O $ z L z z z z z z z z z z z z z z z z z z L z L z z L - L L L L z z L L L L z L z L z L z z L z z L z z z z f z z z f z z z f z z z f z z L z L z L z L z L z L z L z z z z z z z f L f z z z z f z z z z z z z z f f z z z f z z z f z z z z L z z L f L z z z z f L z z f L z z z z L z z L z z f L z z z 4 # # # # # # # # # # # # # # # # # # # # # # # # # # # # # # # # # # # # # # # # # # # # # # # # # # # # # # # # # # # # ",
"z z L L f L z L z L z z L L z f z z L z z z z L f z f L z n z L z z f z z z f z z z f z z L f z L z L z f z f L z z z z f L z z L f L z z z L L L z - o   . . . . . . . . . . . . . O # # # # # + # # # # # # # + $ # # # # # # # # # # # # # # f n L z z L z z z z z L z z z L z z z L z z z L - L z z f z f L z z z z f L z z z L z z c z z z z f z L z z z f z z z z z L z z z L z L L z f z z z L L L z L z f z f L z z z z z z z z f L z z z L z z z L f L L - z z z L z L L z z z z L z z z L z z z L z z L L z f z z : # # # # # # # # # # # # # # $ z z z z L f z z L f z z L f z z L f L L z z f L z L z z - L - L z - z z z z z z - L f z f L z z z z z z z L z z z L z z z L z z z L f L z z f z f L z z z z f L z z L f L z z f z z f L z L z L z z z z L f L f z L z z z L z z z L z z L L f L z L z z z f z z L z z z L z z f z z f z f L z z L z z z z 4 # # # # # # # # # # # # # # # # # # # # # # # # # # # # # # @ # # # # # # # # # # # # # # # # # # # # # # # O # # # # # ",
"L z z z z z z f z f L f z z z L L z f z L L z z L z z z z n z L z L L z z L L z z L L z z f L f z z L z L z z z z L L f z z z L z z f z L z z z z z z o . . . . . . . . . . . . . . O # # # # # # # # + # # # # O # # # # # # # # # # # # # # # f z f z z z z L L z z f L z z f L z z f L z z f L z z L L z z z z L L f z z z L z f L f L f L f z L z z f L z L z L L z L - L z z z z f L z L z L z z z - z L z L z z z z z L f z z L f z z z z z f L f z z z z L L f L z z z f L z f L z z f L z z z L z f L f z z z L L z z # # # # # # # # # # # # # # # L f f L z z f L z z f L z z f L z z z z z L z z z f L z L z L z z L z L L f L f L z L z z c L f L f L z z f L z z f L z z f L z z f z z z L L z z z z L L f z z z L z z f z z L L f L z z f z f L f f L z z f L z f L z z f L z z f L z z z z z z f f L z L z z f z z z f z z L z z L z z z L z f z L z z 4 # # # # # # # # # # # # # # # # # # # # # # # # # # # # # # # # # # # # # # # # # # # # # # # # # # # # # # # # # # # # ",
"f L f L z z z L z L f L z z z z z z z z f L f z f z z z f L f L z z z L f z z z z z z L z z L L z L f z z L f z f L f L z z z L L f z f L z L z z L f o . . . . . . . . . X   . . . O O # # # # # # # # # # # # # # # # # # # # # # # # # # # # f z z f L z L z f L f z z L f L f L f z z L f L z L f z z L f z f L f L z z z L z L f L L z L z L f z z L f z z z L z L L z z L L z L f f z z z L z L z L f z z f z z z f L f L f L f L z z z L z L f L z z z z z L z L z L f L f L f z z z L z L z z L f z z L L z L z z z - O O # # # # # # # # # # O # $ z L z f z z L f z f z f z z L f z f f L f L z z z L L f z z z f z f z z z z f L f z z z L L L z L z f L f z z L f L f L f z z L f L z L f z z L f z f L f L z z z L L f z f L z z f f z z L f z z L z f z z z L f L f L f z z L f L f L f L z z z L z z L z z f z f z f z f L z L f f z z z f L f L z z z - # # # # # # # # # # # # # # # # # # # # # # # # # # # # # # # # # # # # # # # # # # # # # # # # # O # # # # # # # # # # ",
"z z z z L f z f z f z z L f L f L f L f z z L z L z L f z z z z L f z f L z L f L f z f f L c z L - L z z f L z z z z z L f z f z z z L f z f z z z z o . . . . . . . . . . . . . . O # # # # # # # # # # # # # O # # # # # # # # # # # # # # $ f z z L f z f z z z L z z f z z z z L z z f z z z f L z z f L z z z z z L f z f z f z z c z f z z z f L z z f L L - z z z z L - f z z z L z L f f z f z z L f L L z L f z z z z z z z z L f z f z f z z L f L f L - z z z f z z z z L z f L f z L z z f L z z f f z f z z L - # # # # # # # # # # # # # # $ L - z L f L z z z L z L f L z z z L z z z z L f z f z z z L z L z L L f L f z z L z f L f z f z f z z z L z z f z z z z L z z f z z z f L z z f L z z z z z L f z f z z z L f f L L f L z f L z z f z L f L f L z z z z L z z f z z z z z z L f z f f L f z z L z L z L z L f z z z L z L f z z z z z L L : # # # # # # # # # @ # # # # # # # # # # # # # # # # # # # # # # # # # # # # # # # # # # # # # # # # # # # # # # # # # # ",
"z L f z f L z L z L z z f z z L f z z L z z f z f z f L z L L L f L z L f z f L f L z L z z c L z z z z z z z z z L f z f L z L L f L z z z L f L L - o   . . . . . . . . . . .   X O O O # # # # # # # # # # # # # O # # # # # # # # # # # # # f z L z z z L f z z f z z L z z z z f z z L z z z z z z z z z z z L f z f L z L z L z z L f L f L z L z L z L z z f L - z L z f z f L f f z f L z z L f L z z z f z f L z L f z z L f z f L z L z L z z f z z L L z L - z L z z z z f z z z z f - L f L f L f L z z L f z z f O # # # # # # # # # # # # # $ - L L z z z L f L z L z z z L f L z z L f z f L z L L f z z L f z z f z z L z z f z z z f L z z L f z z f z z L z z z z f z z L z z z z z z z z z z z L f z f L z L L f L z z z c z L L f L f L f L L z z z L f z z z z f z z L z z z L f z f L z L z z z f L f z z L f z z z f L f f z f L z L f z L z f : # # # # # # # # # # # # # + # # # O # # # # # # # # # # # # # # # # # # # # # # # # # # # # # # # # # # # # # # # # # # ",
"z f L z z z z f z f L f L z z f L z z f L f L z L z z z z f z z z z z f L z z z z z z f z f L z L f L f L f L f z f L z z z z f z z f z f L z z z z - o . . . . . . . . . . . . . X O # # # @ # # + # # # # # # O # # # # # # # # # # # # # # # f z f z f L z z L f L z z f L f L f L z z f L f L f L f L f L f z f L z z z z f z f L f L z z z f z f z f z f z z L z L z L z L z L z z L z z z f L z z f z f L L z z z z f L z z f L z z z z f z f L f L z z f - L z L z f L f L f L z f L z L L z z z z z z z f L z z L z f # # # # # # # # # # # # # # $ L L f z f L z z f z f z f L z z f z z f L z z z z f z z L L z z f L L z z f L f L z f L z z f L z z L f L z z f L f L f L z z f L f L f L f L f L f z f L z z z z f z z f z f L L z f z z z z z z z f z f L z f L f L f L z z f L f z f L z z z z f f L z L z z f L z z f L z L z z L z z z z f L z z z L : # # # # # # # # # # # # # # # # # # # # # # # # # # # # # # # # # @ # # # # # # # # # # # # # # # # # # # # # # # # # # ",
"z z z L z z L z L z L f z L f L f L f z f z z z z z z L z n z L z L f z z z z L z z L z L f f z z f z f z f z f z L f z z z z L L f z f z z L f z z z o   . . . . . . . . . . . . . O # @ @ # # # # # # # # # # # # # # # # # # # # # # # # # $ c L z z L f z f f z z L f L f z z L f L f z z L z z z z z z z z z L f z z z z L f z z z L f L f L z L z L z L z L f z z L L - L z z L z z L f z z f z z z z L z L z L f f z z z z z z L z L f L f L f z z L f L L L L z z L z L z z L z L f z z L z L z L z L z z z L f z f - O # # # # # # # O # # # # + $ z z z z L f z f z z L f z f z z L f z z z L L f z f z f z z z z L z f L f z z L f L f L f z L f z f f z z L f L f z z L f L f z z L z f z f z f z L z L f z z z z L z z L z L f L f L z z z z z z z z z L f z c z L z L f L f z z L z z z L f z z z z z z L z z L z L z L f L f z f z f z z f z z z z L L : O # # # # # # # # # # # # # @ # # # # # # # # # # # # # # # # # # # # # # # # # # # # # O # # # # # # # # # # # # # # # ",
"L f z f f L f z f z z z z f z z z z L z L z L f L f z f n n z L z f L z L f z f f L f z z z L f z L z L z L z L z f L z L f z f z z z L f L z z z z u o . . . . . . . . . . . . . . O @ # @ # # # # # # # # # # # # # # # # # # # # # # # # # # f z f L z z z L L z z f z z L z z f z z L z z f L f L f L f L f z f L z L f z f L z L f L z z z f z f z f z f z z z f L z z L z L z f z z f L z z L f L f L f z f z z z L z L f L f z f z f z z z z L z z f z z L z z L L - z z f L f z z z f L f z f z f z f z f L z z z L f # # # # # # # # # # # # # # # L f f L z z z L f L z z z L f L z z L f z f z z z L z L z L f L f z z z L z z f z z z z f L z z z L L z z f z z L z z L z z L z z f z L z L z L z z z f L z L f z f f L f z z z z f f f L f L f L L f L z z z L z f z f z z L z z f L f z f L z L f L f z f f L f z f z z z z z z L z L f L L z L f L - z - # # # # # # # # # # # # # # @ # # # # # # # # # # # # # # # # # # # # # # # # # # # # # # # # # # # # # # # # # # # # # ",
"f L z L z z z f z f L f z L z z z z f z f z f L f L z L f n z f z z z z f L z L z z z L L z L L L f z z L f z z z z z z f L z L L f L L z f z f L z - o   . . . . . . . . . . . . . O # # # # # + # # # # # # # O # # # O # # # # # # # # # O # f z z z L f L z f L f L z z f z z L z L f L f L f z z L f z z L z z z z f L z L L z z n c z z f z z L f z z z L L z L z L z z z L z z z z z z z L z z z z z z f z f L f f z f L f L z L z L z L z z f z z L z z - L L - z z L - z z z L L z L z z z L f z z L f z f z f z z 4 # # # # # # # # # # # + # # $ z L z f z f L z z z L f z z z f z f f L z L L f z z z z z L z z z f z z f z z L z z z f z L L f z z f L f L z z f z z z L z f L f L L f z z L f z z z z z z f L z L z z z z L z L L L f z L f z z z z f z f z f z L z L z z f L f L f L z L f z f L f L z L z z z f z f L f L f z z L z z z f z f L z z z : # # # # # # @ @ @ # # # # O @ # # # # # # # # # # # # # # # # # # # # # # # # # # # # # # # # # # # # # # # # # # # # # ",
"z z z f f L z L z L z z z f L L L f L z L z z z z z z f f R z L L f L f z z z f f L z z f z c z z z f L z z L z L f L f z z z f z z f - z L z L L z z o . . . . . . . . . . . . . . O # # # # # # # # # # # # # + # # # # # # # # # # # # # # $ f z f L z z f z z z z z L f L z z L z z z z z z L z z f L z z f L f L f z z z f z z z f L f z L f L z z f L z L f z f z z L - L z z L z L f L f f z f L f L z L z L z z L z z z z z z f z L z z L f L z z f L f Q - z L L L z L f L z z f z f z f L z z f L L - z L z L L z 4 # # # # # # # # # # # # # + $ z f z L z L f z f L z z L L z L z L z z z f z z L L L L z z f L z L L f L z z L z z z L z c z z L L z z z z L f L z L z z z z z z z z z f L z z z n L f L f z z z f f L z z f z c z L z z f L z L z z L z L L L z f z f L L z z z z z z z f L z z z z z z f f L z L z L z z z z L L f z f L L z z z L f L : # # # # # # # @ # # # # # # @ # # # # # # # # # O # # # @ # # # # # @ # # # # # # # # # # # # # # O # # # # # # # # O # ",
"z L z L f z z z L f f z z L z z f z z z L f f z z L z L z z f z f L f L z z z L z z L z z z L z L f z z z z z z z z f L z L z z * L L L L z L L z z - O   . . . . . . . . . . . . . O # # # # # # # # # # # # # + # # # # # # # # # # # # # # # f z L f z z L f L z L * f z z L z z L z L z f L f z z L z L f L z z z z z z z L z L z f z f L z z f z z L f z z z f z L z z L - f f n z z z z z z z z L f z z z L f f f z z f z z L z L f z z z f z z z L f z L L L L z - L z z L f z z L z z z z z z L * L L L z L L L z z - # # # # # # # # O # # # # # % f L L z z f z f z z L f z z z f z f z L L f z z z z z z z L z z z z f z z z L f f n L f z L f z z z L z f L f L f z f f n z z z z z L z z L f z z f n f z z z z z L z L z f z z f L f z L f z z L z L z L z f f z L z z L z z f z f z L z L f z L z z L z L f z z z L f f z z L z z z z z L z z L z L z z - # # # # # # # @ # # # # # # # # # # # # # # # # # # # # @ @ # # # # # # # # # # # O # # # # # O # # # # # # # # # # # # ",
"z f z z L z f L n n L z n f L z L z f L n z L z n f n n f R f R n z z z L f z f f L f n L z f z f f f f f z f f f f f - - L z z L c z z z L - * z z - . . . . . . . . . . . . . . . O # # # # # # # # @ # # # # O # O O O O O O O O O O # O O O f z f L z z c L - z L L z z z f n f n n z n z z n n n z z L z z n y R f L f z f n z z R z L f z z L f R z z n n z L z - L z z L R z n n L f L f f L z L L z f L z z R z n n L z z z z z R z n n L z f L n n z f z z z L L z z L z L z L z z L L f z z f L c z z z L - * z z - # O O # O O # O O O + O O # # z z z n n L z L f R z z n n z L z L z f z z f L n n f L z L z L f L L z f L z z f R n z f L f L n n z n z z z z n n R z z n R f L f f n n n L z R f z f R f L f z f n n z R L f L z L z z z n f n n z n z n z L z f n f z n z L z L z f z z L z z z z f z z L z f L n n L z z z n n z L L L z L L L z z L - # # # # # # # $ # # # # # # # # O O # O # O O O O # # O @ @ # # $ # # # # # # # # @ # # # # O O O # O O O O # O # O O O ",
"z z L f f z z z z z z z z f z z f z z z z f z z z f z z z L f c z z f z z z z L z z L z z #.,.,.<.<.=.=.=.=.=.=.=.=.1.=.& $ $ $ $ $ $ $ # $ $ $ $ $ # O X     X . X . X . . . . . . $ z - - - - z - - f z - z : z : : : - - : : - - & : - : : - # $ $ $ $ $ $ $ $ $ $ $ $ $ # z z L L z z L f z z f z L f z L z z L z L L z z L f z z f L f f z z z y n f z z f L f z L z z L z f z z f f z z L z z z z f z z z L f z z z z z z L z L f f z L f f z z z z z z L z $ & $ $ % % $ & $ $ & $ $ & $ $ $ # $ $ $ $ $ # $ $ $ $ $ $ & : : : & - - : : : : - - : : z f z L z z L z f n f z z f L z z z z z L f z z L f z z L z z f z z f f z z L f z z z f z z z z L f z L f z z f z L L f z f f f z L f L z z f z z z z z z L L z z L f z z f f z L f L z L f z L L z z L f z z f z L z L L z L f f z z z L f z z L f z z L f f z z z z z z z f $ $ % $ % $ $ $ % $ $ % $ % $ - - - - z : - - - - - - - - * * : : : - * * : : : & - - : : z - - - u : - - - z - f - - - - : : : : - - : : : & - - : : ",
"L c c L L f L c L L L c L L z L L f L c L L L c L L L f z z z L L L L c L f L c f L c L z =.V.V.V.V.n.n.V.V.V.V.n.n.m.n.$ O O O # O O # # O # O O # O . . . . . . . . . . . . . . . & L L Q z L L L L L z L z L L L L L L L L L L L L L L L L - # # O + O + O O O O # O O # O z f L f f L f L f L L L z L z f c L z f L f f L f L c L L f z L c L L L z L f L L f L L z z f L L L f L L f L f L L c L f L f L c c L L f L L L c c z c L f z c L L f L c L L L c L # + + O # O O # # O # # O O # O # # O # O O # # O # # O # # z z L L L L L L L L L L L L z L L f L f L c z L z L f L L f L f L L c f L L f f L L f f z z L L f z L L c f L L f L L z c L f f L L f L f L L L z z f L L z z c L z z L L L c L L z L f L f f L f L f L L f L c L z c L z f L f f L f L f L L f f f L f c L z L z L c c L L f z L L c c L L f L c L L L c f O + # + # + + + # + + + O # $ L L L L z L L L L Q L L L R L - L L L L L - z L L L L L L L z z Q z R z L L L L L z L L L L L L L L L L L z L L L L z L ",
"L z L z L z L z L z L z L z L z f L f L f L f L f L f L f L f L f z z L f L f z f z z z z =.n.v.v.v.g.v.v.v.v.v.v.r.v.g.% O # # # # O + @ @ # # # # # X . . . . . . . . . . . . . . : Q - L z L L z L z L z L z L z L z z f z f z z z z z z L - # # # # # # # # O # # # # # # f z z z L f L f z z L f L f z z L f L f z z L f L f L f z c z L z L f z z L z L f L z z L z L z L z - L z f z z z z z z z z z z z z z z z z z z z L z L z L z L z L z L z L z - L L # # # # # # # # # # # # # # # # # # # # # # # # # # # # # # L f z z z z L f z z z z L f z z z z L f z z z z L L f z f z z L f f L f L f L - L z z L - f L f L L z L z L z L z L z - L f L f L f L f z z L f L f z z L f L f z z L f L f z z L f L f z z L f L f L f z L f z z L f f z z z z L L f z f z L L f z f z z L f z f L z L z L z L z L z L z L z L z f L f L c # # O # # # # # # # # + # # $ L z L f z L f L f z z L f c z z L f z f z z L f z f z z c z L z L f z z L z L f z z L z L f z z L z L f L f z f z z L f ",
"f z f z f z f z f z f z f z f z z z z z z z z z z z z z z z z c L z z f z z L z L z L f f 1.v.v.g.v.a.v.v.r.p.v.v.v.v.g.$ O # # # # $ + # # # # # # # X . . . . . . . . . . . . . . & - z z L - f z f z f z f z - z c L z L z L L f L f L L z L # # # # # # # # # # # # # # # z z z z f z z L z z f z z L z z f z z L z z f z z z z L z L z - L z z f L f z z z z L L - z z L - z L z L L z L f L f L f L f L f L f L f L f L f f z f z f z f z f z f z f z L c L # # # # # # # # # # # # # # # # # # # # # # # # # + # # # # z L z L f z f L z L f z f L z L f z f L z L f z f z z z L f L z z z z z z z z L z L L z L z z z z f z f z f z f z f z L c z z z z z z L z z f z z L z z f z z L z z f z z L z z f z z L z z f z z z z L z z z L f L z L z L f z f z z z L z f z z z L f L z z z L f z f z f z f z f z f z f z f z z z z z - # # # # # # # # # # # # # + $ L z z z z f z z L z z f z L - L z z z L f L z z z L f L L z f z z z f L f z z z f L f z z z f L f z z z z z z L f L z z ",
"z z L f z z L f z z L f z z L f z L f z z L f z z L f z z L z L f L f L z z f z f z f L f <.n.v.v.v.v.v.v.v.v.v.v.v.v.v.% # # # # # # # O # # # # # # X . . . . . . . . . . . . . . $ L L z L L z z L f z z L f L z L - L f z z f z z L f z z - # # # # # @ # # # # # # # # O f L L f L z z f z z L z z f L f L z z f z z L z z z z f z f z z z L z L z z f L f L - z L L z L L f L z L f z f L f z z L f z z L f z z L f z z L z z L f z z L f z z L f z z L L L # # # # # # # # # # # # # # O # # # # # # O # # # # # # # # L f z f L z z z z f L z L f z f L z z z z f L z L L f L z z f z f z L f z z L L z - L z z z L f z z z L f z z L f z z z L z L f z z z f z z L z z f L f L z z f z z L z z f L f L z z f z z L z z z z f z L f z f c z z z f L z L L f L z L L f f L z z z L f L z z z L f z z L f z z L f z z L f z L f z - + # # # # # # # O # # # # # $ z f L f z L z z f L f L z f L z L f L z z f z f L z z z L z n z L z L z z f L f z z z f L z L z z f L f L f L z z f z f ",
"f L z z f L z z f L z z f L z z z f L z z f L z z f L z z f z c z z z z L f L z L z z z f <.n.n.v.v.r.v.v.p.v.v.v.p.v.r.% O # # # # # # # # # # # O $ X . . . . . . . . . . . . . . : L - L z z f L z z f L z z f L c L z z f L L z z f L z L - # # # # # # # # # # # # # # # z z z z z L f L z z f L f z z z z L f L z z f L f L f L z L f L f f z f z z L z z z z L - - L z z z z L - L z z z L z z f L z z f L z z f L z z f f L z z f L z z f L z z f L - L z # # # # # # # # # # O # # # # # # # # # # # # # # # # # # # z L z z z L f L f z z z f L z z z L f L f z z z f z z f z z L z L z f L z z f z L L z L z z f L z f L z z f L z z f L f L z f L z L f L z z f L f z z z z L f L z z f L f z z z z L f L z z f L f L f L z z f L L L f L f z z z f z z f z f z z L f z f L z z f z f L z z f L z z f L z z f L z z z f L c f + # # # # # # # # # # # # O $ z L z z z f L f z z z z z L f L z z f z z L z L f z f L L z n f f z f z z L z z f L z L f z f z z L z z z z f z z L z L ",
"z f z z L f z f z f z z L f z f z z z L f z z z z z z L f n z L z z z z f L f z f z z z z =.v.v.p.v.v.v.v.v.v.r.a.v.v.v.$ O O # # # # # # # # # O $ # X . . . . . X . . . . . . . . & Q f L - L z f z z L f z f z f L f z z L z f L f z z L z L # # # # # # # # # # # # # # # z z z z z f L f z z L f L z z z z f z z L f z z L f z z L c z z L z f z f L z L f L z L L L z z L z L f z z L f z f L f z z L f L f L f z z L f L z f z z L f z f z f z z L f z c L $ # # # # # # # # # # # # # # # # # # # # # # # # # # # # # L f z z z f L f L z L f z z L f z f L f L z z z L L f z f L z L z z z z L z L z - z - L z f z z z z f z z L f z f z f z L f z z z f z z L f z z L z z z z f L f z z L f L z z z z f z z L f z z L f z z L f z c z f L f L z z z L L f z f f L L z z z L f z z L f z f z z L f z f z f z z L f z f z z z L * # # # # # # # # # # # # # O $ L z L f z L f L z z z z L c L f z z L f L z L z z f z z L f z L f L f L L f z z L f z z z f z f L z L f L f z f L z L z ",
"z L f L z z z L z L f L z z z L L f z f L z L f L f z f L z z L L f L f z z L z L z L f z =.v.v.v.v.r.v.v.p.v.v.v.v.g.g.% O # # # # # # # # # # + + # X . . . . . . . . . . . . . . & - z z L z z L f L z z z L z L L z f L f z z z L z L - z - # # # # @ # # # # # # # # # O f L f L f z z L z z f z z L f L f L z z f L z z f L z z f L z z f z L z L f z z z - L z z - z L - z f L z z f L z z z L z z f z z z z L z L - z z z L f L z z z L z L f L z z z L z # # # # # # # # # # # # # # # # # # # # # # # # # # # # # # - L z L f z z z z z f L z z f L z z z z z L f z f z z z L f z f z L f z f L - z L z L z L L z L f z L f L z z z L z L z c L z L f L z z f L z z f L f L f z z L z z f z z L f L f L z z f L z z f L z z f L z L z L z z z L f z f z z z L z z f z f L z z f L z z z L f L z z z L z L f L z z z L L f z f * # # # # # # # # # # # # # # $ f z z z z f z z L f L f - L z L f L z z f z f z z L f L c L z z z z z z z z f L z z f L z L z L f z z z z z z L f z f z ",
"L z z z L f L z L z z z L f L z f L z L f z f L f L z L f z f L f z z L z z f z f z f L z =.n.v.r.v.v.v.v.v.v.p.v.v.v.g.< O # # # # # O # # # # @ # # o . . . . . . . . . . . . . . $ L z L L z L z z z L f L z L z f z z z z f z z f z z L L - # # # # # # # # # # # # # # # - f z z L z z f z z L z z f z z L f L f L f L f L f L f L * L - L L f z z z f L f z z - L L z z L z z z z z z z z z z f z z L z z z z f z z L L - L z z z L f L z L z z z L f f L L # # # # # # # @ # # # # # @ # # O # # # # # # # # # # # # $ - f z f L z L - L z z z z z z z z z L f z f L z L L f L z z z L f f L z L z L L - z L z L f z f L L z z z L f L z L z z L f z f L f L f L f L f L f z z L z z f z z L z z f z z L f L f L f L f L f L f L f L f z f z f z f L z L L f L z L f L f z f z f z f z f L z z z L f L z L z z z L f L z f L z L - O # # # # O # # # # O # # O $ z f L f z L z z f z z L L c z - z f z f z z L f L z z z c z f L z L f z L z L z L z L z L f z z z f L f L f L z z z L f ",
"f z f L z z f z f z f L z z f z z z z f L z z z z z z f L z z c L z z f L f L z L z z z z =.n.v.v.v.p.v.v.r.v.v.v.a.v.g.% O # # # # # # # # # # # O # X . . . . . . . . . . . . . . & L z f z L f z f L z z f z f f L z f L z L L f L z z L L - $ # # # # # # # # O # # # # # L L z z f L f L z z f L f L z z f z z z z z z z z z z z z L L L z z z f L z L z z L z L z z L z L L f L f L f L f L f L z z f L f L f L z z L z L f z f L z z f z f z f L z z z f L # # # # # # # # # # # # # # # # # # # # # # # # # # # # # # L L z z z z f L z L f L f L f L f z f L z z z z f z z f z f L z z z z z f z L z L z z L - L z z z f z f L z z f L - L L * L z z z z z z z z z z z L z z f L f L z z f L f L z z f z z z z z z z z z z z z z z L f f L L z z z z f z z f z f L z z z L z L z L z L f z f L z z f z f z f L z z f z z z z f - # # # # # # # # # # # # # O $ z L z z z f L f L z z f z L z L z L z L f L z z f z f L L z z z z f L z f z f z f z f z z z f L z L z z z z f z f L z z ",
"z z L f z f z z L f z f z z L f z L f z z z z L f z z z z L z L f L f z z L - L z - L z z =.n.v.v.a.v.a.v.a.j.n.v.v.g.g.% O O O # # # $ + + # # + + + X . . . . . . . . . . . . . . & - z L z - z z L f z f z z L f L z L f z z f z z L f L f - # # # # @ @ # # # # # # # # @ z f z z L f L f z z L z z z L z L L z L z L z L z z z z z L z L z L f z z L z L f z L z - L z L z z z z z z L L z f z z L f L f z z L - L z z z z z z L f z f z z z z L L z z f L L $ # # # # # # # # # # # # # # # # # # # # # # # # # # # # # - L z z z L z L z f L f L L z z z z z z L z L z z z z L f L f z f z L f z z z z L L z L L - L - L z z L f z f z z L f z c z L f z L z L z L z L z f z z L f L f z z L f L f z z L L z L z L z L z L z L z L z z f L f f z z z z L L f z f z L L f L z L z L z L z z z L f z f z z L f z f z z L f z L f z - O + # # # # # # # # # # # # $ z L f L f L f z z L f L z f L z L z L z z z L f z f z z f z z z z L f z L z L z L z L z L z L f L f z f z f z z L f z f ",
"f L z z z L f L z z z L f L z z z f L z L f z f L z L f z f z f z z L z z L L z z L z L z =.V.n.v.v.v.v.v.v.n.j.v.a.v.v.% O # # # # # O @ @ # # + + + o . . . . . . . . . . . . . . & R L - z L f L z z z L f L z L f z z z f L L z z f z z z f $ # # # @ @ # # @ # # # # # @ u L z z f z z L z z L z L z z z f f z f z f z f z L f L f c z f z z z f L f z z z L - z L z L - L L f L f z z z z L z z f z z L z z L L z - L L z f L z z z L f L L z z z z L L L z # # # # # # # # # # # # # # # # # # # # # # # # # # # # # # L z z L z L z z L z z z z z z L L L f z f z L z L L z z z z z z L z f L z L f z f - L z z L z L z f L z z z L f L z z z L L - L z f z f z f z f z L z z f z z L z z f z z L z z f f z f z f z f z f z f z f f L L L z L z L f z f z z z L z f z z f z f z f z f z f L z z z L f L z z z L f L z z z f L z f O # + # # # # # # # # # # O $ z f z z z z L z z f z z z L f z f z f z f L z z z L f L L z L f z f L z f z f z f z f z f z z z z z z L z L f L z z z L ",
"z f z f L z z z z L n n z f z f z z z z f L z L f z f L z z z L z z f z z z z z f L z L z =.v.v.v.r.v.v.v.a.j.n.v.v.v.g.% O # # # # # # # # # # $ + + o . . . . . . . . . . . . . . & - z L L - z f z f L z z z L - L z L z L z f L f L z z L f # # # # @ # # # # # # # # # @ z f L f L z z f z z z z z L L f L z z L f z z L f f z z L L f L f L z L z z f L f z L z L z L z z f z z L L z z L f L f L z z f z z z z z L z z L z f z f L z z z L z z z z L z - z $ # # # # # # # # # # # # # # # # # # # # # # # # # # # # % - z L z z - L z - z L f z z L z z f L z L z z z z z f L f L f L z z z z z f L z L z z - L z - L z z f z f L z z z L f - L z z z z z z L f z z L f f L f L z z f z z L z z f L f L z z L f z z L f z z L f z z c z f z z z f L z L L f L z L L f f z z L f z z L f z f z f L z z z L f L z z f z f z z z z f # # # O # # # # # # # # # # $ z L z z z z f z z L z z L c L f z z L f z f z f L z z z L f z f z z z z z z L f z z L f z f L f L f L z L z z z L f L z ",
"z L z L f z f L n f c n z L z L L f L f z z z f L z z z L f L c L f L z L z z z z z L - z =.n.v.v.v.a.v.v.v.n.n.v.a.v.a.% O # # # # # # O # # # + + + o . . . . . . . . . . . . . . * R z L z L z L z L f z f L z z c f f z f z z z z z L z z f # # # # # # # # O # # # # # @ u z z z z L f L z L z z z z z z z f L z z f L z z L z z f L z z z f z f z z L z z z L z z L - L z L z z f L z z z z z z z L f L z z z z z z L L - z L z L f z f L z z z z L - L L z # # # # # # # # # # # # @ # # # # # # @ # # @ # # # # # # # - z z z u L z z L z f L z z f z z z z z f z z z n z L z z z z f z L f L f z z z f L z L z z L z L z L z L f z f L z z L L L f L f f L z z f L z z z z z z L f L z z f L f z z z z f L z z f L z z f L z z f L L z L f L f z z z f z z f z f z z L f L z z f L z z z L z L f z f L z z f z z L z L L f L f 4 # # # # # # # # # # # # # + $ z f L f L f L z z f L f - L z z f L z z z L z L f z f L c L z L L f L f f L z z f L z z z L z z z z f z f z f L z z f z ",
"y y y 4 f y y y f f f y f c f z L z L z z z z L - L z z z L z L L z z L L z Q z L L z Q z =.v.a.r.r.j.j.j.j.j.j.j.j.j.j.% O O # # # # # # @ @ @ $ + + X . . . . . . . . . . . . . . & - - L z z L z L z z f z z * L L L L z L z L z L z f L f f # # $ # # # # @ # # # # # # # u W u z n f z z z z z z n z L z L z f z z L f z f f L f z f - L f z f z L L z L f L z z L n N z n f z z z L z z R z z z z f z z z W u u W n u z z z z z z z z z z W z z z Q n L L L # # # # # # # # # # # # # # # # # # # # # # # # @ # # # # # z u W z Q u Q W n z n z z z z z z z z R z z z N N z z z z z z L f L z L z z z z L L - L z L z L z L z L z z f z z L - L c f L - L z f z z L f z f z z z z f L f z z L f L f L f L z f z z L f z f z f z z z L f f L z z z z z z L L f z f f L L * z f z z L f z f L z L z z f z z L - L f f L - L z z z z 4 # # # # # # # # O # # + # # $ L L z L f z z L f z z L L L f f L - L f L z L z z f z z L f L z L z L z z f z z L f z f L f L f z z L f z z L f z z L f ",
"o o X X o o o o o o X o o o . & L z f z L f z f L z L f z Q =.r.r.r.6.6.r.r.r.6.r.6.r.6.r.) $ % % % $ % $ 1 2 $ $ % $ < O O # # @ @ @ @ @ @ @ @ + + O X . . . . . . . . . . . . . . & L - L L L f L - z z L f L L L f z f z f z f L - z z z z z - z z - z z z - u z z u - z z $ # $ # # # # $ # $ # # $ # # z z z L f L z z z L z z L z L L z L z L z - f z z z z z L - # $ # # # # $ # # $ # # # # $ # # # $ # # $ # $ # $ # # $ # $ # # # $ # # # # $ # # # # # f f z u u - z z u z - z z z - u u z u - - Q u z z z z L - - $ $ # # # # # # # # # $ # $ # # $ # # # # $ # $ # # # $ # # z z z f L - L L f z f z L z L f z f z f L - z z L f L z L - L z z L z z L f L z f z L L f L f z z L z z f z z z z z z z L f L z f z L z L f L z f z c f f L f L f z f z f z L z f L L z L f L z f z L f L - z z L z L z L z L z z L z L f L z : @ @ @ # # @ @ # # # # # # O $ L * f L L z L - L z L - z z c z z z z L f L - z z L f L z z c z f z f z z L f L z z z L z z z f f L z f f L z f f L z f ",
"X X . . . . X X . . . . . . . $ L f L c L c L c L c L z L L 9.m.v.v.v.v.m.v.v.v.v.v.v.v.m.) O # # # O + # # + # + + # # # # # # # # # # # # + @ $ @ $ X . . . . . . . . . . . . . . & ! L - L - L f L c L c L f - z L c L f L f L f L c L c L c L - L L z z L L L z n Q L L Q # # # # # # # # # # # # # # # 4 z L c L f L c L c c L c L f - L L L c c L L L L c L L z u # # # # # # # # # # # # # # # # # # # # # # # # # # # # # # # # # # # # # # # # # # # # # z L L z L z L z Q z L Q z L z z z Q z L L L L L z L - z L z # # # # # # # # # # # # # # # # # # # # # # # # # # # # # # L L c L f * L L * L c * L L z z L L f L f L c L c L f * L L - L c L c L f z L z L f L f z z L c L f L f L L z L f L f z f z L z L f L L f z L f L L f z L f L L z L f z L f L L c f z L f z L L L c L L f L c L f z L * L L * L c L c c L L L f # # # # # # # # # # # # # # $ L L L L c L * L c L * L L c z L L c L c L f L c L c L f L f z c L f L c L c L f L c L c L L c L L L f L L L f L L L f L ",
". . . . .   X   . . . . . . . $ L z z z f L z z z z z z z Q r.v.v.v.v.v.v.v.v.g.v.v.v.j.v.n O # # # + # # # # # # + # # # # # # # # # O # # + + + @ + X . . . . . . . . . . . . . . $ - L L L L z z z L - L z z L L * L z z f L z z z L - L z z z z z z L z z f z z z z z z z # # # # # # # # # # # # # # # f z f L z z z z f L z z L - L z f - L z L z f - L z z z z Q # # # # # # # # O # # # # # # # # # # # # # # # # # # # # # # # # # # # # # # # # # # # # z L z z L z L z z z z z z - L L z z z z L - z L z z L z L f # # # # # # # # # # # # # # # # # # # # # # # # # # # # # # L z L z z L z L L z z L z z z z f f L z z z L - L z z L z c L z z z z f L z f f L z z f L f L z z z f L z f f L z z f L L z f f L z z f L z f L z f L z f L z f f L z f L z L - L z z f L z f - L z z z z z z f L L - L z L L z z z z z f z z : # # # # # # # # # # # # # # $ L * L - z z L L z z L L f L z f z L - L z z z L - L z z c L z L z z z z f L z z z z f L z z z z f z z z f z z z f z z z ",
". . . . . . . . . . . . . . . + z z L L f z z L f L f z z L 6.v.v.r.v.p.v.v.v.v.v.v.v.g.n.n O # # # # # # + # # # # # # # # # # # # # # # # O $ O # # o . . . . . . . . . . . . . . $ L L z L z L z L f z z L z L f L f z z z L z L f L f z z L f L f z z L f L z z z L - L z # # # # # # # $ O O # # # # O c L z z L z L f z z z L f z L z L - f z z z z L f z z L z - # # # # O # # # # # # # # # # # # # # # # # # # # # # # # # # # # # # # # # # # # # # O O f L f f L f L f L f L f L f L z z z L z z L z L f z z L z - # # # # # # # # + # # # # # # # O # # # # # # # # # # # # O f f L L z L f z z L z L f z L - L z z f z z z z L f z z z z L L f z f z z L f z f z z L f z f z z L f z z L f z f z z L f z f z z L f z z L f z f z L L f z f z z L f z z L f z c z L f z z z z L f z L z L f z z L z L f z z L z L f z z L z - + # # # # # # # # # # # # O $ z f z f z f z f z f z f z c z L L f z f z z L f z f z z f z z f z z z z L z L f z z L z L z L z L z L z L z L z L z L z ",
". . . . . . . . . . . . . . . 2 L L z z L z z f z z L z z W 6.m.v.v.v.v.v.v.r.v.a.g.v.v.v.) O # # # # # # # # # # # # # # # # # # # # # # # # # O # O o . . . . . . . . . . . . . . : L f z f z f z z z f L f z z z L - L f z f z f z z L z z f z z L z z f z z z L z L L z L # # # # # # # O # # # # # # $ - L f L f z z z f L L - L z c z z L L z L f z f L z z f L f # # # # # # # # # # # # # # # # # # # # # # @ # # # # # # # O # # # # # # # # # # # # # # f f L z z z z z z z z z z z z z L L - f L f z z z f L f z f # # # # # # # # # # # # # # # # # # # # O # # # # # # # # # - z z f z z z f L f z z z z L L z - L L z L f z f L z L f z c z z z L f L z z z L f L z z z L f L z z f L z z z L f L z z z L f L z z f L z z z L z f f L z L f L z z f L z z z L L - L z L f z f L z f z z z f L f z z z f L f z z z f L f z f + # # # # # # + # # # # # # $ z L z L z L z L z L z L z L L - z z z L f L z z z L f L L z R f z z f L f z z z f L f z f z f z f z f z f z f z f z f z ",
". . . . . . . . . . . . . . . + z z z z f L f L z z f z z Q 9.v.v.v.v.v.p.v.v.p.v.v.g.v.v.n # # # # # # # # # # # # # + # # # # # # O # # # # # O $ + o . . . . . . . . . . . . . . & L z z L f z f L f z z z f L z L L f L z L z L z z f L f L z z f z z L z z z z L z L z L # # # O # # # # # # # # # # # f f z z z f L z L z z z z z L f L f f z f L z z z z z z L f # # # # # # # # # # # # # # # # # # # # # # # # # # # # # # # # # # # # # # O # # # # # # f c z z L f z z L f z z L f z L - z L z z z f L z L z z L f # # # # # # # # # # # # # # # # # # # # # # # # # # O # # # L f z z f L f z z z f L z L z - L L z f z f L z z z z - L L * L f L z z f z f L z z z L f L z z f z f z f z f L z z z L f L z z f z f z f z f L z L f f z L z z f z f z f z f z f z L f z f L z z z z z f L f z z z f L z L z z f L f z z z f - O O # # # # + # # # # # # O $ L f z z L f z z L f z z z c z L L f L z z f z f L z z z L f f L L z L z z f L f z z z f z z L f z z L f z z L f z z L f ",
". . . . . . . . . . . . . . . & L f L f z z z z L f L z z n 9.v.v.p.v.r.v.v.v.v.a.v.v.v.n.( O # # # + # # # # # # # # # # # + # # # # # # # # # O + O o . . . . . . . . . . . . . . $ L f L z L z L z z f L z L f z c z z z z f z f L f z z z z L f L z z f L f L z - L - L L # # # # # # # # # # # # # # O f f f L z L f z f z L f L f f L z z L z z z L f L f L f c - # # # # # # # # # # # # # # # # # # # # # # # # # # # # # # # # # # # # # # # # # # # # # 4 L z z f L z z f L z z f L z z L z z f L z L f z f z z z f # # O # # # # # # + # # # # # # # # # # # # # # # # # # # O c L z z L z z f L z L f z f z L z z L L z z z L f L f L z L L z z f z z L z L f z f L z z f z z L z L z L z L f z f L z z f z z L z L z L z L f f L z L z f z z L z L z L z L L L z f L z z z L f L f z L z z f L z L f z f z z L z z f L z L f O + # # # # # # # # # # # O $ z z f L z z f L z z f L z L z f z z f z z L z L f z f L L z n z f z f z z L z z f L z L f L z z f L z z f L z z f L z z ",
". . . . . . . . . . . . . . . + z z L L z z z z f z z L f L 9.v.v.v.v.v.p.v.v.v.v.r.v.v.v.n # # # # # # # # # # # # # # # # # # # # # # # # # # $ O + o . . . . . . . . . . . . . . : L z L z - L f z z L f z z L z L - z z z L z L f L z z z z f z z L f z z L z f z f L z z # # # # # # # O # # # # # # # z R z z L z z f z f L z L z L z L f f z z z z L z z z L L z # # # # # # # # # # # # # # # # # # # # # # # # O # # # # # # # # # # # # # # # # # # # # u n z f z z z z z z L f z z z L f z z L f z z L z z z L z f + # # # # # # # # # # # + # # # + # # # # # # # # # # # # # L L L L f z z L f z z L z z L z z L - f z z z f L f L z L z L f z L f L z L z z f z z L f z f L z L z L z L z z f z z L f z f L z L z L z L z z f z L L L f f f L f L z z z z f f z L f z z z f L f L L f z z L f z z z f z f L z L f z z L z f # # # # # # # # # # # # # # $ z z L z L z L f z z L z L * L f z z L f L z L z z f z z c z z z z f z f L f z z L f z z z f z z L f z f z f z z L f z f ",
". . . . . . . . . . . . . . . & L L z z L f L f L z z f z z 9.v.v.r.p.v.v.v.v.r.v.v.v.v.v.F O # # # # # # # # # # # # # # # # # # # # # # # O # # O O o . . . . . . . . . . . . . . : z L - z L z z f L z z f L f f L L L f z f z f z z L f L f L z z f L z z f z L z L z L L # # # # # # # # # O # # # # # f z f L f z z L z L f z f z f z z z L z L f L - L L z z z z # # # # # # # # # # # # # # # # # # # # O # # # # # # # # # + # # # # # # # # # O # # # $ 4 z z L z L f L f z f L z L f z z f L z z f L z z L L f z f # # # # # # O # # # # # # # # # # # # # # # O # # # # # # O c L - z z f L z z f L - z L - L z z L L z L f z z z z z f L - f L z z f z f z z L f L z z z L f z f z f z f z z L f L z z z L f z f z f z f z z L z f - L z L z z z z L f L f z L z f L z L f z z z z z z f L z z f L z L z L f z z z f L f z 4 # # # # # # # # # # # # # O $ f L f z f z z z f L f z L L z L f L z z f z f z z L f L L z L f z L z L z z f L z z f L z L f L z z z L z L f L z z z L ",
". . . . . . . . . . . . . . . & z z z z f z z L f L f L L Q 4.v.v.v.v.v.v.v.v.p.v.v.p.v.v.F O # # # # + # # # + # # # # # # # # # # # # # # # # # $ O o . . . . . . . . . . . . . . $ L z L L - L z L z L z L z z z c z f L z L z L z z f z z L f L f L f L f L L f L z L L L O # # # # # # # # # # # # # # 4 z z z z f L f z z z z L f L f L f - L L z z z L z L - z z # # # # # # # # # # # # # # # # # # # # # # # # # # # # # # # # # + # # # # # # # # # # # 4 z z f z f L f L z L f z f L L z L z L z L z z L z z z n f # # # # # # # # # # # # # # # # # # # # # # # # # # # # # O L z f L z L z L z L z L z z L z f L f f z f L z L f z z z z L z f z f z z L f L z z z L f L z z z L f z z L f L z z z L f L z z z L f z z L f L z L f c z f L z L f z f z z L z f z L f z f L z L f z L z L z L z L z L f z z z f L f z z z z 4 O # # # # # # # # # # # # # $ z z z f z f L f z z z f z L L - z f z f z z L f L z z z L z n f L f z z L z L z L z L z L z z z L f L z L z z z L f L z ",
". . . . . . . . . . . . . . . + L f L f L z z f z z z z z L 9.v.v.v.r.v.r.v.v.v.v.r.v.v.V.n @ # # # # # # # # # # # # # # # O # # # # # # # # # # O O o . . . . . . . . . . . . . . : L z L z L f z f z f z f z f L L z z z z f z f L f L z z f z z z z z z z z z z - L z * L $ # # # # # # # # # # # # # # f z f L z L z z f L f L z z f L z z L z z L - L - L z L R n # # # # # # # # # O # # # # # # # # # # # # # # # # # # # # # # # # # # # # # # # # # # # f L L L z z z z z z f L z z z f z f z f z f z z f L z z n y # # # # # # # # # # # # # # # # # O # # # # # # # # # # # # - z L f z f z f z f z z L z L z L z z L z z z z f L z L f L c z L z L f L z z f z f L z z f z f L z z f L z z f z f L z z f z f L z z f L z z f f L z L z z z z f L z L z z f L L z f L z z z z f L z f z f z f z f z z z f L z L z z L z z z f # # # # # + # # # + # # # O $ f L z L z L z z f L z L L * z L z L z L f L z z f z f L L z n L z z f L f z f z f z f z f z f L z z f z f z f L z z f z ",
". . . . . . . . . . . . . . . & z z L L f z z L z L L z z Q 9.v.p.v.v.v.v.v.v.v.v.v.v.v.v.n O # # # # # # O # # # # # # # # # # # O # # # # # # # # O . . . . . . . . . . . . . . . : Q - L z z z z z z z z z z z z L - L L f z z L f L f z z L z z z z z z z z L z L f L f z # # # # # # # # # # # # # # $ 4 z z z z L z z L z z f z z L - L L z - L z - L z z L z L - # # # # # # # # # # # # # # # # # # # # # # # # # # # # # # # # # # # # # # # # # # # # # z L z z z z L f z z z z L f z f L f L f L f L z L f z z z f O # # # # # # # # # # O # # # + # # # # # # # # # # # # @ # z z z z z z L z L L L z L z L - L z z f z z z z L f z z L L L z z z z z f z z L f z f z f z z L f z f z f z z L f z f z f z z L f z f z f z z f z L L f z z L f z z z f L f z L - L z z z z L f z z z z f z f z f z f L f z z L z L f f z z z - O # # # # # # # # # # # # # $ L L c z z z L z L f z z z f L z L z L z z z L f z f z z c z L z L f z z L z L z L z L z z z L f z f z z L f z f z z L f ",
". . . . . . . . . . . . . . . & L L z z L z z f z z z z z n 9.v.v.v.r.v.v.p.v.r.a.v.r.v.n.n # # # # # # # # # # # # # # # # # # # # # # # # # # # # # . . . . . . . . . . . . . . . : - - L L z L f L f L f L f f L c L z z L z z f z z L z z f L f L f L f L f f z z z z z z # # # # # # # # # # # # # # # z z z L z z f L f z z L f L L L z z z L z L L z L z f z L f # # # # # # # # # # # # # # # # # # # # # # # # # # O # # # + # # # + # # O # # # # # # # u L z z L z z L z L f z f L z z z z z z z z z z f L z L f f # # # O # # # # # # # # # # # # # # # # # # # # # # # # # # - f L L f L - z L - L L - z L L z - L L z L f z f L z L - L * L f L f z L f L z z z L z L f L z z z L z L f L z z z L z L f L z z z L z L f L L z f z L f z f L z L f z z L z z c L f L f z f L z L f z L z L z L z L z z f L f z z z L z L f f O # # # # # # # # # # # # O $ L c f L f L f z z z f L z L f z f z f z f L z z z L f L L z f z z z f L f z f z f z f z f L z z z L f L z z z L f L z z ",
". . . . . . . . . . . . . . . + z z z z f L f L L z z L z Q 9.v.r.v.v.v.v.v.v.v.j.v.v.v.v.( # # # # # # # # # # # O # # # # # # # # # # # # # # # # # O . . . . . . . . . . . . . . & L L z z L f z z L f z z L z f L z z z f z z L z z f L f L f z z L f z z L z f L f z L L # # # # # # # # # # # # # # # f z z f L f z z z f L z z z L - - L z L z L L L L - f L c - # # # # # # # # # # # # # # # # # # # # # # # # # # # # # # # + # # # # # # # # # # # # # u n z L z L z f z f L z z z z z L f z z L f z z z z z z n f # # # # O # # # # # # # # # # # # # # # # # # # # # # # # # * L z f z z L L - L - z z L z - L L z f z f L z z z z f z z L f z z L L z z z L f L z L z z z L f L z L z z z L f L z L z z z L f L z L z z z f z L z f L z L f z f L z z f z z L z L f L z L f z f L L f z z L f z z L z L z z f L f f z f L f # # # # # # # O # # # # # # $ L z z z z z z f L z L z L c L f z z L f z f z f L z z z f z z z L z L z z z L f z z L f z f z f L z z z L f L z z f z f ",
". . . . . . . . . . . . . . . & L f L f z z z z L z z z z n 7.v.v.v.p.v.r.v.p.v.v.v.j.v.v.n O # # # # # # # # # # # # # # # # # # # # # # # # # # # # . . . . . . . . . . . . . . . $ z z L L - L z z f L z z f z L f z L f L z z f L f z z z z L z z f L z z f z L z z z L L # # # + # # # # # # # # # # # 4 z z L z z f L z L f z f L L z L L z z L - - L L L z z L f # # # O # # # # # # O O # # # # # O O O # # # # # # # # # # # O # # # # # # # # # # # O $ 4 n z f z L z L z z z L f L f z f L z z f L z L f L f z n f # # # # O # # # # # # # # # # # # # # # # # # # O # # # # # L L c L z z L z L L - L z - L L z z L L z z z L f L f L z z c L z z f f z f L z z f z f z f L z z f z f z f L z z f z f z f L z z f z f z f L L z f f L z z f L z z z L f L z f L z z z z z f L z z z z z f L z z f L f z f z z L z z L z z z : O # + # # # # # # # # # # # $ f z f L f L z L f z f z - L z z f L z z z L z L f z f L L f L f f z f z f L z z f L z z z L z L f z f L z z f z z L z L ",
"& : : : : : % & & & & & & & & * z L f L z z z z f L f z z L ] | ' ' | | ] ] | ] | | ' ] | & # # # # # O # # # # # # # # # # # # # # # # # # # # # # # o . . . . . . . . . . . . . . & L z z z z f L f z z L f L z z f L f L f z z L f L z z z z f L f z z L f L L f z z L f z # # # # # # # # # # # # # # # f z L f z z L f z z z z L z f # $ # # # # $ # % # # # # $ $ - - : - : z : - : - - : f : 4 f f f 4 f 4 f f f f f 4 4 - - - - - : : : - - - : : : - : : z L z z f z z f z z z f L f L z z z L f z z z f L f L z z L f f f 4 f f 4 f f f f f 4 - - : : - : : : - - - : - - : : : $ $ # # # $ # $ # # $ # $ $ $ z L z z f z z z f L f L f L f z z L f L z z L f z z L f z z L f z z L f z z L f z z L f z z L f z z L f z z L f z z z L f z f z z L f z f z z L f z f z z L f z z L f z L z L f z z L z z f z f L z L f f z z z - # # # # # # # # # # # # # # $ z f z z z z L z z f z f L f z z L f z f L z L z z f z z f z L L L z L z z f z z L f z f L z L z z f z z L f z f L z L z ",
"- - - - - L - Q - Q - - * * R - z f z z L f L f z z L z z n z f f f f f z f f f f z f f z # # # # # # # # # # # # # # # # O # # # # # # # # # # # # O . . . . . . . . . . . . . . . & L L f L f z z L z z f z z z f L z z z L z z f z z L f L f z z L z z f z z z z f L z z z # # # # # # # # # # # # # O $ z z z z f L z z f L f L L - L # # # # # # # O O # # # # # # z L f L z z L - L z z z z z z z z f z z z z f z z z z z z f f z z z L f L - z L L z z L L z f z z L f L L z L f z z z z L f z f L z L f z z z z L z z z f L z z z f f z z L z z f L L z z z L L L L z c - L L z - # # # O # # # # # # # # # O # c z f L L z L f z z z z z z f L z f z z f L z z f L z z f L z z f L z z f L z z f L z z f L z z f L z z f L z z f L f L L z L z z f L z L z z f f L L z z f L z z f L z f z z z f L f z z L z L f z z z L z L f : # # # # # O # # # # # # # # $ z L f L f L f z z L z L z L f L z z z L f z f z z L f L L z z z f z f z z L f L z z z L f z f z z L f L z z z L f z f z ",
"L L Q - z L L L - Q z L L L - L z L z z f z z L z z f z f n z f z z z z z f z z z z L z z # # # # # # # # # # # # # # # # # # # # # # # # # # # # # O o . . . . . . . . . . . . . . & z f z z L z z f z z L z z L z f z z z f z z L z z f z z L z z f z z L z z L z L z L z - # # # # + # # # O # O # # # $ f n L z L z L z L z z f z L z # # # # # # # # # # # # # # $ z L f z z z L L z f z f L z z z z L z z z z z L z L z z z L z L L z z L z z L z L z L z L - L f L z z z f z f L z L f z f L z L f z f L z L f z f L z z z z z L z z L f L z z z z z z f L - z z z f L f L L L - - # # # # # # # # # # # # # # $ c z z z f z f L z L f z f L z L z L z z z f z f z f z f z f z f z f z f z f z f z f z f z f z f z f z f z f z f z f z z c z z z z z z z f L f L z c z L z z z z z z z z z f L f z z z f L f z z z f L f f z L z : O # # # # # # # # # # # # # $ L z z z z z z f L f z z z f z z L f L z z z L f L z z z c z L z z z L f L z z z L f L z z z L f L z z z L f L z z z L f ",
"L - L L L - L - L - L L - L - L z f L f L z z f L f L z f R z L f L f L z L z z L z z L z # # # # # # # # # # # # O # # # # # # # # # O # # # # # # # . . . . . . . . . . . . . . . $ L L z z f L f L z z f L f L z L f L f L z z f L f L z z f L f L z z f L f f z f z f z f # # # # # # # # # # # # # # # 4 n f z f z f z f z z L z L z # # # # # # # # # # # # # # # L c z z L z z z z L z L f z L z z f L L z z z L z z z L z f L - L z z f L f L z z L - z L L z z f z f L L z z z z f L z z z z f L z z z z f L z z z z L f L z z z z z z f z L z f L z L z L f L z L z z - L L L - # # # # # # # # # # # # # # # f z f L L z z z z f L z z z z c z f L f z L z L z L z L z L z L z L z L z L z L z L z L z L z L z L z L z L z L z L L f L f L f L f L f z z z z z L L - L f L f L f L f z L z z f L z L z z f L z L z z L z z L : # # # # # # # # # # O # # # # f z f L f L z L z z f L z L f L z z f z f L z z f z f L L z f z f L z z f z f L z z f z f L z z f z f L z z f z f L z z ",
"- L - L z z L - L f z f z z L f z f z z L f z f z z L f z f z L f z z z z L f z z z z L n # # # # # # # # # # # # # # # # # # # # # # # # # O # # # O X X X . . . . . . . . . . . . % z z z L f L f z f z z L f z f L f z L f L f z z L f L f z z L f L f z z L z z z z L z z # # # # # # # # O # # # # # # f z z f z f z f z f L z - L z # # # # O # # # # # # # # O % z c z f z f z f z f z f z f z z L f z f z z L f z f z z L f z f z z L f z f z z L f z f L z z L - L z z z z L z L f z z L z L f z z L z L f z z L z L f L f z f z z L f z f z z L f z f z z L f z f z z L f z f - # # # # # # # # # # # # # O $ c f z L L f z f z z L f z f z L z L f L L z L z L z L z L z L z L z L z f L f L f L f L f L f L f L f L L z L z L z L z c L f L f L f L z z z z z f L z L z L z L z L z L f z z L z L f L f z f z z L f z f z z % @ # # # # @ # # # # # # # # $ L f z L f L f z z L f L f L z z L z L f L f z f z z L f L f L f z f z z z z L z L f z z L z L f z z L z L f z z L z L f ",
"L z L z L z z L z z z L f L z z z L f L z z z L f L z z z L z c L z L f z f L z L f z f u $ # # # # # # # # # # # # # # # # # # # # # # # # # # # # O X     . . . . . . . . . . . . & n L z z z z z z L f L z z z L L z z f z z L z z f z z L z z f z z L z z f L f L f z z z # # # # # # # # # # # O # # # 4 n z L z L z L z L z z L L z $ # # # # # # # # # # # # + # L L z L z L z L z L z L z L f L z z z L f L z z z L f L z z z L f L z z z L f L z z z L L z z L L z - L f L f z z z f L f z z z f L f z z z f L f z z z z z z L f L z z z L f L z z z L f L z z z L f L z z z L - # # # # # # # # # # # # # O $ c L z f z z z L f L z z z L z c z f z z f z f z f z f z f z f z f z f z z z z z z z z z z z z z z z z z f z f z - z c L L z z z z z z z L f L f z L f z f z f z f z f z z z f L f z z z z z z L f L z z z L f L : # # # # # # # # # # # # # # $ L z z f z z L z z f z z z f f L f z z z z z z L f L z z L z z z z L f L f L f z z z f L f z z z f L f z z z f L f z z z ",
"z - L z z L L z L f L z z f z f L z z z L f L z z f z f z f z L f z f L z z z z f L z L z # # # # # # # # # # # # # # # # # # # # # # # # # # # # # O X X . . . . . . . . . . . . . % f z f L f L f L z z f z f L z f z z L z z f L f L z z f z z L z z f L f L f z z L z L z # # # # # # # # # # # # # # # f f L f z z L f z z z L z z z # # # # # # # # # # # # # # # - L L z L f z z L f z z L z z z L f L z z f z f L z z z L f L z z f z f L z z z L f L z - z L z L z L z z z z f L z L z z f L f z z z f L z L z z f L f L f L z z f z f L z z z L f L z z f z f L z z z L f L z - # # # # # # # # # # # # O # $ f L z L L f L z z f z f L z z L z L z z z z L f z z L f z z L f z z L f z L f z z L f z z L f z z L f z z z L f L z L - - L f z z L f z f z z L L c L f z z L f z z L f L z L z z f L f L f L z z f z f L z z z : @ # # # # # # O # # # # # + $ f L f L z z f z z L z z z L f z z f L f L f L z z f z f f z z f L z z z z z z f L z L z z f L f z z z f L z L z z f L f ",
"z L z L L - L z z z f z z L z L f z f L z z f z z L z L z L z c L z z z L f L f z z z f z $ # # # # # # # # # # # # # # # # O # # # # # # # # # # # # X   . . . . . . . . . . . . . % f z L z z z z f z z L z L f f L z z f L f z z z z L f L z z f L f z z z z L z z L z z z # # # # # # # # # # # # # # $ f z z z f L z z f L L - z Q z # # # # # # # # # # # # # # # f L - L z z f L z z f L f z f L z z f z z L z L f z f L z z f z z L z L f z f L z z f z L L - L f z f L f L z L f z f z z L z z f L z L f z f z z L z z z z f z z L z L f z f L z z f z z L z L f z f L z z f z f # # # # # # # # # # # # # # $ f z z f z z f z z L z L - L L * z f L f f L z z f L z z f L z z f L z z z f L z z f L z z f L z z f L z f L z z f L c L L z L z z f L z L z z L - L z z f L z z f L z z f z f z z L z z z z f z z L z L f z f L % # # # # # # # # # # # # + + $ z z z z L f L z z f L f L c z z z L z z z z f z z L z L L f z L f z f L f L z L f z f z z L z z f L z L f z f z z L z z ",
"L z L z z - L z L f z f L z L z z z L f z z L f f L f L L z L c f z z z f L f L z L f z z # # # # # # # # # # # # # # # # # # # # # # # # # # # # # O X . . . . . . . . . . . . . . & z L z L f L f z f L z L z z z L - L z z L z z z z f L f z z L f L z z z z f L f z z L z # # # # # # # # # # # # # # # L z L z L f z z L z z z L - z # # # # # # # # # # # # # # # L * L z L z L f z z L z z z L f z z L f L z L z z f z z L f z f L z L z z z L f z z L f L z L z z f z z z z L z z f z f L f z z L f z z z f z f L z L f L f z f L z L z z z L f z z L f L z L z z f z z L f z f z # # # # O # # # # # # # # + $ f z z L L f z f z z L - L z L L f z z L z f z z L f z f z f z z L - L f z z z L f z z z z z z L f z z z z f z z L f L z c L z L f z z z f L f z z L f f z f z z L f z f z f z f L z L f L f z f L z L z z z L f : O @ # # O # # # # # # # # # $ L z L z f z z L f z z L z c z f L z L f L f z f L z L z z z z z z f z z z z L z z f z f L f z z L f z z z f z f L z L f ",
"f z f z z L f L z z z L f z f z f L z z f L z z z z z z f z f L L z L f z z z z z f L z z # # # # # # # # # # # # # O # # # # # # # # # # # # # # # O o . . . . . . . . . . . . . . & L f z z z z z z L f z f z f L c L L z z f L f L f z z L z z f z z L f L f z z L z z z z # O # # # # # # # # # # # # # f z f z z z L z - L L z L L z # # # # # # # # # # O # # # # z c L z f z z z f L f z f L z z f L z z f z f z z L f L z z z L f z f z f L z z f L z z L z f z z L f L f L f z z L z L z z f L z z f L z L z L f z z z z z z L f z f z f L z z f L z z f z f z z L f L z z z L - # # # # # # # # # # O + # # # f f z f z z z L L L z L f L - L L z z f z L f L z z z L z L f L z z z L L f z f L z L f L f z f L z L f z L f L z z f z L - z f L z L f z z L z z f z L z L f L z z z L z L z L f z z z z z z L f L - z f L z z : @ # # # # # # # # # # # # # $ f z f z L z z f L z z f L L z L f z z z z z z L f z f z L f R L z L f L f L f z z L z L z z f L z z f L z L z L f z z z ",
"z z L f L z z z L f L z z z L f z f z f z f z f z L f z f L z L f z f L z L f z z z z z z $ # # # # # # # # # # # # # # # # O # # # # # # # # # # # O X . . . . . . . . . . . . . . & z z f L f L f L z z z L f z f L z f L f L f z z L z z f z z L z z f z z L z z f z z z 4 # # # # # # # # # # # # # # # - f z f L f - L L z L z z L z # # # # # # # # # # # # # # $ z L z f z f L f z z z f z f z f z f z f z z L f L z z z L f L z z z L f z f z f z f z f - L L f L z z z z z z f L f z z L z L z L z L z L f z z z f L f L f L z z z L f z f z f z f z f z z L f L z z z L f z z - # # # # # # # # # # # # # # $ f L z L L f L z - L z z z f z c f L f L L z z z L f L z L z z z z L z z f L z L f z f L f L z L f z f L L z z z L f L L c L z L f z f L z z f z z L L z L z z z L f L z L f z z z f L f L f L z z z z L z f z f : @ @ # # # # # # # # # # # # $ z z L f f L f L f L f L f L z z z f L f L f L z z z L f c z n z L z z z z z z f L f z z L z L z L z L z L f z z z f L f ",
"f L z z f z f L z z f z f L z z z L z L z L z L z f L z z z z f L z z z z f L z L f L f z # # # # O # # # # # # # # # # # # # # # # # + # # # # # # O X . . . . X . . . . . . . . . & L z L z z z z f z f L z z z L f z z z z z L z z f L f L z z f L f L z z f L f L z z n n $ # # # # # # # # # # # # + O f L z L z z L z z L - L L - n # # # # # # # # # # # # # # # f L z L z L z z f L z L z L z L z L z L f L z z f z f L z z f z f L z z z L z L z L z L L L z z f z f L f L z L z z f L f z f z f z f z z z f L z L z z z z f z f L z z z L z L z L z L f L z z f z f L z z L L f # # # # # # # # # # # # # + # f z z f z L - z L z L z z L z L z z z z f z f L z z f z f z f L L - L L z z z f L z z z z z z f L z z z f z f L z z f - L z z f L z z z L f L z f L f z f z f L z z f z z z f L z L z z z z f z f L L - z L z L : @ # # # # # # # # # # # # # # f L z z z z z z z z z z z f f L z L z z z z f z f L z z L z n z f z f L f L z L z z f L f z f z f z f z z z f L z L z z ",
"z f z z L f z f z f z z L f z f f L f L f L f L z L f z z n z L f z z z z L f z f L L z R # # # # # # # # # # # # # # # # # # # + # # # # # # # # # # X . . . . . . . . . . . . . . : L - L - L L f z f z z L f z L c L z z z z f L f z z L f L f L f z z L f L f z z L f L - # # # # # # # # # # # # # # # u n L z z z L - L - L z L L - # # # # # # # # # # # # # # $ z L f z z z L z L f z z L z L z L z L z z z L f z f z z L f z f z z L f L z L z L z L z - z z L z z L z L z L f z z L z z f z f z f z f L f z z L z L f L f z f z z L f L z L z L z L z z f z z L f z f z f z z f @ O # # # # O # # # # # # # $ f z z z - L L - L z - L L z z L L z L L z z z z L z L z z z L z L z L z z L z L z z z L f z z z z L f z z z L f z f L f L L z L z L f z f z z L f c z z L f z f z z L f L z L f L f z f z f z z z z L L f L L z : # # # # # # # # # # # # # # $ n z L f L z L z L z L z z L f z L f z f z f z z L f z f c z z L z z L z L z L f z z L z z f z f z f z f L f z z L z L f ",
"z L f L z z z L z L f L z z z L z z z z z z z z z f L z L f f L L z L f z f L z z z z z z # # # # # # # # # # # # # # # # # # # # # # # # # # # # # # X . . . . . . . . . . . . . . : - L z L z z z z L f L z z z - L z L f L f z z L z z f z z z z L z z f z z L z z f z z z # # # # # # # # O # O # # # $ z z z L L z z L z L z L - Q - $ # # # # # O # # # # # # # # z z L z f L f z z z f L f z f z f z f z f L z z z L f L z z z L f L z z f z f z f z f z L L L - f L f z f z z z f L f z z L z L z L z L z z f L f z z z z z z L f L z z f z f z f z f z z L f L z z z L z L f L f # # # # # # O # # # # # # # # y R L z L L z L f L L L z z L L f L - L f L L L - L L z L z - L L z - L z f z L z L z f L z L f z f L z f L z z z L L z * L L - z f L z L z z f z L - L z z z L f L z z f z z z z z z L z L f L L L z z z z z z : # # + # # # # # # # # # # # $ z z z z f z f z f z f z L c z z z z z L z L f L z z z L L f z f f L f z f z z z f L f z z L z L z L z L z z f L f z z z ",
"L z z z L f L z L z z z L f L z z L f z z L f z z z z z f L z L f z f L z z z z z L z L z $ + # # # # # O # # + # # # # O # # O # # # $ # # # O # # # X . . . . . . . . . . . . .   $ Q L z z z L f L z z f z f - L f z f z z L z z f z z L z z z z f z z L z z f L f L z L f # O # # # # # $ # # # # # # # 4 z L - z L - - L L - - L - z # # $ # # # O # # # # # # # $ f L f z z z z f L z L z z z L f z z L f z f z f L z z z L f L z z f z f z z L f z z L f L z z L L z z L z f L f z z z f f z z z L f z z L z L z z f L f L f L z z f z f z z L f z z L f L z z z L f L z L z z z f # # # $ # O $ # # O # # # # $ z L f f - L L * - L z L - z L z f f L * - L z L - L - - L L z L - L - L f L z L z L f f f f z f z z z z z f z f z z f f c z f L z z z z f L f L f L f L L f L z z f z f z f L f L f z L z L f f L - z z f f z f : # O # # # # # # # # # O # # $ L L z f z z L f z z L f z f c z L f L z L z z z L f L z c L z L z z z f z f L f z z z f L f z z L f z z L z L z z f L f ",
"f z f L z z f z f z f L z z f z z f L z z f L z L f L f z z z f L z z z L f L f z f z z z f f - n 4 z u f f f f y f f z f f f f y f 4 f 4 f f f n u 4 o . . . . . . . . . . . . . . & - z L - L z z f z z L z L z f L f L z z f L f L z z f L f L f L z z f L f z z z z z z z f f f f - f f 4 f n f n 4 z 4 $ # $ # # # # $ # # # $ # $ $ - z - f f f f z f y f L f z f f f L z f L z L f z f z f L z z f L z z z L z L f z f L z z f z z L z L f L z z f L z z - z z z - L z z z L z z f L z f f L f L z z f L f z f z z L z z z z f z z L z L f L z z f L z z f z f L z z f z f z f L z f f - 4 f f f f z f - c f z 4 # # # # # $ # $ # # # # # # # # # # # $ # # # # # # $ # # # # # # # # $ # # # # # # # # $ L z L L f L f z L z L L f L z L z z z L f L f z z z z z L z - z z f z z L z L z L z z L - # # # # # # $ # # # # # # # % f f - z f f 4 n 4 z n f f f - z z z L f L z z f L z z z L f L z z f z f z f L z z f z L z z f f L z L z L z z f L z L z z f L z z f L f z f z z L z z ",
"z z L f z z L f z z L f z z L f z z z L f z z z f L f L z n z L f z z z f L f L z z z L L f L z n z L z z L z z n z z L f z z L n n z L z z L f n z z o . . . . . . . . . . . . . . : L z L z L L f z f L z L z L z L f z L f L f z z L f z z L f z z L f z z L z z z z L L f z z z L z z f L - L z L z n z # # # # # O # # # # # # # # @ z z z f z z z f L f L f L f L n z z z z z L z z f z f z f z z L f z f L z L z z f z z L f z f L z L z z f z z L f z f L L z L - L - L L f z z L f z z f z L f z z L z z f z f L z L f L f z f L z L z z f z z L f z f z z L f z z L f z z L f z z L f n z z z L - L f L z z z # # # # # # # # # # # # # # # # # # # # # # # # # # # # # # # # # # # # # # # # # # # # $ z L z f L f L z f z f f L c z f z z z z f z f z f z f L f z z L f z f L z L z L f z z L & + # # # # # # # # # # # # # $ L L L z L z z n z z L L f z f L z L z z f z z L f z f L c L f z z L f z z L f z z L f f z f f n z z z L f z z L f z z L z L f z z L z z f z f L z L f ",
"f L z z f L z z f L z z f L z z L f z f L z L f z z z z L f f L L z L f z z z z L f z f z z f z z z z z z z f L z z z L L z z f z z z L f L z z z z z o   . . . . . . . . . . . . . $ L L - z z z z z L f z f z f z L z z f z z L z z f L z z f L z z f L z z f L f L f z z L z f L f z z L z L z L - z z z $ # # # # # # # # O # # # # # z L z L z L f z z z z z z z z z z z L f L f z z L z L z L f L z z z L f z f z z L f L z z z L f z f z z L f L z z z L L z z L L z L z z z f L z z f L z z z z f L f z z L z L f z z z z z z L f z f z z L f L z z z L f L z z f L z z f L z z f L z z n z L z z z z L z z L : # # # # # # # # # # # # # # O # # # # # # # # # # # # # # # # # @ # # # # # # # # # # # $ n f z z z z z z L z L z z L z L z L f z L z L z L z L f L f L z z z L f z f z z z f L L : + # # # # # # # # # # # # # $ z c z L - L L z z z z z z z L f z f z z L f L z z z L - L z L f L z z f L z z f L z z L z R z z z f L z z f L z z f L f z z z f L f z z L z L f z z z ",
"z f z f z f z f z f z f z f z f f L z L f z f L z L L z z n z L f z f L z L f z f L z L L f L f z z L L L z L z z z z z f L f L z z z z z f z f z z z o . . . . . . . . . . . . . . $ L z f L - L f L z z z L f L z c z z L z z f L f L f L f L f L f L f L f L f z z L z z f z z z z f L f z z z L z L L - # # # # # # # # # # # # # # # - L z f z f L z L f z z L L z z z z L z z z f L f z z L z z z L f L z z z L f L z z z L f L z z z L f L z z z L f L z - z L z z - L z L z L z L z L z z f L f z z z f L f z z z f L f L f L z z z L f L z z z L f L z z f z f z f z f z f z f z f z f z L z z z L z z z L L u # # # # # # # O # # # # # # # # # # # # # # # # # # # # # # # O @ @ # # # # # # # # # # $ f f L z L f z L f L z z L c z L f z f L f z z L f z z z f z z L f L z z z L f L z L z L : O # # # # # # # # @ # # # # $ L z z f z z z L z L z L f L z z z L f L z z z L f L z L c z - z f z f z f z f z f z f c z z z z z L z L z L z L z L z z f L f z z z f L f z z z f L f ",
"z L z L z L z L z L z L z L z L z z z f L z z z z f z z L n z f L z z z z f L z z z z f z z f L L z z z f z f z z L L z z z z z z L L z z L z L z L z o   . . . . . . . . . . . . . & L z L z L z z f z f L z L - z c L z f L f z z z z z z z z z z z z z z z z L z z f L f L z f L z L z z L z L - z L z z $ # # # # # # # # # # # # # # - L z L z z z z f L z z f z z L L z z f L z L z z f L f z f L z z f z f L z z f z f L z z f z f L z z f z f L z z f z L L - L z L z L f z f z f z f z z L z z f L z L z z f L z L z z z z f z f L z z f z f L z z f z z L z L z L z L z L z L z L z L z z z L L - L L z z W z # # # # # # # O $ O # # # # + # # # + # # # # # # # # # # # # # # # # # # # # # # # # # $ z z z z f L z z z - L z L * L c L z L z z f L z z f L z L f L z z f z f L z z f z f z * - O + # # # # # # # @ # # # # $ f L f L z L z z z L z z z f z f L z z f z f L z z f z z L z L z L z L z L z L z L z L L f L f L z f z f z f z f z f z z L z z f L z L z z f L z L z z ",
"L z L z L z L z L z L z L z L z z z z L f z z z z L f z z z z L f z z z z L f z z z z L L f L z z z z z z z z z z z z z z z z z z f z f z f z f z z z o . . . . . . . . . . . . . . $ Q - L L - L f z f z z L f z f L f z L f L z z z z z z z z z z z z z z z z f L f z z L f L f z z L f L f z z z L z L - $ # # # # # # # # # # # # # # z Q L z z z z L z L z z z L z L z L z z L z L z z L z z z L f z f z z L f z f z z L f z z L f z f z z L f z f z z L f L z L z L z L z L z L z L z L z L z L f z z L z L f z z L z L f L f z f z z L f z f z z L f z f z z z z z z z z z z z z z z z z L z z L f L f z z z L - # # # # # # # # # # # # # # + # # # # # # # # # # # # # # # O # # # # # # # # # # # # # # z z z f z z z L z L f z z L L * L L f z f z z L f z f z L L f z f z z L f z f z L L z n 4 O # # # # # O # # # # # # # $ c L L f z z L f L f z L f z f z z L f z f z z L f z f z c z f z f z f z f z f z f L - L f z f z f z f z f z f z f z f L z L f z z L z L f z z L z L f ",
"f z f z f z f z f z f z f z f z L f z f L z L f z f L z L f z c L z L f z f L z L f z f z L f z L f L f L f L f L f L f L f L f z L z L z L z L z z z o   . . . . . . . . . . . . . & L - L L L z z z L f L z z z L L z z f z z L f L f L f L f L f L f L f L f z z L z z f z z L z z f z z L z f L f z z f # # # # # # # # # # # # # # # z - L - L L z - L L z L z - L L z z L L - z z f L f z f L z z z L f L z z z L f L z z f L z z z L f L z z z L f L z z L z f z f z f z f z f z f z f z f z z z f L f z z z f L f z z z z z z L f L z z z L f L z z z L L f L f L f L f L f L f L f L f L z z f z z L z L z L - # # # # # # # # # # # # # # + # + # # # # # # # # # # # # # # # # # # # # # # # # # # # % f L z L z L f f z z z f L c z L L z z z L f L z z z L z c z L z L f L z z z L z z z z z 4 # # # # # # # # # # # # # # $ L c z L z z f z z L z z z z L f L z z z L f L z z z L L L z L z L z L z L z L z L z L f L z L z L z L z L z L z L z L f z z z f L f z z z f L f z z z ",
"z z L f z z L f z z L f z z L f f L z L f z f L z z z z z z L c f z f L z z z z f L z L L - * L f z z L f z z L f z z L f z z L L f z z L f z z z L 4 o . . . . . . . . . . . . . . : L L z z z L f L z z f z f L z f z z L z z f z z L f z z L f z z L f z z L z z f z z L z z f L f L z z f z z z L - L f # # # # # # # # # # # # # # # z Q - L z z L L z - L - L L z - L z - z f L - z z z f z f z f L z z z L f L z z f z f z f z f L z z z L f L z z f z f - L L f z z L f z z L f z z L f z f L f z z z f L z L z z f L f L f L z z f z f L z z z L f L z f z z L f z z L f z z L f z z L f L f L z z f z L z z z # # # # # # # # # # # # # # + # # # # # # # # # # # O # # # # # # # # # O # # # # # # # $ z f z f z f L z f L f z z c L - f z f L z z z L f L z z L L - L z z z L f L z L f z L L : O # # # # # # # # # # # # # $ L f L f L f L z z f z L f L z z f z f L z z z L f L z - L z z L f z z L f z z L f z z L f z z L f z z L f z z L f L z z f L f z z z f L z L z z f L f ",
"f L z z f L z z f L z z f L z z z z z f L z z z L f L f L z f L L z z z L f L f z z z f z L L z L z z f L z z f L z z f L z L - z z f L z z f L z z z o   . . . . . . . . . . . . . & L z L - L z z f z z L z L f f L z z f L f L z z f L z z f L z z f L z L - L f L z z f L f z z z z L f L z f L z L f f # # # # @ @ # # # # # # # # # z - L z L L - - z L z L z z L L z z L z L z L f L z L z L z L f z f L z z f z z L z L z L z L f z f L z z f z z L z L L L z z f L z z f L z z f L z z z L z z f L z L f z f z z L z z z z f z z L z L f z f L z z f z L z z f L z z f L z z f L z z f z z z z L f L z z z L - # # # # # # # # # # # # # # + # # # # # # # # # # # # # # # # # # # # # # # # # # # # # # f L z L z z z z L z z L - L z L L z L f z f L z z f z L * z L f z f L z z f z z z z z z 4 # # # # # # # # # # # # # # $ z z z z z z z L f L z z z f z z L z L f z f L z z f z f L f L z z f L z z f L z z L z L z f L z z f L z z f L z z - L z L z z f L z L f z f z z L z z ",
"z f z z L f z f z f z z L f z f z L f z z L f z z f z f f n z L f z z z L z L z z L f z z L L L f L f z z L f L f L f z L z L L L z L f z z L z L L - o . . . . . . . . . . . . . . $ L z L z L L f z f L - z L z z L - L z z L f L f z z L f L f L f z L z L L f z z L f z z L z z z z f L f z - L z z R - $ # # # # # # # # # # # # # # z L z L z L z L f z z z L z - - L L z L f z z L f z z L z L z z f z z L f z f z L z z L z L z z f z z L f z f z L z z - z z L L f z f z f z z L f z f L f z z L f z z z f z f L z L f L f z f L - z L z z L f z z L f f L f z z L f L f L f z z L f L z z z z f L f z z L z : # # # # # # # # # # # # # # + # # # # # # # # # # # # # # # # # # # # # # # # # # # # # $ R f z z L f z L f z z L f L f L z L z z f z z L f z f L * z L z z L f z z L f L z L f L : O # # # # O # # # # # # # # % f f z z z z z f L f z L f z f z L z z z z L f z z L f z L - L z z L z L z L f L z z L f z z z z z L z L z L f - L z z L f z z L f z z z f z f L z L f ",
"z L f L z z z L z L f L z z z L z f L z z f L z z L z L z n z L L z L f z L - z z f L z z f * L z z L z z f z z z z L z - L z z f z z z f L f z z z f o . . . . . . . . . . . . . . : L L - z z z L z L z L z z f L c L L z z f z z L z z f z z z z L z - L z z L z z f L z z f L f L f z z L z L z L z L - # # # # # # # # # # # # # # # z L - f z f z z L f L L - z L L z z L z z f L z z f L f z f z z L f L z z z L L - L L f z f z z L f L z z z L L - L L L L L - z z z L z L f L z L z L z z f L z z f L z L z L f z z z z L z L z L z z f L z z f L z z z z L z z f z z z z L z L - z z L f L f z z L z z L L z # # # # # # # # # # # # # # + # # # # # # # # # # # # # # # # # # # # # # # # # # # # # $ z L z z f L z z z f L z z L - c z f z z L f L z z z L L L z z f L z z f L z z f z z z z : O # # # # # # # # # # # # # $ z L z L f L f z z L z z z z L L - L L f L z z f L z z L c z z f L f z f z z z z L L - L f f L f L f z f z z z L z L z z z f L z z f L z L z L f z z z ",
"L z z z L f L z L z z z L f L z z z z z z z z z L f z z z f z L f z f L z L z L z z z z z z L z z z f z z L z z z z f z z z - L z f L f z z z L z z f o . . . . . . . . . . . . . . & L z z L - L - z L L z - L z f L z f L f L z z f z z L z z z z f z z z - L f L f L f L f L f z z L z z f z L z L z - L # # # # # # # # O # # # # # # z L L z z L f L z z z z L L - z L L - L z L z L z L z z z L f L z z z L f L z z z L z z z L f L z z z L f L z z z L z L - z L L f L z L z z z L - z z L z L z L z L z L f z z z f L f L - z L L z - L z f z f z f z f z z f z z L z z z z f z z L L - f z z L z z f z z z z u $ # # # # # # # # # # # # # + # # # # # # O # # # # # # # # # # # # # O # # # # # # # # $ f z z z z z z L z L z L z L L L - L f L z z z L f L z z L - L z f z f z f z f z f L f z 4 O # # # # # # # # # # @ @ O $ L c z f z z L z z f z L f L z z z L z z f z f z f z f z c L f z z z f z f L f L - z L z z n z z z z f z f L f L z L z L z L z L z L z L f z z z f L f ",
"f z f L z z f z f z f L z z f c L f L f L f L f z z f L z L z c L z z z L - L - L f L f L f c z L f L z z f L f L f L z L z L z z L z z f L z z z z z o . . . . . . . . . . . . . . $ L L L z L z z L - L z L z z L f z z z z z L f L z z f L f L f L z L z L z z z z z z z z z L z z f L f L z z L - L L - $ # # # @ # # # # # # # # # # z L z f L z z f z f L z L z L z z z z f z f z f z f z f L z z f z f L z z f L - L - L f L z z f z f L z z f L - L - L L L z z z z f z f z f L z z L z f z f z f z f z z z f L z L z z z z L - L z L z z L z L z L z L L f L z z f L f L f L z z L z L L z z f L f L z L z n u # # # # # # O # # # # # # # + # # # # # # # # # # # # # # # # # # # # # # # # # # # # # $ f L f L f L f f z f z f z c z L L z z f z f L z z f L L * L z z L z L z L z L z L z z L 4 O # # # # # # # # # # # # # $ L L f L z z f L f L z z z f L - L - L z L z L z L z L L L z z f L z L z L z z z z L - L f R z f L z L z L z z z L - z f z f z f z f z z z f L z L z z ",
"L f L L - L L L L L z L L - L L L L L L L z L L L c L L L L z L L z L L L - L L L L L L L z L - f z L z L L z L z L - z L - L L L f L L z L L z - L - o . . . . . . . . . . . . . . $ L - L L L z L - z L - L L - z L z L L z z f z L z L L z L z L - z L - L L L z - L - L z z f z - L L - L L - L z - L - # # # # # # # # # # # # # # # - L - z z z L - z L - L z L L z z L L z L L L L L z z z z z z z L - z L L z L z L - z z z L - z L - z L L z L z L - z z z - L z - L z L z L L z L z f z L z z z L L z L f z z L L z L z L - z L - L L L L z z f L L - f z L z L L z L L z L L z L L z f z L z L z L L z - L - # # # # # # # # # # # # # # # # # # # # # # # # # # # O # # # # # # # # # # # # # # # # # L L L L L L L - L L L - L R - f z z L - z L - - L z - L L f z - L L L L L - ! L c L L - : O # # # # # # # # # # # # # $ z L - f z z L - z L - - L z L - L L z L L z L L L z z - L f z z z z L - L z - L z z L c z z z L z L f - L z z z L L L L L z z z L L z L f z z L L z L ",
"f - z z z - c - z z - z - L - L - z - z - z z z f f z z z - c * z z - z - L z z - z - L - z L L L L L - - L L - z L L L L L - L z L - L L - - L L L z o . . . . X . X . . . . . . . : Q Q - Q - z L L L L L - L L L - L L - L L L L L - - L L - z L L L L L - L - L L z L z L f z L L z z L L z L L L L L z $ # # # # # # # # # # # # # $ - L L L L L L L L L L - L L - z L - L L - L - L - L L L L - L z L L L - L L - z L L L L z L L z L L L - L L - z L L L - L L L L L - Q - L L - - L L L L - L L L L - L z L L L L - z z z L L L L L - L L - L L L z z L L L L - - L L - - L L - z z L - L z L L - L L - L L L - # # # # # # # # # O # # # # $ # # O # # # # # # # # # # O $ # # # # # $ # O # # # # # # $ z - - - - - - L L - - L L - - z L z L L L L L L L L L L z z z L L - - - - L - f - z z L & # # # O # # # # # # # # # # & z L L L L z L L L L L L L L z L L L - L - L L L - L L L L L z L L L - L L L L L L L L L n z L L z z L L L L L L - - L z - L L L L - L z L L L L - - L ",
"# # # $ $ # # # $ # # # # # $ # # # # $ # # # # # # # # # $ # # $ # # # # # # $ # # # # # z L z - z L L L z L z L f L z L z z z z L z z z L L L z z z o . . . . . . . . . . . . . . % - L - - L L f L z z L z z L c - L - L f z - z L L z L L z L f L z z L z z L L z L L z z L L L f L - L - L z z z f L z # # + + O + + + O # # O # # # - L L - L z - z L z L z L z z z - L z z L z L - L L f L z L z L f L z L z L z L f L z L z z z L f L z L z L z L f L z L z L z L z L z z L z z L z z z z z - L - L z z z z L z z f L - L f L z z L z z - L L f z L z L - z L L L z L z z L z z L z L L z z - L z L z z z z z z f 4 - - 4 f z z - f f - 4 f f f - f f - z f z f L f - f * - z - - - z f - f f - L f f f - # # $ # $ # $ # # # $ # # # & z - L f z L z L f z f L - L : @ # # # $ # $ # # # # # $ @ $ L f f f f - z z f f L f - f - L z L z L f L z L z L z z f L - z L L - L L - - L f z - L - z L z L z z z z f - L z - L L c f z L z L z z z f L - L z z L - L - L z z z z L z - L L z ",
"# # # # @ # # # # # # # # # # # # # # # # # # @ # # # # # # # # # # # # # # # # # # # # # f L z L z z z z L - L z z f z - L L z L - L z L - L z L z f o . . . . . . . . . . . . . . $ Q z L z L z z f z L - L z - f L z L z L z L z z z L - L z z z f z L - L z z z L - L z z f z z z z L z z L f L z L z - # # O $ # # # # O # # # # # # z - L L z z L z z L - L - L z z L z L L - z L z z z z f z f L z z f z z L - L z z f z f L - L z z f z z L - L z z f z L z - L z L - L z f L f z L L - - L L z z L f L L z f z z L z L z z f z L - L z z z z z L - z f L z z z z L - L z f L f - L z z L L z z z f L f L L z z f L L L z L L z L L z L z L L y L z L L L z z L L z z L R L L L L L L L L z L L L L z z - # # # # # # # # # # # # # # $ z L z L z z L - L z z z L L : O # # # # # # # # # # # # @ $ L L z L z L R L z z L L L - L z z f z z z z z z L - f L z z L z z z z z z z L z L z L L L f z L - L f L z L L z z L z z z L z z L - f L z L z L z L z z L z z L f L L z f z L z z L ",
"# # # # @ # # # @ @ @ # # # # # # # # # # # # # # # # # # # # # @ # # # # # @ # # # # # # z z L z z z z z L z L L f z f L z L z z f z f z - L z L z - o . . . . . . . . . . . . . . : L L L - L L f z f L z L z L z L z f z z z f L f L z - L z L f z f L z L z L z L z z L f L z z z z z z L - z z L z L L $ # O O # # # # # # # # # # # z L z L z L z L z L z z L - L L z L z z z L - L f z f z z L f z z L f z L z L - L L f z z L f z z L f z L z L z z L f L z L z z L z L z L f L z z z z L L f z z z L z z f z f L z L f L f z f L z L z L L - L z L f L z z z z z L z L z L f L z z z z - L z L f z z L f z L z z L z L z z L z z L f z z z z L f z z z z z z L L f z f L z L z z f z z z z L z z L L z - # # # # # # # # # # # # # # $ L z L z L z L z f z z z z L : O # # # # # # O # # # # # @ $ L z L f z f L z L z z L z z z L f L z z z z L z L z f z z z f L f L L L - L f z z z z c f L z L z L z z L z z f z f L f z f L z L f z z L z z f z f L z L f z z L z z f z f z z L - ",
"@ # # # # # @ # @ # # # # # # # # # # # # # # # # # # # # # # # # # # # # @ @ # # # # # # z z z L f L f L - z z z z z L f z f z z L z L z L z L - L z o . . . . . . . . . . . . . . $ L z z L z z z z L f z f z L z * L L z L f z z z z z L z L z z z L f z f z - L L z z f z z L f L f L z z L f L f z - - # # $ O # # # # # # # # # # # z L z f z f z - L L z z L L z z z f L L z z L z z z L f L z z f L z z L - z L L z z z f L z z f L z z z z L - - L z z L L - z L - z z z f z z L f L f z z L z f L f z z L z L f z z z z z z L f z f z z z L z z f z z L f L f L - z z z f z z L f L f L z z f L z z f L z z z z z L - z L z z L - L z z L f L z z f L z L z z z z z L f z f z z L f L f L f z z z z z : # # # # # # # # # # # # # # $ f z f z - L L z L z L f L L : O # # # # # # # # # # # # # $ L z z z z L f z f z z z f L z f z z L f L f - L L z L z L f z z z z z z L z L z L f z L z z L - z f f L f z z L z L f L z L - L z z f L f z z L z L - L z z f L f z z L z L L z z L ",
"# # # # # # # # # # # # # # # # # # # # # # # # @ # # # @ $ # # # # # # # # # # # # # # # z L z f z z L z z L - L f L z z z L f L f z z z L z L L z - o . . . . . . . . . . . . . . $ L L z z z L f L z z z L f L L L L f z f L z L f z f L z L L f L z z z L f z z - L z L z z f z z L z L L z z z L - L * # O # # # # # # # # # # # # # z L z z z L f L z - L L z z L z L L - z L L z L f L z z f z f z f z f z z L z z - L f z f z f z f z f L z L L L f z f - L z L z z L - z L z z f z z L z z f z z z z f L f z z z f L f L f L z z z L f L z z z z L z z f z z L z z L - z L z z f z z L f L f L f L f L f L f L L z L L z z L L z z z z z z L c L z L z z f L f L f L z z z L f L z z z z z z f L - z L - # # # # # # # # # # # # # O $ z z L f L z - L f z L z z L : O # # # # # # # # # # @ # @ $ L z L f L z z z L f L z z z z L z z f z z L z z - L f z f L z L - L L z z z f z - L L * f z f L z L z z z f L f z z L f z z z f L f z z z f L f z z z f L f z z z f L f z z z f L f ",
"# # # # # # # # # # # # # # # # # # # # # # # # # # @ @ @ # # # # # # # # # # # # # # # @ - L f L z L - L L z L z z f z f L z z z z f L z z L - L L - o . . . . . . . . . . . . . . & L z L - L z z f z f L z z f - L z L z z z z f L z z z L - z z f z f L z z L f L z z f L f L z z f L - L z f L z L L L $ $ O # # # # # # # # # # # # - L z f L z L - z L z - L z z L - z z L - L z z z f z z L z L z L z L L z - L z L z L z L z L z L z L - L z z z L z L L L L - L L z L z f L f L z z f L f L z f L z L z z f L z L z z z z f z f L z z f L - L z f L f L z L - L L z L z f L f L z z f z z z z z z z z z z z z - L z z L z z z L f L f L z z L f z f z z L z z z z f z f L z z f z f L f L z L z L z L : # # # # # # # # # # # # # # $ f L z L - z L z L z z z z L : @ # # # # # # # # # # @ @ @ $ L z z z f z f L z z f z f L z f L f L z z f L f L z L z z z z f L z z L - L L z L z L L L z z z z f f L z L z z f L L z f L z L z z f L z L z z f L z L z z f L z L z z f L z L z z ",
"# # # # # # # # # # # # # # # # $ + + # O # # # # # # # # # # # # # # # # # # # # # # # # - Q - - L z z L - L - L f z z L f z f L z L f z z L z L f f o . . . . . . . . . . . . . . : - L - L z z L z L f z z z z L L L z L z L L f z f z z L f z f z z L f z f f z z L f L f z L f z f z z L f z f z z z - # # # # # # # # # # # # # # # z L - L L z z z L f L f z z L z - L z L f z f z z L f L z L z L z L z L z L z L z L z L z L z L z L z L z L z L z L z - L L z z L z L z L f L f z z L f L f z z L f L f z z L f L f z L f z f z z L f z f z z L f z f z z L f z f z z z L f L f z z L z f z f z f L - L z z L z f z f L z L z L z L z L z f L L z L z L f z z L z L f z z L z L f z z L z L f z z L z - O # # # # # # # # # # # # # $ L L z z L f z f z z L f z L & O # # # # # # # # @ # # # @ $ Q z z L z L z z z L z z L z L f z z L z L f z z L z L z L f z z L z L f z z L z L f L * L z L - z z L z L f z z L z f z z z z z L z L f z z L z L f L f z f z z L f z f z z L f z f ",
"# # # # # # # # # # # # # # # # O # @ @ # # # # # # # # # # # # # # # # # # # # # # # # # - L L L z L z z L z z z L f L z z z L f z z z f L f z z z z o   . . . . . . . . . . . . . : Q z z z L L - z f L z L f z f * L L - z f z z z L f L z z z L f L z z z L L z z f z z L z z z z L f L z z z L f L L z $ # # # # # # # # # # # # # # z L z z z - L z f z z L z z f z L z L z z z L f L z z f z f z f z f z f z f z f z f z f z f z f z f z f z f z f z f z L z z L L - z z z f z z L z z f z z L z z f z z L z z f z z L z z z z L f L z z z L f L z z z L f L z z z L f L z f z z L z z f z L z L z L z L - z L - z L z L f z f z f z f z f z z f f z f z z z f L f z z z f L f z z z f L f z z z f L f z - O # O # # # # # # # # # # # $ L z z L z z z L f L z z z L : O # # # # # # # # # # # # @ $ - z z z L - z L L - f L f z z z f L f z z z f L f z f z z z f L f z z z f L f z z z z c L z z L f L f z z z f L f z L f f L f L f z z z f L f z z z z z z L f L z z z L f L z z z L ",
"# # # # # # # # # # O # # # # # # # # # # # # # # # # # @ # # # # # # # # # @ # # # # # # - L - L z L z L L - L L z z z L f L z z f L f z z z f L z - o . . . . . . . . . . . . . . & - z L z z f L z L f z f L z z L z f L z L L f L z z f z f L z z z L f L z f L f L z z f z L f L z z f z f L z z z L - # # # # # # # # # # # # # # # z L L - L L z z L z z f L f L z L z L L f L z z f z f z z L f z z L f z z L f z z L f z z L f z z L f z z L f z z L f L L z - z z L - z L z z f L f L z z f z z L z z f L f L z z f z L f L z z f z f L z z z L f L z z f z f L z z z z L z z f L f L L f z z L f z z L z z L L f z z z z L f z z L f z z z L z z L f L z L z z f L f z z z f L z L z z f L f z z z f - + # # # # # # # # # # # # # $ f L z L L f L z z f z f z L : O # # # # # # # # # # # # @ $ L z L z L L L - z L z z z f L z L z z f L f z z z f z f L f z z z f L z L z z f L f z L L - L z L z z f L f z z z f z z n z z z z f L z L z z f L f L f L z z f z f L z z z L f L z ",
"@ # # # # # # # # # # # # # # # # # # # # # # # # # O # # # # # # # # @ # # # # # @ # # # - Q L z L - z z z L z f z f L z z f z z L z z f L z L f z f o . . . . . . . . . . . . . . & Q L - L L z z z f L z z z L f c z z z z f z z f z z L z L f z f L z z f z z z z z L f L z z z f z z L z L f z f L L - $ # # # # # # # O # # # # # # z z z L z z L z f L f z z z z z z L - z z f z z L z L f L z z f L z z f L z z f L z z f L z z f L z z f L z z f L z z - L z L L L z L z f L f z z z z L f L z z f L f z z z z L f L z z z f z z L z L f z f L z z f z z L z L f z f L z f L f z z z z z z f L z z L z z L z L z z f L f L z z f L z z f L f L f L z z f z f z z L z z f L z L f z f z z L z z f L z L - + # # # # # # # @ # # # O # $ z z L - z z f z z L z L L L : O # # # # # # # # # # # # @ $ L L - L z z z L z z f L z L f z f z z L z z f L z L z L z z f L z L f z f z z L z z f L z L f z f z z L z z f L z L L f R z f L z L f z f z z L z z z z f z z L z L f z f L z z f z ",
"# O # # # # # # # # # # # O # # # # # # @ + O # # # # # # # # # # # @ # # # # # # # # # # z Q z z L - L z L L z z z L z L z L f L f z z L f z z z z z o   . . . . . . . . . . . . . & - - Q L z z L f z z L f z L z L - z z z L L f z f L z L z z z L f z z L f z z z z f L f z L f z f L z L z z z L f z - $ # # # # # # # # # # # # # $ - L z z L z L f z z L z L - L L z L z L f z f L z L z z f z z L f z f z f z z L f z f z f z z L f z f z f z z L f z f L z L z - L z z z L f L z z z z f z z L f z z L z z z z f L f z L f z f L z L z z z L f z z L f L z L z z f z z z L f L z z z z L z L f L z z L z L z L z z L z z f z z L f z f z f z L L f z f z f z f L z L f z z L z z f z f L f z z L f z z - # # # # # # # # # # # # # # & z L L f z z L f z f z f z L & O # # # # # # # # # # # # # $ z z z z z z L L - L z z L z z f z f L f z z L f z z L f z z L f z z z f z f L z L f L * L z z f z f L f z z L f z z c z n z z z z z z f z f L z L f L f z f L z L z z z L f z z L f ",
"# # # # # # # O # # # # # # # # # # # # # + $ # # # # # # # # # # # # # # # # # @ # # # # z z z z L L z z z z z f L - L L z z L z z f L z z f L z z u o . . . . . . . . . . . . . . : ! L - - L z f L z z f L z f f L L L f z f z z z L f z f z f L z z f L z z L f L f z z L z z z z L f z f z f L z z L f # # # # O # # # # # # @ # @ # z - L z z L - L z z f z z L z - L L z z z z L f z f z z L f L z z z L z L f L z z z L z L f L z z z L z L f L z z z L L z f z L z - L z f z z L f L f L z z f L z z f L f L f z z L z z z z L f z f z f L z z f L z z f z f z z L f L z f z z L f L f f z z z z L L - L - z z f L f z z L f L z z z L z L z c z z z L z L z L f z z z f L f z z L z L z z f L z z f L - # # # # # # # # # # # # # # $ z f z z f L z z z L z L z L : O # # # # # # # # # # # # @ $ L L L f L f z z L z f L f z z L z L z z f L z z f L z z f L z z f L z L z L f z z z z c L z z L z L z z f L z z f L L z n z z L f L z L z L f z z z z z z L f z f z f L z z f L z z ",
"# # # # # # # # # # # # # # # # # # # # # O # # # # # # # # # # # # # # # # # # # # # # @ - z z L z L - L - z L z - L z - L z - L z L z L z L z L z z o   . . . . . . . . . . . . . & - L L z z z z z z z z z z z z c z f L z L L f L z z z L f z f z f z f z f f z z L z z f z L f L z z z L f z f z f z f # # # # # # # # # # # @ # # # z - z L z L L f L f L L - L z L z - L L f L z z z L f L z z z L f L z L z z z L f L z L z z z L f L z L z z z L f L z - L L f L z L z z L z z f z z L f L f L f L f L f z z L z z f z L f L z z z L f z f z f z f z f z z L f L z z z z L z z f z z L z f L f L - z L z z L - z z L - L z z z L f L z L z z L L f L z L f z z z f L f z z z f L f z z L z L z L z L z - O # # # # O # # # @ @ # # # $ z f z f z f z f L f z z z L : O # # # # # # # # @ # # # # $ z z f z z L z z f z z z z f L f z z L z L z L z L z L z L z L z L z L f z z z f L f z L z f L f L z L z L z L z L z c z z f z z L z L f z z z f L f L f L z z z L f z f z f z f z f ",
"# # # # # # # # O # # # # # # # # # # # # # O $ # # # # # # # # # # # # # # # # # # # # @ - Q L - L L L L L z z L L L z L z z L f z f z f z f z L z 4 o . . . . . . . . . . . . . . % - L - L z L f L f L f L f f L L z z z z f z z f z f L z z z L z L z L z L L z z f L f L z z z f z f L z z z L z L z f # # # # # # # # # # # # # # # z Q L - L z z z z z z z L z L - z L z z z f z f L z z f z f L z z f z f z f L z z f z f z f L z z f z f z f L z z f z L L z z f z f L z f L f L z z z z z z z z z z z L z z f L f L z z z f z f L z z z L z L z L z L f L z z f z f L z f L f L z z f z L z z z z L - L L z L f L z L f z f L z z f L - L L * z z f L z z f L z L z z f L z L z z f L f z f z f z f z - + # # # # # # # @ @ @ @ @ # $ z L z L z L z L z z f L z L - O # # # # # # # # # # # # # $ z z L z z f L f L z f L z L z z f L f z f z f z f z f z f z f z f z z z f L z L z z f L z L z z - L f z f z f z f z L f R f L z f z z z f L z L z z z z f z f L z z z L z L z L z L ",
"O O + + + + + O + + + + + + # # O O $ + + + O O # O O # # # # # + + + + # O # O # # O # # 4 z 4 z 4 u u 4 u u u u 4 4 f z z L z L z L z f L f L z z 4 o . . . . . . . . . .     . . & L L z L z L z L z f L - L z z z L f L f z L f z f z z L f L z L z L z L z f L f z f z z z z z z L L f z f f L - L L - $ # # $ # $ # # $ # # $ $ $ $ - - z z z z z z z z z - z z z z z z z L z L f L f z f z z z L f L f z L f z f z z L f z z z L f L f z L f z f z z L f - z L z L - L f z f z z L f z f z z L z z f z z f z L - L f z z L - L f z z L f L z L z z f z L z f z z z z L z L z L f z L f L L f z z L z L f z z L z L z z z z z L f z f z z z z L z L f L - L z L f L f z f z z L f z z L z L z L z L z L z - # # # $ $ # $ # $ # $ # $ # $ z z z z z z z z f z f f z z : # # $ # $ # # $ # # $ # # # $ L z f z z L f L f z L - L f z z z z L z L z L z L z L z L z z f z L L f z z L z L f L z L f f z z z L z L z f L - L f L z z L z L z L f L f z f z z z L f L f z L f L z L z z f z z ",
"$ O $ # # # # # # # # # # # # # # # O O O $ @ + # # # # # # @ @ # # # # # # # # # # # # + o X X . o X X X X X X X X . o - z f z f z f f z z z z z L f o   . .   . . .     X     X . $ L f z f f f z f f z z L z f L z f z z L z z f z L f L z f f z f z f z f z z z L z L z L f L f z f z f z L z z L z L z z - L - z - - Q - - z - - - - # $ # # # # # # # # # # # # # f L L z - L z z z f z L f L z f z z L z z f z L f L z f f L z f z z L z z f z L f L z f L z L z z z z L z L f L z z z L L L - z z L z f L z z z z L f L z z z L f L z f f L - z z L z - z L f L L - f z f z z z z f z z z z L L - L z z L L - L z z L L f L z f z L f L L - f z z z z z f z z z z z z L z c z z L - f z f z f z f L - z z L z - z - - - - L L - - - - : @ # # # # # # # # # # # # # $ z z z - - z - - L L - L z z f z f L z L - z z L z z z z L f L z f f z f z f L - z f z f z z L z - z z L L - L z z - L f L L z L L f z f f z z L z z f L f f z f z z z z z z L f L z f z z L z z z f z f z z L z f ",
"O O # # # # # # # # # # # # # # # # # # + O $ + # # # # # # # # # + # # # # O # # # # # O X . . . . . . . . . . . . . . : L L f L f L L L c L c L L - o   . . . . . . . . . . . . . $ L L f L L L f L L L c L c - f L L c L c L L L c L L L f L z L L f L f L f c L f L L f z f L z L f L L c L L c L c L L L c L L L L L L Q - L L - Q - # # # # # # # # # # # # # # $ c L c L L L L c L L c L L L f L c L c L L L c L L L f L L z L L c L c L L L c L L L f L L - - L L c L L L c L f L f z f f f L c L c c L c L c c f L f z L c L c L L f L L f L c L f c L L c L f c L f L L L L c L L c L L L c * L L L c L - L - z L L - L L f L L c L f c L L - L L c c f L L c L f c L L - L c c L f L L f L f L f L c L L c c - L Q L L * * L Q L Q : # # # # # # # # # # # # # # $ Q - L Q L L L c L L - L - L L f L c L * L c L c L L c L c z c L L L f L f L f L c L f L f L c c L L L c * L L L c L c L - c L c * L f L L L c L c L f z L L f L c L L c c L c L f z L L c c L c c L f L c L c c L ",
"$ + # # # # # # # # # # # # # # # # # # $ O + + # # # # # # # # # # # # # # # # # # # # # X . . . . . . . . . . . . . . : f L z z z - L z z z z f z f o X . . . . . . . . . . . . . & L z z - L z z - L z z z z L z L f z z z f - L z z f z z z z f f L z z f L z z z f z f L L f f L z - L z z z z z z L - z f - L - L - L - Q - L L L L # # # # # # # # # # # # # # # - L z z f - L z - L z z f z z z z z L - - L z z f z z z f z f z z z L - - L z z f z z z L L z L z L - L - L z z f L z f z z L - L z L z z z z L z f L z z L - L f z z z z z z f L z L z - L z z L z z f f - L z - L z z f z z L f - L z z L z L L - z L f z z z - L z z L z f L f z z L z f L z f L z z L L z z L z z f z z f L z z z f z z z L L L L - z L L z L - L : # # # # # # # # # # # # # @ $ n L L L - - L z z L L L z L - L z z z L L z z L - z L - L z L - L z z f L z z z f z z L - L z L z f z z L f - L z f L z L z z z L z z - L z z z z L z f L z z z f f z z L f L z z z z f L z z z L z z z f L z L z ",
"O O O $ # # # # # # # # # # # # # # # # # # # # # # # # # $ @ # # # # # # # # # # # O # # X   . . . . . . . . . . . . . : L z z L z L f L f z f z z z o   . . . . . . . . . . . . . : - - L z z L z L f L f z f L z L - z L z L f z z z f L f L z z z L z z L z L - z z L f z z z L f z z L f z L z L f z L f L z L z z L - L z - L z - z # @ # # # # # # # # # # # # # L L L f z L f z z L f z f L f L z L z L f z z z f L f L f L f L z L z L f z z z f L f L z z z z L - L - L z z L f z z L L z L f f z z z f L f L z z z L z z L z z f z f L z L f f z z z L z z L f z z L z L f z z L f z f L f L z z z L - L z z z z z z z z z z L L f z L f z c z z z z z L f z z L f z f z z L f z z L L z L f z L f L z L z z L - L z L - L z z z z 4 # # # # # # O # # # # # O # $ z z L z L z z f z L z L z f z z z f L f L z L z L z z L z z f z f L z L f z L f L L z L f f z z z f L f L z z z L L * L z z f z f L z L f L f z f c z z L z L f L z z z z z L f z z z L z z f z f L z L f f z z z ",
"O $ O O # # # # # # # # # # # # O # # # # # # # # # # # # # @ @ # # # # # # # # # # # # # X . . . . . . . . . . . . . . : L z L f z z z z z z L z z u o   . . . . . . . . . . . . . $ Q L z L z f z z z z z z L f f L L L - z f L z L f z z z z L f z f f L f z z L f L z z f L z f L z z f L z - L z z z f z z L - L L L L z L L z L L z # # # # # # # # # # # # # # $ z L z L z f L z z f L z z z z z L - z f L z L f z z z z z z z z L - z f L z L f z z z z - L L z z L z z L z z f L z z f f z z z L z L f z z z z L f z f f L f z z L z L f z z z L z L f L z z f L z z f z f L z z f L z z z z z L f z f L z L z L f L f L f L f z z L z z z z L L f L f z f L z z f L z L z z f L z z f f z z z z f z z L - L L z L z L z z z L L z n : O # # # # # # # # # # # # # $ n z z L - - L L z - L L z L z L f z z z z L - z f f L f z z L z L f z z z z f z z f z z z L z L f z z z z L f z f z c L z z L z L f z z z z z z L L f z f z f z z L f L f z z L z f L f z z L z L f z z z L z L f ",
"# # # # # # # # # # # # # # # # # # # # # # # # # O # # # # # @ # + # # # # # # # # # # # . . . . . . . . . . . . . . . - z z z z f L f L f L z L z z o   . . . . . . . . . . . . . : - L z L z z f L f L f L z z z c z f L z L f z f L z L f z f L z L z z z f L z L z L z L z z z z z z z z z z f L f z L z z f z L z z L z L L z z L z # # # # # # # # # # # # # # # L c z - z z z z z z z z z L f z f L z L f z f L z L f z z L f z f L z L f z f L z L f z Q L z L L L - L f L f L f L f L z f L f f z f L z L f z f L z L z z z f L f z z z f L f f z f L f L f L f L f L z z z z z z z z z L f z f L z L L z L z f z z L f z z L z z f z L f - L f z z L z z z z z z z z f L f L f L f L z f L f z L z z f z L z z L z L z L z L z z R : # # # # # # # # # # # # # # $ z L z L L L z z L L z - L f z f L z L f z f L z L z z z f L f z z z f L f z L z z z f L f f z f L z L f z f L z L z L z f L f z z z f L f L f L z c L z L z L z z f z z L z z f z z z z f L f z z z f L f f z f L ",
"# # # # # # # O # # # + # # # # # # # # # # # # # # # # # # # # # # # # # # # # # # # # # X . . . . . . . . . . . . . . : z L L z L z z z z f z L z u o . . . . . . . . . . . . . . : Q z L - z z L z z z z f z f L L z z z z f L z z z z f L z z z z f f L z L f z f z f z f z L f L f L f L f z L z z z f L f L z - L z z L - z z L L z # # # # # # # # # # # # # # $ z L z L L f L f L f L f z f L z z z z f L z z z z f L z z f L z z z z f L z z z z f L z - L L - z z L z z z z z z z z z z L z z L z z z z f L z z z z f f L z L z z f L z L z z L z z z z z z z z z z z L f L f L f L f z f L z z z z f z L - z L z z f L z z f L f L z z z L c L z z f L f L f L f L f z z z z z z z z z L z z z f L f L z - L z z L - z L z z z L z : # # # # # # # # # # # # # # % z - L z z z L L - - z L z L z z z z f L z z z z f f L z L z z f L z L z z z f L f z L z z L z z z z f L z z z z f f L z L z z f L z L z z z z f z L z z f z f L f L z z f L f L z f L z L z z f L z L z z L z z z ",
"# # # # # # # # # # # O $ O # # # # O O # # # # # # # # # # # # # # # # # # # # # # # # # . . . . . . . . . . . . . . . 4 z z z L f z z L z L f z z z o . . . . . . . . . . . . . . : Q - L z L L f z z L z L f L f L z L f z z L f z z L z L f z z L z L f z z z f z f z f z f z f z f z f z f L z L f z z L z L f z z L z L f L - L L - # # # # # # # # # # # # # # # z f L z f L f L f L f L z z z L f z z z z L f z z z z L f z z z z L f z z z z L f z z z L f z f z f z f z f z f z f z f L z L f z z L z L f z z L z L f f z z z z L f z z z z L f z z z f L f L f L f L f L f L f L f L z z z L f z z z z L L z L L - L L f z f z z L f z f z L z L f L z f z f z f z f z f z f z f z f L z L f z z L z L f z z L z L f L f z f z z R : # # # # # # # # # # @ # # @ $ z z f z f z f z f L z L z L L - L z L f L f z z L f z z L f L f z z L f L f z z L L f z z L z L f z z L z L f z z L c L f z f z z L f z f z z L f f z f f n z z L f z z z z L f z z L f z z z z L f z z z z L f z ",
"O # # # # # # # # # # # # O # # # # $ O # # # # # # # # # # # # # # + # # # # # # @ # # O o . . . . . . . . . . . . . . f z L z z z f L f z z z L z f o . . . . . . . . . . . . . . & - z z L - z z f L f z z z z L f z z z f L z z f L f z z z f L f z z z f L z L z L z L z L z L z L z L z L f z z z f L f z z z f L f z z z z z z L - $ # # # # # # # # # # # # # $ z L f z z z z z z z z z L f z f L z L f z f L z L f z f L z L f z f L z L f z f L z L f z L z L z L z L z L z L z L z L f z z z f L f z z z f L f z z z L z L f z f L z L f z f L z L f z z z z z z z z z z z z z z z z L f z f L z L f z f - L z z L z z z z L f L z z z L z c z f z z z L z L z L z L z L z L z L z L f z z z f L f z z z f L f z z z z z z L f L n : # # # # # # # # # # # # # @ $ Q z L z L z L z L z L - L z z L z z f z z L z z f L z z f z z L z z f z z L z z f z z f L f z z z f L f z z z f L - L z L z L f L z z z L f L z z L z R z z z z z L z L f z f L z z f L z L f z f L z L f z f L z ",
"$ $ O # # # # # # # # # # # # # # # # # # # # # # # # O # # # # # # # # # + # # # @ # # # X . . . . . . . . . . . . . . : z z z L z L z z f L f z z 4 o . . . . . . . . . . . . . . $ L L z L L L z L z z f L f L - L L L z L z L z L z z f L f z z z f L z L z L f z z L f z z L f z z L f z z z f L f z z z f L z L z z f L f z L z L z # @ # @ # # # # # # # # # # # L c L f z L f z z L f z f L z L f z f L z z z z f L z L f z f L z z z z f L z L f z f L L z z z L f z z L f z z L f z z z f L f z z z f L z L z z f L f f z f L z z z z f L z L f z f L z L f z z L f z z L f z z L f z f L z L f z f L z z z z L z z z L f L z z f z f L z z L z L z z L f z z L f z z L f z z L f z z z f L f z z z f L z L z z f L f L f L z z f L : # # # # # # # O # # # # # # $ z L f z z L f z z z L z z z z f z z L z z f L f L f L f L z z f z z L z z f L f L L z L z z f L f z z z f L z L z L c z - L z z z L f L z z f z f c z z z z f L f f z f L z z z z z z z z f L z L f z f L z z z z ",
"O O O # # # # # # # # # # # # # # # # # # # # # # # # # # # # # # # # # # # # # # # # # # X . . . . . . . . . . . . . . 4 z z L f z f z z L z z z z z o   . . . . . . . . . . . . . : L - L z z f z f z z L z z z z c - f z f z f z f z z L z z f L z L f z f z z z f L z z f L z z f L z z f L z L z z f L z L f z f z z L z z L - L L - $ @ @ # # # # # # # # # # # # - L z z z f L z z f L z z z z f L z z z L f L f z z z f L z z z L f L f z z z f L z z z L z f L z z f L z z f L z z f L z L z z f L z L f z f z z L z z L z z z L f L f z z z f L z z z z f L z z f L z z f L z z f L z z z z f L z z z L f L z z L - L z z f z z L z L - L L * z f L f z z f L z z f L z z f L z z f L z L z z f L z L f z f z z L z z z z f z z L z 4 # # # # # # # # # # # # # # $ L z z f L z z f L L - L z L f L z z f L f z z z z z z z z L f L z z f L f z z z z f z f z z L z z f L z L f z f z z L z L f z f L z z f z z L z L L f L f z L z z L z z z L f L f L f L f z z z f L z z z L f L f ",
"# # # # # $ O O # # # # # # # # # # # # # # # # O $ + @ @ @ @ @ # # # # # # # # # # # # # . . . . . . . . . . . . . . . : L f L z f z f L z L f L z f o . . . . . . . . . . . . . . & Q f L f L z f z f L z L f z z L L f L f L z f z f L z L f z z L z z f z f L z L f z z L z L z L f z z L z L f z z L f z z z f z z L z L f - L z - - $ # # # # # # # # # # # # # # z L - f z z z L f z z z z L f z z L f z f L f L z z z L f z z z f L f L z L f z z L f z L L z z z z L z L z L f z z L z L f z z L f z z z f z f L z L f f z z z f L f L z L f z z L f z z z z L f z z z z z z L f z z z z L f z z L f z z z L - z L z L L f z f L z L z L z L L f z z L L z L f z z L z L z L f z z L z L f z z L f z z z f z f L z L f L f z f z z R : # # # # # # # # # # # # # # $ L L z L f z z L z z z z z f L f z z L f L z z z z z z z z f L f z z L f L z z z z z f z f L z L f z z L z z f z f z f L z z f z z L f z f L z L z L z n L L z L f f z z z f L f L f L f L z z z L f z z z f L f L ",
"# # # # # O # # # # # # # # # # # # # # # # # # # # + @ $ O $ O # # # # # # # # # # # # # . . . . . . . . . . . . . . . : z z z z L z L f z z z z z f o   . . . . . . . . . . . . . & - z z z z z L z L f z z z f L c z z z z z z L z L f z z z f L f z z L z L f z z z f L f z f z z z f L f z z z f L z z f L z L z z f z z z L z L L z # # # # # # # # # # # # # O % z c L L L f z f L z L f z f L z z f L z z z z z L f z f L z L f z z z z z f L z z f L z - L - L f L f z f z z z f L f z z z f L z z f L z L z L f z z z L z L f z z z z z f L z z f L z L f z f L z L f L f z f L z L f z f L z z f L z L L z L L - z f z z z L f z f z f L - L L z z f f z z z f L f z f z z z f L f z z z f L z z f L z L z L f z z z z z z L L z z : # # # # # # # # # # # # # O $ L f z z z f L f z L f L f z z L z z f z z L f L f L f L f z z L z z f z z L f L f z L z L f z z z f L f z z L z L z L f z z L f L z z z L f z f z L z n z f z z z L z L f z z z z z z z z L f z f L z L f z z z z ",
"# # # # # # # # # # O # # # # # # # # # # @ # O @ @ O # + @ O O # # # # # # # # # # # # # o . . . . . . . . . . . . . . f f f z L f z z z f L f z z z o . . . . . . . . . . . . . . $ L z L f z L f z z z f L f z z c L z L f z L f z z z f L f z z z f L f z z z f L f z z z f z f L f z z z f L z L z L z L z L f z z z z L f L z - L - # # # # # # # # # # # # # # # z L f L f L z L f z f L z z z z z z z z z L f z f L z L f z f L z L f z z z z z z z z z - L L z z z z f z f L f z z z f L z L z L z L z L f z z z f L f f z f L z L f z z z z z z z z z f L z L f z f L f L z L f z f L z z z z z z z z - L z z f L z L L f L z z z L f z f z c f L f L z f L f z z z f z f L f z z z f L z L z L z L z L f z z z f L f L f L z z z L : # # # # # # # # # # # # # # $ z z f L f z z z f f z z L z z f z z L z z f z z L f z z L z z f z z L z z f z z L L f z z z f L f z z z f L f z z L c L f L z z z L f L z z z L f L f n z z f L f f z f L z L f z z L f z f L z L f z f L z L f z ",
"O # # # # # # # O O $ # # # # # # # # O # + + $ + + $ # @ @ + + O O # O # O O O O @ O O O o . o . . o . o . X X . o . X 4 z L z z z f L z L z z z z f o   . . . . . . . . . . . . . & L z f L z z z f L z L z z L - L z z f L z z z f L z L z z f L z L z z f L z L z z f L z L z L z z f L z L f z f z f z - f f f f f f f f f L - z L z $ # # # # # # # $ # # # # O % f L z z z z z f L z z z L f L f L f L f z f L z z z z f L z z z z f L z L f L f L f L f L z z L f L z L z L z z f L z L f z f z f z f z z z f L z L z z L z z z z f L z L f L f L f L f z z z f L z z z z z z f L z z z L f L f L f L f L z L z z z z f z z f z f L z z z L z L z z z z z L z z f L z L z L z z f L z L f z f z f z f z z z f L z L z z z z f z f L L : # O # # # # # # # # # @ # # $ L z L z z f L z L L z z f L f L z z f L f L z z f L z z f L f L z z f L f L z z f z z f L z L z z f L z L z z f L - L z z f z f L z z f z f L z z L z f L z L z z L z z z z f L z z f L z z z z f L z z z z f L z ",
"$ # # # O $ O # # # # # # # # # # # # # # # # # # # # # @ @ o X . . . o . . . o . . o . . : L - L - z z - f f f f f f f f z z z L z L f z z L z L z - o   . . . . . . . . . . . . . % f f z z z L z L f z z L z L L f z f z z z L z L f z z L z L z L f z z L z L f z z L z L f z z L z L f z z L z z L L L $ # @ @ # # # # # $ # # # # $ - z z y f f f f f f f n z f z n z L z f z z z z L f z f L f L f L f L z L f z z z z L f z z z z L f z f L f L f L f L L L z L z - L z z z L z L f z z z f z f z f z f L f z z L z L f f z z z z L f z f L f L f L f L z L f z z z z L f z z z z L f z f L f L f L f L z z z z L L z z L f z f z z L f L z L z z f z f L f z z L z L f z z L z L f z z z f z f z f z f L f z z L z L f z z L z L f z : # # # # # # # # # # # # # # $ L z z L z L f z z f L f z z L f L f L f z z L f L f L f z z L f L f L f z z L f L L z L f z z L z L z L f z z L z L f z z L f z f z f z z L f z f f L z z f z z z z z z L f z z z z z z L f z z z z z z L f z z z ",
"O O # # # # O # # # # # # # # # # # # # # # # # # # # # @ @ o X . . . . . . . . . . . . o : z L z L z L L z z z z z z z L z L f f z z z f L f z f z z o . . . . . . . . . . . . . . % R L z L f f z z z f L f z z z L z L z L f f z z z f L f z f z z z f L f z z z f L f z z z f L f z z z f L - z L - L - # # # # # # # # # # # # # # # z L z n z f L z z f L z L f L z z L z L z L f z f L z z z z z z z z z z f L z L f z f L z L f z f L z z z z z z z z z L z L - z L z L f L f z z z f L z L z L z L z L z z f L f z z z L z L f z f L z z z z z z z z z z f L z L f z f L z L f z f L z z z z z z z z z - L L z z z - L z z z L f L z z f L - c z L z L z z f L f z z z f L f z z z f L z L z L z L z L z z f L f z z z f L f z z z L : # # # # # # # # # # # # # # $ z f L f z z z f L z z L z z f z z z z L z z f z z z z L z z f z z z z L z z f z z f z z z f L f z f z z z f L f z z L f L z z z L z L f L z z z L z z f L L z L f L f z f L z L f L f z f L z L f L f z f L z L f ",
"# # # # # # # # # # # # O O # # # # # # # # # # # # # # @ O X . . . . . . . . . . . . . . - L z f L z L f z f L f L z L f z f L z f L f z z z f L z f o   . . . . . . . . . . . . . % f f z f L z f L f z z z f z L c z f z f L z f L f z z z f z f L f z z z f L z L z z f L f z z z f L z L z L z z L - L # # # # # # # # # # # # # # # z L z z z z z z z z z z z L z L z z z f z f L z z z z z L f z z L f z z z z z f L z L f z f L z z z z z L f z z L f z L z L L f L z L z z z f L z L z L f z z L f z z L z L z z f L f f z f L z z z z z L f z z L f z z z z z f L z L f z f L z z z z z L f z z L f z L z z L - L L z L f L z z f z f z z z L L f z z L z L z z f L f z z z f L z L z L f z z L f z z L z L z z f L f z z L - L z L : O # # # # # # # O # # # # # $ Q z z z f L z L z z z f z z L z z z z f z z L z z z z f z z L z z z z f z z L z z z f L f z z z f z f L f z z z f z f z z L f L z L z z z L f L z L z z z f z f L f L z L f z f L f L z L f z f L f L z L f z f L ",
"# # # # # # # # # # # # $ O # # # O # # # # # # # # # O @ O X . . . . . . . . . . . . . . : L L z z L - L z z z z z z f L z z z z L z z f L z L z z z o . . . . . . . . . . . . . . & z L z z z z L z z f L z L z L * L L z z z z L z z f L z L z L z z f L z L f z f z z L z z f L z L f z f z z L z L L - $ # # O # # # # # # # # # # # L L z z z f L z z f L L z f z z z f L L z z z L f L f z f L z z f L z L f L f z z z f L z z z L f L f z f L z z f L z - L z z z z L - f L z L f z f z z z f L z z f L f z f z z L z z L z z z L f L f z f L z z f L z L f L f z z z f L z z z L f L f z f L z z f L z z L L - L z z L z z f z z L z L f L f L z z f L f z f z z L z z f L z L f z f z z z f L z z f L f z f z z L z z f L z L f z L : # # # # # # # O # # # # @ @ $ z f L z L f z f z L f L z z f L f L f L z z f L f L f L z z f L f L f L z z f L f z L z z f L z L z L z z f L z L z L f L z z f z f z f L z z f z c z f L L z z z z z z f L z z z z z z f L z z z z z z f L z z z ",
"# # $ O O # # # # # # # # # # # # # # # # # O # # # # # # + X . . . . . . . . . . . . . . * L - z L f z z L f z z L f z z L f z L f z z L f z z z L z o   . . . . . . . . . . . . . & z - L - L L f z z L f z z L - L f z L f z L f z z L f z z L f z z L f z z z f z f L z L f z z L z z f z f z L z L L - # # # # # # # # # # # # # # # z L z L L z z z z L z L - z L z z L z f z z z f L f L z z z L f z z z f L f L z z z L f z z z f L f L z z z L L z z L L L f L z z z L z z L z z f z f L z L f z z L z z f z f L z L f f z z z f L f L z z z L f z z z f L f L z z z L f z z z f L f L z z z L f z z z z L z z z z z L L f z f L z L z z f z L z z L z z f z f L z L f z z L z z f z f L z L f z z L z z f z f L z L f - L z z L z z 4 # # # # # # # @ # # # # # # $ L z z L z z f z f f z z L f z z L f z z L f z z L f z z L f z z L f z z L f z z L L f z z L f z z L f z z L f z z L c L f z z L f z z L f z z L f L f R f f z f z z L f z z L f z z L f z z L f z z L f z z L f z ",
"# # O # # # # # # # # # # # # # # # # # # # # @ # # # # @ + X . . . . . . . . . . . . . . * L L z f L z z f L z z f L z z f L z z z f L z z f L z f 4 o . . . . . . . . X . . . . . & z L z L z z z f L z z f L z L L - z f L z z z f L z z f L z z f L z z f L z L z L f z z z f L f z z L z L L - z z z z # # # @ # # # # # # # # O # # - L z z z f L f L f z z L z z L z L z L z L f z z z z L f z f L z L f z z z z L f z f L z L f z z z z L f z f z L L - - z z z L f z f f L f z z L z L f z z z f L f z z L z L f z z z L z L f z z z z L f z f L z L f z z z z L f z f L z L f z z z z L f z f L z L f L - L L L f z f z z z L f z f z z L z c f L f z z L z L f z z z f L f z z L z L f z z z f L f z z L z L f z z z L z L z z z n : # # # # # # # # @ # # # # # $ z f L f z z L z L L z z f L z z f L z z f L z z f L z z f L z z f L z z f L z z f z z f L z z f L z z f L z z f L - L z L f L z z f L z z f L z z L z z z z z L z z f L z z f L z z f L z z f L z z f L z z f L z ",
"# # # # # # # # # O $ # # # # # # # # # # O $ @ # # # # # + X . . . . . . . . . . . . . o - L L z z z z z z z z z z z z z z z z L z L z L z L z z z f o   . . . . . . . . . . . . . % L z - L z L z L z L z L z L z L L z z z z L z L z L z L z L z L z L z L z L f z z z f L f z z z f L f z z z f L - z z # # # # # # @ # # # # # # # # z L z L z z z z z z f L f - L L z z z f z f L z L f z f L z L f z f L z L f z f L z L f z f L z L f z f L z L L - z L L L f z f L z L z z z f L f z z z f L f z z z f L f z z z f L f f z f L z L f z f L z L f z f L z L f z f L z L f z f L z L f z f L z L - L L z z z z z f L z L L f L z z z L f L z z L z z z f L f z z z f L f z z z f L f z z z f L f z z z f L f z z z f L f L z z z z L z 4 # # # # # # # # # # # # # # $ Q z z z f L f z z f L f L f L f L f L f L f L f L f L f L f L f L f L f L f L f L L z L z L z L z L z L z L z L z L c z - z f z f z f z f z f z f c z z L z z z z z z z z z z z z z z z z z z z z z z z z z z z z ",
"# # # # # # # # # # O O # # # # # # # # # # + + # # # # # + X X . . . . . . . . . . . . . - L - L f L f L f L f L f L f L f L f f z f z f z f z L f f o . . . . . . . . . . . . . . & z z L z L f z f z f z f z f z c z L f L f f z f z f z f z f z f z f z f z z z f L z L z z f L z L z z f L z L z L L L # # # # @ @ @ # # # # @ # # # z L z f z f L f L z L z z L z z L - L L z z z z f L z z z z f L z z z z f L z z z z f L z z z z f L z z z z f z z L - L z L z z z z f f L z L z z f L z L z z f L z L z z f L z L z z L z z z z f L z z z z f L z z z z f L z z z z f L z z z z f L z z z z f L z z L - L L z z z z f z z f z f L z L - L L * f L z L z z f L z L z z f L z L z z f L z L z z f L z L z z f L z L z z z z L L z z L : # # # # # # # # # # # # # @ $ z f L z L z z f L z z z z z z z z z z z z z z z z z z z z z z z z z z z z z z z z f z f z f z f z f z f z f z f z z L z L z L z L z L z L z L z L L f n z L f L f L f L f L f L f L f L f L f L f L f L f L f L f ",
"O $ $ O # # # + # # # # # # # # # # # # # O @ + O $ $ O + O o . . . . . . . . . . . . . . : L z z f z f z f z f z f z f z f z f z z z z z z z z z z z o . . . . . . . . . . . . . . $ L L z L z z f z f z f z f L z L z z L - L L z L z L z z z f L f L f L f L L f z z L z L f f z z z z L f z z z z L z z # # # # # # # # # # # # # # # L - L L L - L f z z z z L f z z z L - f z z z z L f z z z z L f z z z z L f z z z z L f z z z z L f z z z z L f z z z L z L - L z z L z z L z L f z z L z L f z L f L f z z L f L f z z L f L f z z L f L f z f z z z z L f z z z z L L f z f z z L f z f z z z L f L f z L z z z L - f z z z z L f z z z z L z L f L f z z L f L f z z L f L f z z L f L f z z L f L f z z L f L f z L f z f z z L : # # # # # # # O # # # # # # $ L z z L z L f z z f L f L f L f L f L f L f L f L f L f L f L f L L z L z L z L z z z z z z z z z z z z z z z z z z c z f z f z f z f z f z f z f c L f L f L f L f L f L f L f L f L f L f L f L f L f L f L f L ",
"O O O # # # # # # # # # # # # # # # # # # # @ + O O O O $ O . . . . . . . . . . . . . . o : L L z L z L z L z L z L z L z L z L L f L f L f L f z z u o . . . . . . . . . . . . . . : L f z f L z L z L z L z L - z c L z z L z f z f z f z L L z z z z z z z z z z f L f z z z L z L f z f L z L f z f L - # # # # # # # # # # # # # # # z L z z z L z L z L f z f L z L z z L L z L f z f L z L f z f L z L f z f L z L f z f L z L f z f L z L f z f L z L f L z z z z L L - f L f z z z f L f z z z z f z z L z z f z z L z z f z z L z z f z z L z L z L f z f L z L f z f z z z L f L z z z L f L z f z z L z z z L z z L L z L f z f L z L f z c z f z z L z z f z z L z z f z z L z z f z z L z z f z z L z z f z z L z z z z L f L L : # # # # # # # # # # # # # # % z f L f z z z f L z z z z z z z z z z z z z z z z z z z z z z z z f z f z f z f z L f L f L f L f L f L f L f L f L L z L z L z L z L z L z L z L L z z z z z z z z z z z z z z z z z z z z z z z z z z z z z z z ",
"# # # # # # # # # # # # # # # # # # # # # # O $ # # O $ O O . . . . . . . . . . . . . . . : z z L f z z L f z z L f z z L f z z f z z L f z z L L z z o   . . . . . . . . . . . . . & L z z L - L f z z L f z z L z L - L - L z z z L f z z z z z L f z z L f z L z L z z f L f f z f L z z z z f L z L L z $ # # # # # # # # # O # # # # f L L L z z z f z f L z z z z z L L z f z f L z z z z f L z L f z f L z z z z f L z L f z f L z z z z f L z L f z f L - L - L f L z L z z z f L z L z z f L f z L z z f L f L z z f z z L z L f L f L z z f z f z L z z z z z f L z L L f L z z f z f L z z z z L z z f L f L z L L z f z f L z z z z - L L * z L z z f L f L z z f z z L z z f L f L z z f z z L z z f L f L z z f z L f L z z f L : # # O # # # # # # # # # # # # L z z z f L z L z z L f z z L f z z L f z z L - L z L f z z L f z z z L f z z L f f z z L f z z L f z z L f z z L - L z z L f z z L f z z L f z z f z f z z L f z z L f z z L f z z L f z z L f z z L f z z L f z ",
"# # # # # # # # # # # # O # # # # # # # # # # # # # O $ + + o . . . . . . . . . . . . . o : L L z z f L z z f L z z f L z z f L L z z f L z z f L z 4 o . . . . . . . . . . . . . . $ L f L z z z z f L z z f L f L c L z L z z f L z z f L L z z f L z z f L z f z f z z L z z L z z z L f L f z z z f z L # # # # # # # # # # # # # # # L z z z L - L L z z z L f L f L - L z L z z z L f L f z z z f L z z z L f L f z z z f L z z z L f L f z z z f L z z z L L L z z z z f f L z L f z f z z L z z z f L L z z z z L f L z z f L - z z z z L f L z L z z z L f L f z z z f z z f z z L z L f z f L z f L L z z z z L - L z L z z z L f L f L z L L z f L f z z z z L f L z z f L f z z z z L f L z z f L f z z z z L f L z z z f z z L z : # # # # # # # # # # # # # O % z f L z L f z f z z f L z z f L z z f L z z f L z z f L z z f L z f L z z f L z z L z z f L z z f L z z f L z z f f L f L z z f L z z f L z z f L L z L z z f L z z f L z z f L z z f L z z f L z z f L z z f L z ",
"# # # # # # # # # # # # # # # + # # # O $ + + # # O O $ # + o . . . . . . . . . . . . . . : L z L z L f z z L z L z L f z z L z f L f z z L f L z f f o   . . . . . . . . . . . . . : L z L - L L z L f z z L z z f L f z L - L z f z z z L z z z z z L f z z z z z z z L z L f z L z z f L L z z L z z L f # # # # # # # # # # # # # # # z L - z L f z z L f z - L L z z - L z f z z z f L f L z L f z z L f z f L f L z z z L f z z z f L f L z L f z z L f z L L f L z z z L L z L z L z z z L f z L f z z z z L L z f L f z z z L L L - L - f z L z z L z L L z z z z z z L z z L L L z z z z z z z z L z z z L L z f L f z f z z z f L f L z L z L f z z L z z z z f L f z z L f L z z z z f z z L f z z L z z z z f L f z L f z f L z z : # # # # # # # # # # # # # # # Q L z z z z f z L z z z L z L z z z z z L z L z z z z z L L z z L z f z z L f z f f L f z z L f L f L f z z L f L z L - L z z L z L z L f z z L z c z z L f z z z z z z L f z z z z z z L f z z z z z z L f z z z ",
"# # # # # O # # # # # # # # # # # # + $ + + + @ O $ O O # O o . . . . . . . . . . . . . o : L z f z z z f L f z f z z z f L f z z z L z z L z z z L f o . . . . . . . . . . . . . . $ L z L L z f z z z f L f z z L L z z L L z z L f L z z z L L f z f L z L f L f L f f z z z z z z L z z z z z f z z z f # # # # # # # # # # # O # # # - L L L - L z z f L z L z z L z L z L L z L f z z z z z f L z z f L z z z z z L f z f L z L f z z z z z f L z z f L z - z z z L f z f - L f z - z L L z z z L L z L z z z z z z z L z L z z z L L L L L z z z z z z z z z L z L f z f z z z z f z L L f L z z z z L z z z z z z z L z L z L f z z z z z f f L L z z f L f L f z z L z z f z z L f L f L z z f L z z f L f L f z z L z z z z L z z n : # # # # O # # # # # # # # # % z z z L z z L z z L f z f z L z L L f z f z L z L L f z f z z L - z L f L z z z L z z L z z f z z z z L z z f z z L c z z f L f z f z z z f L f z L f z f L z L f L f z f L z L f L f z f L z L f L f z f L z L f ",
"O $ $ $ $ O $ # $ # $ O # # $ # $ $ $ + $ + + $ $ $ $ $ O # o o X o o o X X X o X o o o o : L z z f L f z z z f z f L f z z z f z z f z z z L z z z 4 o   . . . . . . . . . . . . . : L L z z L z f L f z z z z L z - f z z z z z z - f z z 4 f f L z L f z f L f z z L z z L - z z z z f f z z f z f z f z # # $ # # # # # # # # $ $ # # L L z z z z z z z z z z L - z z L z L f z f L z L f z z z z z z z z z z L f z f L z L f z f L z L f z z z z z z z z z L z f z f L z L z z - L L z z z - z f z f z z z z f z z z z f 4 L z z z - z * - - z f z f f f z f f z z z z f f z z z z f f z z f f f z f z z z - z L z z z f z f z f L z L f z z z - f f L f L f z z L z z f z z L z z f z z L f L f L f L f L f z z L z z f z L f z z z L R : # # # # # # # # # # # # # # # f z z z z f f L f z z - f z z z z z z - f L z - z z z - f L L L z L z z z L f L z z z f z z L z z z z f z z L z z z f c z z z z f z f L f z z z f L f z L f z f L f L z L f z f L f L z L f z f L f L z L f z f L ",
"* c * * - c - c * L * L f c - - * - * - R - * * * - * * f f f f z 4 z 4 f u z 4 z 4 4 f - f L L z L z z f L z L z L z z f L z L L f L z L z z z L z u o . . . . . . . . . . . . . . : z - L z z z L z z f L z z f # # # # # # # # # # # # # # # f z z f L z z z L z z f L L z # # # # # # # # # # # # # # # f z L * L * L L - L - L * - z L z z L f L f L f L f z f L z z z L - L z z z z f L z L f L f L f L f z f L z z z z f L z z z z f L z L f L f L f L f L z L z z z z f L z L z z L z - # # # # O # # # # # # # # # # # # # # # # # # $ # # # # # # # # # # # # # # # # # # # # # # # # # # # # # # # # # # # # - f L z L z z z z f L z L f L L z z z z L z z f L f L z z f L f L z z f z z z z z z z z L z z f L f L z z z L L z z z & # # # # # # # # # # # # # # # # # # # # # # # # # # # # # # # # # # # # # # # # # # # # # z f z f z f L z z f z L f L z z f L f L f L z z f L f z L f L f L z L z L z z f L z L c z z f L z z z z z z f L z z z z z z f L z z z z z z f L z z z ",
"L L L f z f z z f z z z z L f z - R f z z z z L z z L z L f z L z z L - L f z z L f z f z z L - L f z z L z L f z z L z L f z z f z z L f L f z z z f o . . . . . . . . . . . . . . $ L - L - L L f z z L z L f z # # # # # # # # # # # # O # # f f z z z L f z f L f z f z f # # # # # # # # # # # # # O $ 4 n L L z z L z L f L f z f L f L f f L f L f L f L z z z L - L z z L z L z f z z z f L f L f L f L z L f z z z z L f z z z z L f z f L f L f L f L L z L z L f z f z f z z z z L - # # @ # # # # # # # # # # # # # # # # # # # # # # # # # @ # + $ O # # # # # # # # # # # # # # # # # # # # # # # # # # # L L z z f z z z z L f z f L - L z f z f f L f z z L f L f L f z z L f L z z z z z z z z f z z L f L f z z z L z L f L : # # # # # # # # # # # # # # # + # # # # # # # # # # O # # # # # # # # # # # # # # # # # # z L z L f z f z z L f f z z L f L f z z L f L f z z L L c L f z f z z z z L z L f z z L f n z L L z z f z z z z L f z z L f z z z z L f z z z z L f z ",
"L L z z z L f L L z L f z f L z R - L L L f z f f L f z z n f L z z z z z L f L z z z L f L c L z z f L f z z z f L f z z z f L L z z f z z L z f L f o   . . . . . . . . . . . . . : L L z L z z z f L f z z z z # # # # # # # # # # # # # # # - L z z z f L z z z L z L z f # # # # # # # # # # # # # # # f f L - f L f z z z z z z L L z z z z z z z z z z z L f z f L z L z - L L z L z L f z z z z z z z z z f L z L f z f L z L f z f L z z z z z z z z z - L L z z z z L z L f L L z L : # O # # # + # # # # @ # O # # # # # # # # # # # # # # # # @ + O # # # # # # # # # # # # # # # # # # # # # # # # # # # # z L L z L z L f z f L z z z L c z L z L z z L z z f z z z z L z z f z z L f L f L f L f L z z f z z L z f L f z z z L : # # # + # # # + # # # O # # # + + # # # # # # # # # # # # # # # # # # # O # # # # # # # $ L L z z z z L f L z z L z z f z z L z z f z z L z z f - L z L z L f L f L f z z z f L L z z L z z f L L z L f z f L z z f L z L f z f L z L f z f L z ",
"- f z f L z z z f z f L z z z z - - L - f L z L z z z f z n z L z z L L L z z z L f L z z f L z L z L z z f L f z z z f L z L z f L f L z z f z z z z o . . . . . . . . . . . . . . : L z - L z L z L z z f L f z # # # # # # # # # # # # # # # : z f L z z z z z z f z L z z # # O # # # # # # # # # # # # f f L z L z z f L f L f L z f z z f z L f z z L f z f L z L L z L z L z - L f z f L z L f z z L f z z z z z f L z L f z f L z z z z z L f z z L f z L z - L L f L z L z z z z z z - # # # # # # # # # # # # # # # # # # # # # # # # # # # # O # # # # # # # # O # # # # # # # # # # # # # # # # # # # # # # - L z z f z f L z z z z z L z L L f z z z z f z z L z z z z f z z L z z f z z L f z z L f L f L z z f z z z z f L z L : # # # # # # # # # # # # # # # + # # # # # # # + # # # # # # # # # # # # # # # # # # # # # L z z L f L z z f z f f L f L z z f z z L z z f L f L L c z - L z z z z z z f L z L z f z n z L z z z f z f L z z z z z z z z f L z L f z f L z z z z ",
"L L z L f z f L L z z z L f L f R L L L z z z f f L z L L n z L L z z z f z f L z z f z z L f z f z f z z L z z f L z L f z f z z z z z L f L z L z z o   . . . . . . . . . . . . . % L z L z L f z f z z L z z z # # # # # # # # # # # # # # # f z z z L f L f L f L z z z z # # # # # # # # # # # # # # # f z f z f z z L z z z z f z L f z L z f L z z f L z z z z f z L - z - z L z L z z z z f L z z f L z L f L f z z z f L z z z L f L f z f L z z f L z - z L z z z f L f z f L z z Q - # # # # # # # # # # # # # # # # # # # # # O # # # # # # # # # # # # # # # # # # # # # # # # # # # O # # # # # # # # # # f L - L L z z z L f L f z f f L z z f L L f L z z f L f L f L z z f L f L z z f L z z f z z z z L f L z f L z L f z L : # # # # # # # # # # # # # # # + # # # # # # # # # # # # # # # # # # # # # # # # # # # # # z z L z z f z z L z L z z z z L f L z z f L f z z z z z L z L f z f L f L z L f z f z L f n z f z f L L z z z L f L f L f L f z z z f L z z z L f L f ",
"L z L z z f z z f z z z f L f L f L f L z z z L z z L z f L f L L z L z z f z z L f z f L z L z z f z f L z L f z z L z z f z f z z z z f L f z z L - o . . . . . . . . . . . . . . : L z L - L z f z f L z L f - # # # # # # # # # # # # # # # f f z z f L f L f z z L f z z # # # # # # # # # # # # # # # z L z f z f L z L f L f z f c L f L z z z L f z z z z L f z z L z L L z f z z L f z z z z L f z z z f L f L z z z L f z z z f L f L z z z L f z z z L L z z L - L - z z L f z z z - # # # # # # # # # # # # # # # # O # # # # # # # # # # # # # # # # # # # # # # # # # # # # # O # # # # # # # # # # # # # f f z z f z z z f L f L z z z L z z L z f z z L f z z L f z z L f z z L f L f z z L f L z z z z f L f z z z L z L z R : # # + # # # # # # # # # # # # + # + # # # + # # O # # # # # # # # # # # # # # # # # # # $ L - L L f z f L z z L z z z z f L f z z L f L z z z z z f L z z f z z z z L z z f z f z n R z z f z z f z z z f L f L f L f L z z z L f z z z f L f L ",
"f z f z z L f L L z L f z z z z z z z z L f z f f L f z z z z c f z f z z L f L z z z L - z c L z L z L f z z z f L f z z L z L L f L f z z L z z L - o . . . . . . . . . . . . . . & - z z L z z L z L f z z z L # # # # # # # # # # # # # # # - f z z z z z z L z z f L z z # # # # # # # # # # # # # # # f z z L z L f z z z z z z L L z z z L f z f L z L f z f L z z z L - z L L z z f L z L f z f L z L f z z z z L f z f L z L f z z z z L f z f L z L f - L L z z L z z f L z z f L L - # # # # # + # # # # # # # # # # @ # # # # # # # # # O # # # # # # # # O # # # # O # # # # # # # # # # # # # # # # # # # f L f L L z L f z z z z L f z c f L f z L z z f L z z f L z z f L z z f z z L z z f z z L f L f z z L z f L f z z z z : # # # # # # # # # # # # # O # + # # # # # # # # # # # # # # # # # O # # # # # # # # # # $ L L z z z z L - z L - L f L f z z L z z f z z L f L f z L f z z L f L f L f z z L z L L f f z z L f L L z L f z z z z z z z z L f z f L z L f z z z z ",
"z z L f L z z z f z f L z L f z z L f z f L z L z z z z z R z L z z L f L z z z L f L z L z L - L f z z z f L f z z z f L f z z f z z L z z f z z z - o . . . . . . . . . . . . . . & L L - L z L f z z z f L f z # # # # # # # # # # # # # # $ - L f L z L f z f L f L f L - # # # # # # # O # # # # # # # - f L f z z z f L f L f L z - L f z f L z L f z f L z z z z L z L L z L z z z z z z f L z L f z f L z L f z f L z L f z f L z L f z f L z L f z f L L - L z L L - L z f z f z f L - # # # # # # # # # # # # # # # # + @ # # # # # # # # # # # # # # # # # # # # # # # # # # # # # # # # # # # # # # # # # # f f z z f z f L z L f z - L L * z z z f f L f L f L f L f L f L f L f L z z f z z L z z f z z L z z f z z z z f z L L : # # # # # # # # # # # # # # # # # # # # # # # # # # # # # # # # # # # # # # # # # # # # # z z z L f L z L z z L f z z L z z f z z L z z f z z L L c L f L z z z z z z f L f z z z z L f L z z z f z f L z L f z z L f z f L z L f z f L z L f z ",
"f L z z f z f L L z z z z f L z z f L z z z z f L z z n f f z f f L z z f z f L z z f z f L c L z z f L z L z z f L z L z z f L L z z f L f L z z z z o . . . . . . . . . . . . . . $ L z L z L z z f L z L z z - # # # # # # # # # # # # # # # - z z z z f L z z z z z z z f # # # # # # # # # # # # # # O f L z z f L z L z z z z f f L z L z z z z f L z z z L f L f - L z z L - L f L f L f z z z f L z z z z f L z z z z f L z z z z f L z z z z f L z z z L L z L z z L z z L z L z L z : # # # # # # # # # # # # # O # # + $ O # # # # # # # # # # # # # # # # # # # # # # # # # # # # # # # # # # # # # # # O # f L f L L z z z z f L z L z L L f L z L z z z z z z z z z z z z z z z z L f L z z f L f L z z f L f L z f L z L z z L : # # # # # + # # # # # # # # # O # # # # # # # # # # # # # # # + # # # # # # # # # # # # $ L - L z z f z f L z L L z z f L f L z z f L f L z z L - L z z f z f L f L z L z z f L c L z z f z f L L z z z z f L z z f L z z z z f L z z z z f L z ",
"z f z z L z z L z L z z L z L f f z z z z L f z z z z L f z z L z f z z L f z f z z L f z f L f L f z f z z L f z f z z z z L z f L f z L z z z L f f o . . . . . . . . . . . . . . & c z L z - L z L f L z z L - # # # # # # # # # # O $ O # $ * L - L L z z L z z z L L z z $ # # # # # # # # # # # # # $ f n n z z L z f z z z L f L c z f z z z z L f z z z L z z L z L f L L z L z L z L z z L f z z z z L f z z z z L f z z L f z z z z L f z z z z L f z L L f L f L - L - L L z z z L - # # + # # # # # # # # # # # # # @ # # # # # # # # # # # # # # # # # # # # # O # # # # # # @ + $ # # # # # # # # # # # # z z f z z L f z z z z L f z z L - L z z z z z z z z z z L z L z L z L z f L f z - L z z L - z z L z L f - L z z L - L : O # # # # # # # # @ + $ + O + + # # # # # # # # # # # # # # O # # # # # # # # # # # # # # L L z L L - L z z L z f L f z z L f L f z z L f L f z z L f f z z L f z f z z z z L z L z L f - L z z z L f z z z z L f z z z z L f z z z z L f z z z ",
"z L f L z L L - z z f L f z z z L z L f z f L z L f z f L z L c z L f L z z z L f L z z z L L z z z z L f L z z z L f L L z - L z z L z z z L z z z z o   . . . . . . . . . . . . . & c L - z L f z z z z L L - z # # # # # # # O O # # $ O # # - - L L z L L - L f L - z z z # # # # # # # # # # # O # O # 4 n z z z L z L f L z f z z L z L z L f z f L z L f - z L - z z z z f z f z f z f z z f L z L f z f L z L f z f L z z f L z L f z f L z L f z f L z - z z z z z L z L z z L L z L - # # # # # # + # # # O # # # # # @ @ # # # # # # # # # # O # # # # # # # # # # # # # # # O @ + O # # # # # # # # # # # # z L L z z f L z L f z f L z L c z z f L L f L f L f L f f z f z f z f z z z L z L z L z z L f L f z z z L z L z z L L : @ # # # # # # # # + + O $ $ + + # # # # # # # # # # # # # # # # # # # # # # O # # # # # $ L - L z z L z L z - L z z L z z f z z L z z f z z L z z f z L f L z z z L f L f L f z f z n z L z L f z f L z L f z f L z L f z f L z L f z f L z L f ",
"L z z z L - z L L z L z z f L f f z f L z z z z f L z L f z f L L z z z L f L z z f z f L z f z L f L z z f z f L z z z L z z z z z f z z L z z L z - o . . . . . . . . . . . . . . & L z L L - z f L f L - z L z # # # # # # # O $ O $ O # # # - - - L L - z z f z z L z L z # # # # # # # # # # # # # # $ f z z z z z L z z z z L z z c L z z f L z L f z f L L z z L L - - L z z L f z z L f z z z z f L z L f z f L z z z z z z z z f L z L f z f L z z z z L L f z z L L z z L L - - L R - # # # # # # # # # # # # # # # # + + @ @ # # + # # # # O @ # # # # # # # # # @ # # # # # # # # # # # # # # # # # # # # # z L z z z z z z f L z L - L L - L z L z f z z L f z z L z z L f z z L f z z f z L z L z L z L z z f L f L z L z L L L : # # # # # # # # # # $ O O O O O # # # # # # # # # # # # # # # # # # # # # # # # # # # # # - L z L z z z - L L L z z f z z L z z f L f L z z f z z L L z z f z f L z z z L z z L L L n z L z L z z z z z f L z L f z - L z z z z f L z L f z f L ",
"f z f L z z L - - L f z z L z z L z z z L f L f z z z f L z z c f z f L z z f z z L z L f f L z z z f z z L z L f z f L z z L z L f L z z z z z f z f o   . . . . . . . . . . . . . & z z L z L z L z z z z L - f # # # # # # # O $ O O O # # $ - L z L z z L L L z z L z z z # # # # # # # # # # # # # O O f z z L L z f z f L z f L f L - L f z z z f L z z z z L z L z L L z f L z z f L z z L f L f z z z f L z z z L f L f L f L f z z z f L z z z L f L f L z L z z f z z z z z z L z R - # # # # # # # + # # # # # # # # + + $ + # # @ # # # # # # # # # # # # # # # + + # # # # # # @ + # # O # # # # # # # # # z z z L L f L f z z z f L z L L f z f z L z z f L z z f f L z z f L z z L f L z z L - z f z f z z L z z z L - z z z z : # O # # # + # # O # + O O $ $ + # # # # O # # # # # # # # # # + # # # # # # # # # # # # $ L L z z L - L L z z - L f L z z f L f z z z z L f L z f L f z z L z L f z f L - L z L f z z L z L - z L f L f z z z f L z L z L f L f z z z f L z z z ",
"z z L L z L L L - L z L L z L f L z z L f L f L z L f z z L z L z z L f z z L f z f z f z z L f L f z f L z L z z z L f z z z z f z z z z z n Q z z u o . . . . . . . . . . . . . . : L - L L L L f z L z z L L z # + O # # # # + + + O # # + + f z L z z L L z f z L z z z z # # # # # # # # # # # # # # # f z L z L z z f z z z L f L L L z z z L f z z L f z z L z L L - L z z f z z L f z f f L f L z z z L f z z z f L f L f L f L z z z L f z z z f L f L - L z L L z L L L L L f R - ! - # # + + # # + + O $ + O # # # # + + $ + O $ O $ # # + + + @ + @ # $ + + O $ O + # # # # # # # + + # + O # # # O # # # # f z Q n z L L L z L z z L z z L L z z L f L f z z L f L z f z z z L z z f z L z z L L L z L L z L z L f L z L L z z z : # # # # # # O + # # # # + + + + # # # # + + + + # # + + + + + + O $ + + # # # # # # # # $ L - L z L L L L z L L f z L L z L z L z z z z f L f z z L f z L z z L z z L z L - L - L f z L z z L L z L L L z L z z L L z z z z z z z L f z z L f z ",
"c - - L z - L - z z z L - f f z z L L - z z z z z f L z z f z f f L z z f L z z z L z L z c L z z z z L f z f z f L z z L L L Q R L R Q R R n Q R Q n X . . . . . . . . . . . . . . $ L z - - - f f z z L - L - - # + O # O # # + O + $ # + + O : f z L f - - L - f f f z z : # # # $ # # # # # $ # # # # $ f z f z f z z L f L z f z z f - L f z f L z z f L z L - z f z z z L z L f L z z z L z z z z L f z f L z L f z z z z z z z z L f z f L z L f z z z z L - z - - z - z - - f f - - - * # # + O # + O O + + + O # # # # O $ + + + + + + # # + $ # # + $ # O @ @ O $ O $ # # O # # # O $ # # # O # # # # # @ # # : z z n - L - - - c c - L - - L - z L - z z L z z f z z z L f f z z f f f f z z f - - L - z - z - f f f - L - z z z z % # # O O # # O O # # # # + O $ O # # # # + O + # # # O O # # O O O + + O # # # # # # # # $ - L L - - - L z - L - f f - z z z L - L f L f z z L z z L f f - z z z f f z z - z L - f f z z f z - L - L - - - c c - - L z L L f L f z f L z z f L z ",
"# # $ # # # $ # # $ $ # # # # : L - f L z L f z z z z z z z z L z f z f z f z f L f L z z L c z L f L z z z L f z f z f 4.r.r.r.r.r.r.6.r.9.y.9.r.r.4.O   . . . . . . o . . . . . . O # # $ # $ # # # $ # # # $ # O o X o o o o . o o o o o o o # # # $ # # # $ $ # # # # $ # 4 f z f 4 f 4 f f 4 u u f z f z z z z L f L z z z z L z z f f z L z z z z z z z z L z z z z L L z L z z z L f L z z L f z f L z L f z f L z L f z z L f z f L z L f z f L z L z L z $ # # # $ $ # $ # # # $ @ @ @ o o o . o o o o o o o X X o o o X X X X X X X X X X X o X X X X X X X X X X X X X X X o X X X . o o o X X o o o o X o o # $ # # # # # $ # $ # # # $ $ - L L z L z z f z z L z z z - # # % # # # # # # $ # # # $ # # # $ $ # # # $ # # $ # # $ @ o o o X o o o X o X X X o . o o . o o o o o o o o o o o o o o o o o . o o o o o o . . o o # # # # $ # # # # $ # # # # $ L z L L f z z L z z f z z L - $ # # # # # # # $ # $ # $ # # # $ # # # $ # $ # $ $ # # # $ L z z f z z L z z z z z z z z ",
"# # # # # # # # # # # # # # O : L z z z z f L z L f L f L f L c z L z L z L z L z z - L z L * L z z f z f L z z z L z L r.m.m.m.v.v.m.v.m.v.m.v.m.V.r.O . . . . . . . . . . . . . . O @ # # # # # @ # # # # # # O . . . . . . . . . . . . . . . O # # # # # # # # # # # # # # u z z n n z f f z n n z z n z z z f L z z f z f L z f L f L z z f L f L f L f L f f z f L z z f z f z f L z z f z z f L z z z z f L z z z z f L z z f L z z z z f L z z z z f z L - # # # @ @ @ # # # # # @ @ @ + o . . . . . . . . . . . . . . . . . . . . X . . . . . . . . . . . . . . . . X . . . . . . . . . . X . . . . . . . . . X @ @ # # # # # # # # # # # # # - L z z L L f L z z f L f L f # # # # # # @ # # # # # # # # # @ # @ # # # # # # # # # # O X . . . X . . . . . . . . . . . . . . . . . . . . . . . . . . . . . . . . . . . . . . o o # # # # # # # # # # # @ # # $ - L z z L z z f L f L z L L : # # # # # # # # # # # # # # # # # # # # # # # # # # # # # # f L f L z z f L f L f L f L f ",
"# # # # # # # # # # # # # # O - L - L z z L f z f L f L L z f L z f z f z f z f L f z z L z L f L f z f z z L f L z z z 6.v.g.v.v.v.v.v.v.v.r.v.v.v.y.#   . . . . . . . . . . . . . O # # # O O # # # # O O # # + o . . . . . . . . . . . . . o O # # # # # # # # # # # # @ # z L f z f z z L f L z L z L z L z z z L f z f z z z L f L c z z L L z L z L z L z z z L f z z z L L f z f z z L f z z z L f z z z z z z L f z z z z z z L f z z z z z z L f z z z - # # # # # # # # # # # O $ @ + X . . . . . . . . . . . . . . . . . . . . . . . . . . . . . . . . . . . . . . . . . . . . . . . . . . . . . . . . . . o # # # # # # # # # # # # # # # - z z L z f z z L f L f z z 4 O # # # O # # # # # # # # # # # # # # # # # # # # @ # # # @ X . . . . . . . . . . . . . . . . . . . . . . . . . . . . . . . . . . . . . . . . . . . o O # # # # # # O # # # # # # $ z z z z f z z L f L f z L L : # # # # # # # # # # # # # # # # # # # # # # # # # # @ @ # $ - L L L z z L z z z z z z z z ",
"# # O # # # # # # # # # # # O : L z z L L - L z z z z z f z z f z L z L z L z L z z f L f z L z z z z L f L z z z z L L r.v.v.v.v.r.v.p.p.v.v.v.g.v.9.O     . . . . . . . . . . . . O # # # # $ # # # # $ $ O # O o . . . . . . . . . . . . . . # # # # # # # # # # # # # @ O z z z z L f L z z f z f z f z f z f L z z z L f L z f z z L z z f f z f z f z f z f L z z z L L - z z z L f L z z L f z f L z L f L f z f L z L f L f z f L z L f L f z f L z L L z # # # # # # # @ @ # # + + + + X . . . . . . . . . . . . . . . . . . . . . . . . . . . . . . . . . . . . . . . . . . . . . . . . . . . . . . . . . . o # # # # # # # # # # # # # # # L L L - L L z z f z z L z f 4 # # # # # # # # # # # # # # # # # # # # # # # # # # # # # O . . . . . . . . . . . . . . . . . . . . . . . . . . . . . . . . . . . . . . . . . . . . o # # # # # # # # # # # # # # # L f L f L z z f z z L z z z : # # # # # # # # # # # O # # # # # + # # # # # # # @ @ # # $ z L - L z z f L f L f L f L f ",
"# # # # # # # # # # # # # # + : L z f L z z z z z L z z z z z L L f z z L f z z L z L z z L c z L f L z z f z f z L z z 6.m.v.g.v.p.v.v.v.v.p.v.v.v.9.O   . . . . . . . . . . . . . O O # # # O # # # # O O # # + o . . . . . . . . . . . . . o O # O # # # # # # # # # # # @ z L f L z z f z f z z L f z z L f z f z f L z z z z L z z * L - L z z L f z z L f z f z f L - z L L f L z z f z f f L z L f z f L f L z L f z f L f L z L f z f L f L z L f z z L z # # # # # # # + @ $ @ @ O $ + X . . . . . . . . . . . . . . . . . . . . . . . . . . . . . X . . . . . . . . . . . . . . . . . . . . . . . . . . . . o # O # # # # # # # # # # @ @ # L L - L z f L f L z z f z z f # # # # # # # # # O # # # # # # # # # # # # # # # # # # # O X   . . . . . . . . . . . . . . . . . . . . . . . . . . . . . . . . . . . . . . . . . . o # # # # # # # # # # # # # # # f z z L f L f L z z f z z R 4 # # # # # # # # # # # # # # # # # # # # # # # # # # # # # $ L z z - L f L f z z L f z z L ",
"# # # # # # # # # # O # # # O : L z z z L f L f z f z f f R f L z z f L z z f L f z f z z L * L z z f z z L z L z z z z 9.m.v.g.v.v.v.v.r.v.v.v.v.v.p.O   . . . . . . . . . . . . . O $ # # # # # # # # # # # # + o . . . . . . . . . . . . . . O # O $ O # # # # # # # # # O f z z f z z L z L f L z z f L z z z L z L f z f L z f L f L L L z f L z z f L z z z L z L z L z z z z f z z L z L z z z f L z z z z z z f L z z z z z z f L z z z z z z f L z z L - # # # # # # # + + + @ @ # + + X . . . . . . . . . . . . . . . . . . . . . . . . . . . . . . . . . . . . . . . . . . . . . . . . . . . . . . . . . . o # # # # # # # # # # # # # @ $ - L L - z z z z z L f L z z f # # # # # # # # # # # # # # # # # # # # # # # # # # # # # O . . . . . . . . . . . . . . . . . . . . . . . . . . . . . X . . . . . . . . . . . . . . o # # # # # # # # # # # # # O # L z z f z z z z L f L z z n : # # # # # # # # # # # # # # # # # # # # # # # # # # # # # # f L f L z z z L z z f L z z f ",
"# # # # # # O # # # # # # # + 4 L z z z f L f L z z z L z L f c L z L f z z L z z f z f L z L f L f z f L z L z L L - L 9.m.m.v.v.v.v.v.v.v.v.v.v.v.9.O . . . . . . . . . . . . . . O O # # # # # # # # # # # # O o . . . . . . . . . . . . . o # O # # # # # # # # # # # # # z L f z f L z L z z f z z L f z f L z L z z f z z z L f L L z L z z f z z L f z f L - z L L L - L L f z f L z L z z L f z z L f z z L f z z L f z z L f z z L f z z L f z z L z L z # # # # # # # @ O $ @ + + + + X . . . . . . . . . . . . . . . . . . . . . . . . . . . . . . . . . . . . . . . . . . . . . . . . . . . . . . . . . . o O O # # # # # # # # # # # # # z Q z z L z z z z f L f z f f O # # # # # # # # # # # # # # # # # # # # # @ # # # # # @ O X . . . . . . . . . . . . . o . . . . . . . . . . . . . . . . . . . . . . . . . . . . . o # # # # # # O # # # # # # # # z L f L z z z z f L f z z L : # # # # # # O # # # # # # # @ # # # # # # # # # # # # # O $ L L L z z z z f L f z z L f L ",
"# # # # # # # # # # # # # # O : L z L f z z z z L f z f z f z L f z z z f L f z z L z L - L L z z z z L f z f z z z L z 9.m.g.v.r.v.v.p.p.v.r.v.g.V.r.O   . . . . . . . . . . . . . O # # # # # # # $ O # O # # + o . . . . . . . . . . . . . . O $ # O # # # # # # # # # # O z z z z L f z f z z L f L z z z L f z f z z L f L z f z z c z f z z L f L z L z L z L z z z z L z z z z L f z f z z f L z z f L z z f L z z f L z z f L z z f L z z f L z z f z L f # # # # # # # @ @ + + + + + + X . . . . . . . . . . . . . . . . . . . . . . . . . . . . . . . . . . . . . . . . . . . . . . . . . . . . . . . . . . X O O # # # # # # # # # # @ # # - L z L - L f L f z z L z f - O O # # # # # # # # # # # # # # # # # # # # # # # # # # # O   . . . . . . . . . . . . . . . . . . . . . . . . . . . . . . . . . . . . . . . . . . . o # # # # # # # # # # # # # # $ z f z z L f L f z z L z f L : O # # # # # # # # # # # # # # # # # # # # # # # # # @ # # # L z z L f L f z z L z z f z z ",
"# # # # # # # # # # # # # # # 4 L z f L z L f z f L z L z L z c z f L f z z z f L f L z z L c z L f L z z z L f L z z z r.m.v.v.v.v.v.v.g.v.v.v.v.v.r.O . . . . . . . . . . . . . . O # # # # # # # O O $ O + + + o . . . . . . . . . . . . . . O # # # O # O $ # # # # # # @ z L f L z z z L f L z z z L f L z z z L f L z z z z L z z L - L f L z z z L - z L L z - L L z z z L f L z z z L f z z z z z z z z z z z z z z z z z z z z z z z z z z z z z z z z - # # # # O # # O @ + + $ O + + X . . . . . . . . . . . . . . . . . . . . . . . . . . . . . . . . . . . . . . . . . . . . . . . . . . . . . . . . . . o # # # # # # # # # # # # # # # z L z L L f z z L z z f z L - # # # # # # O # # # # O # # # # # # # # # # # # # # # # @ @ X . . . . . . . . . . . . . . . . . . . . . . . . . . . . . . . . . . . . . . . . . . . O O # # # # # # # # # # O @ # # z L z z f z z L z z f z L L - # # # # # # # # # # # # # # # # # # # # # # # # # # # # # $ L z z f z z L z z f z z L z z ",
"# # # # # # # # # # # # # # O : L z z z z f L z z z z f z f L L z L z z f L z L z z - L z L * L z z f z f L z z f L - L 6.v.j.j.p.v.v.r.v.v.g.g.v.v.7.O   . . . . . . . . . . . . . O # # # # # # # # # + # + + O o . . . . . . . . . . . . . o # # # # O $ O O # # # # # # O f z z f z f L z z f z f L z z f z f L z z f z f L z f L f L L z z f z f L z z L - L z L z z L - L z z f z f L z z L f L f L f L f L f L f L f L f L f L f L f L f L f L f L f L L f # # # # # # # + + + & + O + O X . . . . . . . . . . . . . . . . . . . . . . . . . . . . . . . . . . . . . . . . . . . . . . . . . . . . . . . . . . X # # # # # # # # # # # # # # $ z - L z z L z z f L f L z L - # # # # # # # # # # # # # # # # # # # # # # # # # # # # @ @   . . . . . . . . . . . . . . . . . . . . . . . . . . . . . . . . . . . . . . . . . . . o O # # # # # # # # # # # @ O % z f L f L z z f L f L z c L - # # O # # # # # # # # # # # # # # # # # O # # # # # # # # # f L f L z z f L f L z z f L z ",
"# # # # # # # # # # # # # # O * L f z z L - L z z L z z L z L f z L f L f z z L f L f z L z L L z L f z z z z L z z L L 6.n.v.v.v.v.v.v.r.v.v.p.v.v.9.O     . . . . . . . . . . . . O O + # # # # # # # # # # # + o . . . . . . . . . . . . . . O $ O # # # # # # @ # # # # # z z z z z L z L z L z L L - L z z L z L z z z L z L L - L L - L z z L z L z - L z z L z - L z - L z z L z L f z f z L z z z L - L L z z L - L L z L z L z z L - L z L z z L z z Q f # # # # # # # $ O O O $ O $ + X . . . . . . . . . . . . . . . . . . . . . . . . . . . . . . . . . . . . . . . . . . . . . . . . . . . . . . . . . . O # # O O # # # # # # # # @ @ # L L - L - f L f z L - L z z - # # # # # # @ # # $ + + # # # # # # $ + + # O # # # # # $ + . . . . . . . . . . . . . .   . . . . . . . . . . . . . . . . . . . . . . . . . . . . . o # # # # # # # # + + @ # O # # - - z L - L z z L f z f z L : # # # # # # # + # # # # # # # # # # # # # # # # + # # # + $ z L f L - L z z L z L z - L z ",
"O # # # # # # # # # # # # # O * L f f L z z z L L - f L f z f L z f z z L z z f z z L z - L L - z f L z L f z f L z z z 6.v.j.v.r.v.v.p.v.v.v.v.g.m.p.O   X . . . . . . . . . . . . O # # # + # # # + # # # + # + o . . . . . . . . . . . . . o O O O # # # # # # # # O # # # u z z L z - L L z - L z z L z L z - L L z L z - L z z L z L L L f z f z L z L z L L - z L z L L z L z L z z z z L L - L L z z L z - z L - L z z z z L - z z z L z L - L L z z z z 4 # # # # # # # O O $ O # O + O . . . . . . . . . . . . . . . . . . . . . . . . . . . . . . . . . . . . . . . . . . . . . . . . . . . . . . . . . . . . # # # $ # # # # # # # # @ @ $ - L L L L z z L z z L z L L - # # # # + # + + # O @ @ # # # # # # O # @ @ # # # # # # + + . . . . . . . . . . . . . . . . . . . . . . . . . . . . . . . . . . . . . . . . . . . . o # # # # # # # O $ # @ # # # $ - ! z L L z - L z z z L z L : # # # # # # # # # # # # O @ # # # # # @ # # # # # # # # # $ L z z z z z L L - z L z L z L ",
"# # # # O # # # # # # # # O O - L f z z L L L - z - L z z f z L z L z z f L f L z z f z z z L z z z z z f L z L L z z z r.v.v.v.v.v.v.v.v.v.v.r.g.n.u.O   . . . . . . . . . . . . . O O # # # # # # # # # # # # O o . X . . . . . . . . . . . . O $ # @ # # # # # # # # # # # 4 z z z z z L - L z z z z z L L L z L - L - L z z L L z z L - z L z - L - - L z L z L z L z - L z L z - L L f L z z z L z L - z z L z z L z L - L z L L L L - z z z z - L z L z z z # # # # # # # + $ + + # # + O X . . . . . . . . . . . . . . . . . . . . . . . . . . . . . . . . . . . . . . . . . . . . . . . . . . . . . . . . . . o # # O O # # + # # # + # # # $ - L - L L L z f z - L z z z - O # # # # # $ + + + # # # # # # # # @ # O # # # # # # # + + . . . . . . . . . . . . . .   . . . . . . . . . . . . . . . . . . . . . . . . . . . . . o # @ @ # # # # # # O # # # + $ R L L L L z L z L f L z z L : # # # # # # # # # # # # # # # # # # # # # # # # + # # # # # z L f L L z L z - L - L L z L ",
"# # # # # # # # # # # # O $ O - L L c L - L L L L L L f L L z f z f L f z z z z L f L z L L - z L f L f z z z f z z z z p.m.v.v.v.v.v.v.v.v.v.v.n.V.u.O   . . . . . . . . . . . . . O O # # # # # # # + # # # # O o . . . . . . . . . . . . . . O # # @ # # # # # # # # # # # f L L L L L - L L z Q z Q L - L - L - L L Q - L Q - L - L L - L L L L L L L L L - z L L z z L z L - z L z z z f z - L - L L L z Q L L L L - L L L L - - L L L L z - L L L L - z Q : # # # # # # # + + + + # # $ O X . . . . . . . . . . . . . . . . . . . . . . . . . . . . . . . . . . . . . . . . . . . . . . . . . . . . . . . . . . o O # $ + # # # # # # # + # # # L - Q - R L z L L Q - L Q L - O + # # # # O O $ O # O # # # # # # + + $ # # # # # @ + + + . . . . . . . . . . . . . . .   . . . . . . . . . . . . . . . . . . . . . . . . . . . . o # @ + # # # # # # # # # @ + # L - L - f z f L z z f z z L : O # @ # # # # # # # # # # # # # # # # # # # # # + # # # # $ L z L - L L L L L L L L - Q - ",
"# # # # # # # # # # # # # # O : z L - z L L L z z z L z z f f f L c L L * L c L c L L c z R ` Q Q Q Q Q Q Q Q Q Q Q Q Q 4.a.r.7.9.p.9.p.9.r.r.r.r.r.,.O   . . . . . . . . . . . . . O + # O + + O O # O # O # # O o . . . . . . . . . . . . . . O @ $ + + $ @ @ # # O # # O + f z - z z - L z - n z z z z 4 4 f - z z z - z z - L - z z z - z z z - z z - z - L z z z L z z L L L L L c L - L f L L - f z z - - - - z - z z z z - - L - z z - z L - - z u u z Q f O # O # # # # + + + + + + + O . . . . . . . . . . . . . . . . . . . . . . . X . . . . . . . . . . . . . . . . . . . . . . . . . . . . . . . . . . . . O + $ O # O + + O O # O # # # 4 - - L - - f z z - z z - c - + + # O + + $ O O $ O O $ O # O $ + + @ $ O # # $ O # # $ O . . . . . . . . o X . . X   X o . . X . . . . . . . . . . . . . . . . . . . . . . . . . o + + + @ @ + + # + + @ # # # $ - L L - L f L f L f L f L L : # # # # # # # # # # # # # # @ # @ # @ # # O O + O # O O O $ - L - L - z - z - - z - - z - ",
"+ + + + + + + + O O O # # O # O . O O o O o o o O o O o O o 4 L z z - L L z z z L - z z L 4.p.r.r.p.r.r.r.j.r.r.p.r.r.g.4 $ $ % $ $ $ $ $ $ $ $ $ % $ X . . . . . . . . . . . . . . X o o o o o X X o o o o X X o O O O O O O O O O O O O O O O o X X X X X X o X o X o o o o O # $ # # # # $ # # # # # # $ # $ $ # $ # # # $ # $ # # # # # $ # $ $ # # # $ # # # # # # - L z z L z z f z L f L L z L # # $ # $ # $ # $ # # # $ $ # $ # $ # # $ # $ $ # # # # # O o o o X o o X X X o o o X X X O O O + O O + + O O + + O O O O O O O O O O O O O O O O O O O O O O O O O O O O O + O O O O O O O O O O O O O O O O O O o . X X o o o o o o o o o X o # # $ $ # # # $ # # # # $ # + o o o o o o X X X X X X X X o X X X X X X X X X X X X X X X O O O O O O O O O O O O O O O O O O O O O O O O O O O + O O O O O O O O O O O O O O O O # @ $ + @ + + $ $ + $ @ # # # $ L z L L z z f L z z f L z L : # + # # # # # # # # # # # # O o o o o X o X X o o o o o X O $ $ # # # $ # # $ # $ # $ # $ ",
"# # # # # # # # # # # # # # # o . . . . . . . . . . . . . X & z L f L z L z L f z f z f L r.m.v.m.m.v.v.v.v.m.m.v.v.v.n.$ O # # # # # # # # @ # # # O X . . . . . . . . . . . . . . . . . . X . . . . . X . . . . O O # O # # # O O # $ # $ O O . . . . . . . . . . . . X . X O # # @ @ # # # # # # # # # # # # @ @ # # # # # # @ # @ # # # # # @ @ # # # # # # # # # # : L z L - L f L L z L z z f f O # # # # # # @ @ # # # # # # @ @ # # # # # # @ @ # # # # O o . . . . . . . . . . X . . . O O + O + @ @ @ + @ @ @ @ @ O + # # # # O # # # O # # # # # # # + @ # $ # # O # # # # @ O @ # $ # @ O + # # $ # # # O O . . . . . . . . . . . . . . o # # # # # # # # # # # # # # O . . . . . . . . . . X . . . . . . . . . . . . . . . . . . X @ @ # # # # + @ # # # # O O O + O # # # O # # # + + $ O $ + O + $ @ @ @ + + $ @ O + @ @ $ # # # $ + # # @ @ + + O # # $ L z z z L z L z L z L z z L : # # # # # # # # # # # # # # O . . . . . . . . . . X X .   . # # # # # # # @ # # # # # @ @ ",
"# # # # # # # # # # # # # # @ O . . . . . . . . . . . . . X : R z z f L - L z z z L z L z r.v.v.v.v.v.j.v.v.v.v.v.g.v.g.< O # # # # # # # # @ # # O O X . . . . . . . . . . . . . . . . . . . . . . . . . . . . . O + + + # # # # O # # O # # O . . . . . . . . . . . . . . X O # # # # # # # # # # # # # # # # @ @ # # # # # # @ @ # # # # # # @ @ # # # # # # # # # # - L z L L z z z f z f z z L L # # # # # # @ # # # # # # # # # # @ # # # # # # @ # # # # O o . . . . . . . . . . . . . . O + + $ + + @ @ @ + @ @ @ + + + # # # # # O # # # O # # # # # # @ + # # # # # O # # # @ @ + # # # @ + O # # # # # O O O . . . . . . . . . . . . . . o # # # # # # # # # # # # # # O . . . . . . . . . . . . . . . . . . . . . . . . . . . . . X @ # @ # # @ @ + # # # + O O O O O O # # O # # # + + + + + + + + # # @ @ + + # # + + @ @ O # # # + + # # @ @ + + # # # # - L L z f z f z f z f z L - - # # # # # # # # O # # # # @ O X . . . . . . . . . . . . . o O # # # # # # # # # # # # # @ ",
"# # # # # # # # # # # # # # # o . . . . . . . . . . . . . . & L L f z f z z L f - L L z z r.v.v.g.g.v.v.v.r.v.v.p.v.r.v.% O O # # # # # # # # # # # O X . . . . . . . . . . . . . . . . . . . . . . . . . . . . . O # # # # # # # # # # # # # O . . . . . . . . . . . . . . X O # # # # # # # # # # # # # O # # # # # # # # # # # # # # # + # # @ # # # # # # # # # # # u n z z z z z z z z z z L f c O # # # # # # # # # # # # # # # # # # # # # # # # # # # # O X . . . . . . . . . . . . . X + + # # # # # # @ @ # # # # # # # # # # # # # # # # # # # # # # # # # # # # # O # # # # # # # # # # # # @ # # # # # # O . . . . . . . . . . . . . . X $ O O # # # # # # # O # # # O X . . . . . . . . . . . . . . . . . . . . . . . . . . . . X @ @ # # # # # # # # # # # # $ O # # # # # # # # O @ @ $ + + @ # O # # # # # # # # O @ @ $ # # # @ @ # # # # # # # # # # L L - L L z L z L z L z L - - # # # @ # # # # # # # # # # O . . . . . . . . . . . . .   o # # # # # # # # # # # # # # # ",
"# + # # # # # # # # # # # # # o . . . . . . . . . . . . . . : L z z z L f L z z L z z z Q 6.v.g.v.v.v.p.v.v.v.v.v.v.v.g.% O O O # # # # # # # # # @ # X . . . . . . . . . . . . . . . . . . . . . . . . . X . . . @ # # # # # # # # # # # # # O X . . . . . . . . . . . . . X O # # # # # # # # # # # # # # # # # # # # # # # # # # # # # + # # # # # # # # # # # # # # u n L z L f L f L f L f z z L # # # # # # # # # # # O # # # # # # # # # # # # # # @ # # + o . . . . . . . . . . . . . X + $ O # # # # # @ @ O # # # # # # # # # # # # # # # # # # # # # # # @ # # # # # # # # # # # # # # # # # # # # # # # $ O . . . . . . . . . . . . . . o O O $ # # # # # # # # # # # @ X . . . . . . . . . . . . . . . . . . . . . . . . . . . . . @ @ # # # # # @ # # # # # # O O # # # O # # # # @ @ + + $ O @ # # # # # # # # # # # @ @ O # # # # @ # # # # # # # # # # L - L z f z f z f z f z z L : # # # # # # # # # # # # # # O X . . . . . . . . . . X .   o # # # # # # # # # @ # # # # # ",
"# # # # # # O # O # # # # # # o . . . . . . . . . . . . . o : z L f L z z f z f z L z z z r.v.v.r.v.v.v.v.p.r.v.g.v.v.g.% O # # # # # # # # # # # # O X . . . . . . . . . . . . . . . . . . . . . . . . . . . . . O # # # # # # # # # # # # # # . . . . . . . . . . . . . . X O # # # # # # # # # # # # # # # # # # # # # # # # # # # # # + # # # @ # # # # # # # # # $ u n z z f z z L f z z L L z f O # # # # # # O # # # # # # @ # # # # # # # # # # # # # # + X . . . . . . . . . . . . . X O + # # # # # # $ + @ # # # # # # # # # O # # # # # O # # # # # # # O # # # # # # # # # O # # # # # # # # # # # # # O O . . . . . . . . . . . . . . X # O O # # # # # # # # # # # O X . . . . . . . . . . . . . . . . . . . . . . . . . . . . X @ # # # # # # # # # # # # # # $ # # # # # # # # # @ + @ # # # # # # # # # O # # # # + @ $ + @ # # # # # # # # # # # # $ L L z z z z L f z z L f z z : # # # # # # # # # # # # # @ O . . . . . . . . . . . . .   o # O # # # # # # # # # # # # # ",
"# # # # # # # # # # # # # # # . . . . . . . . . . . . . . . : L z z f z z L z L z z z z Q 6.v.v.v.v.v.p.v.v.v.v.v.v.v.g.< O # # # # # # # # # # # # # X . . . . . . . . . . . . . . . . . . . . . . . . . . . . . O # # # # # # # # # # # # # O X . . . . . . . . . . . . . X O # # # # @ # # # # # # # # # # # # # # # # O # # + # # # + + # # # # # # # # @ # # # # # u z z L L z z f L z z f f z f O # # # # # # # # # # # # # # # # # # @ # # # # # # O # # + . . . . . . . . . . . . . . . + + # # # # # # + + @ @ # # # # # # # # # # # # # # # # # # # # # # # # # # # # # # # # # # # # # # # # # # # # # # # O . . . . . . . . . . . . . . X # $ O # # # # # # # # # # # O X . . . . . . . . . . . . . . . . . . . . . . . . . . . . X @ @ # # # # # # # # # # O # # O # # # # # # # # # # @ @ # # # # # # # # # # # # # # + + $ + @ @ # O # # # # # # # # # # L - z L f L z z f L z z L Q : # # # # # # # # # O # # # # O X . . . . . . . . . . . . . O # # # # # # # # # # # # # # # ",
"# # # # # # # # # # # # # # # O . . . . . . . . . . . . . o & L L f z f L z L z L z L z z 6.m.g.v.v.v.v.r.v.p.v.v.p.g.g.% O # # # # # # # # # # # # O X     . . . . . . . . . . . . . . . . . . . . . . . . . . . O # # # # # # # # # # # # O O . . . . . . . . . . . . . . X O # # # # @ # # # # # # # # # # # # # # # # # # # # # # # # + # # # # # # # # O # # # # # - L z z f L f z z L f L - L L O # # # # # # # # # # O # # # # # # # # # # # # # # # # # + X . . . . . . . . . . . . . X + + + + # # O # # # # # # # # # # # # # # # # # # # # # # # # # # # # # # # # # # # # # # # # # # # # # # # # # # # # O . . . . . . . . . . . . . . o # # # # # # # O # # # # # O O X . . . . . . . . . . . . . . . . . . . . . . . . . . . . X # # # # # # # # O O # # # # O $ # # # # # # # # # # # # # # # # # # # # # # # # # # # # $ + + @ # # # # # + + @ # # # $ L z L z z f z z L f z f - Q : @ # # # # @ # # # # # # # # O X . . . . . . . . . . . .   o @ # # # # # # # # # @ # # # # ",
"# + # # # + # # # # # # # # # .   . . . . . . . . . . . . . : L z z z L f z f z - L L z Q r.m.v.p.v.v.p.v.v.v.v.v.v.v.v.% O # # # # # # # # @ # # # # X   X . . . . . . . . . . . . . . . . . . . . . . . . . . . O # # # # # # # # # # # # $ O X . . . . . . . . . . . . . X O # # # # @ # # # # # # # # # # # # # # # # # # # # # # # # + # # # # # # # # # # # # # # - z L f z z L z z f z z L L c # # # # O # # # # # # # # # # # # # # # # # # @ # # # # # O X . . . . . . . . . . . . . X O + @ @ @ @ # # # # # # # # # # O # # # # # # # # # # # # # # # # # # # # # # # # # # # # # # # # # # # O # # # # # $ O . . . . . . . . . . . . . . X # O # # # # # # # # # # # # O X . . . . . . . . . . . . . . . . . . . . . . . . . . . . X # # # # # # # # $ O # # # # O O # # # # O # # # # # O # # # # # # # # # # # # # # # # # @ + + + # # # # O $ # @ # # # # f z f z z L f L z z z L L - - # # # # # # # # # # # # # O O X . . . . . . . . . . . . . o @ @ # # # # # # # # # @ # # # ",
"# # # # # # # # # # # # # # # . . . . . . . . . . . . . . . : z L f L z z z L f L z - L L r.v.v.v.r.v.v.v.v.v.v.v.v.v.g.% O O # # # # # # # # # # # O X X . . . . . . . . . . . . . . . . . . . . . . . . . . . . O # # # # # # O # # # # # # O . . . . . . . . . . . . . . o O # # # # # # # # # # # # # # # # # # # # # # # # # # # # # # # # # # # # # # # # # # O # f z z L z z f z z L z z z L - # # # # # # # # # # # # # # # # # # # # # # # # # # # # # + X . . . . . . . . . . . . . X + + @ @ + + # # # # # # # # # O # # # # # # # # # O # # O # # # # # # # O # # # # # # O # # # # O # # # # # # # + # + O . . . . . . . . . . . . . . X # # # # # # # # # # # # # # O X   . . . . . . . . . . . . . . . . . . . . . . . . . .   X # # # # # # # # # # # # # # # O # # # # # # # # # + + # # # # # # # # O # # # # # # # # $ + # # # # # # # # # O # # # # z z L f L z z z L f L z L - - # # @ # # # # # # @ # # # # O . . . . . . . . . . . . .   o # # # O # # # # # # # # # # # ",
"# # # # # # # # # # # # # # $ O   . . . . . . . . . . . . o : L z z f z f L z L - z L z z 6.v.g.v.v.v.v.p.v.r.v.r.v.v.p.$ O # # # # @ # # # # # # # # X   . . . . . . . . . . . . X . . . . . . . . . . . . . . . # # # # # # # # # # # # # # O X . . . . . . . . . . . . . . O # # # @ # # # # O # # # # # # # # # # O # # O # + # # # # O # O # # # # # # # # # # # # f z z f L f L z z f L f z f L # # # # # # # # # # # # # # # # # # # O # # # # # # # # # + X . . . . . . . . . . . . . X O $ # @ $ O # # # # # # # # # # # # # # # # # # # # # # # # # # # # # # # # # # # # # # # # # # # # # # # # # # # # + O . . . . . . . . . . . . . . X # # # # # # # # # # # # # # O X . . . . . . . . . . . . . . . . . . . . . . . . . . .   X # # # # # # O @ # # # # # # # O # # # # # # # # O $ @ @ # # # # # # # # # # # # # # # # $ O # # # # # # # # # # # # # # f L z z f z f L z z f z z L : # # # # # # # # # # # # # # O . . . . . . . . . . . . . . o # # # # # # # # # # # # # # # ",
"# # # # # # # # # # # O @ $ @ o . . . . . . . . . . . . . X * L z z L z L z L f z f z z Q 6.m.v.r.v.p.v.v.v.v.j.v.a.v.g.% @ # # # # # # # # # # # # O o . . . . . . . . . . . . . X . . . . . . . . . . . . . . . O # # # # # # # # # # # # # @ . . . . . . . . . . . . . . X O # # # # # # # # O # # # # # # # # # # # # # # # # # # # O + # # # # # # # # # # # # # # u W z z L z L L - L z L z z - O # # # # # # # # # # # # # # # # # # # # # # # # # # # # O X . . . . . . . . . . . . . X O + + + # # # # # # # # # # O # # # # # # # O # # # # # # # # # # O # # # # # # # # # # # # # # # # # # # # # O # # # O   X   X . . . . . . . . . . o O # # # # # # # O # # # # # O . . . . . . . . . . . . . . . . . . . . . . . . . . . . . X # # # # # # O O # # O # # # # + # # # # # # # # # # O # # # # # # # O $ O $ $ + # # O # # + # # + # # # + # # # # # # $ - - L L L z L f L f z f - Q : # + $ @ @ # # # # $ @ + + + + . . . . . . . . . . . . . . o @ @ # # # # # # # # # # # # # ",
"@ # # @ # # # # # # # # @ @ @ X   . . . . . . . . . . . . X * L L z - L L z z L z L f L z r.m.v.v.v.v.v.j.j.v.v.v.v.v.g.% @ # # # # # # # # # # # # O . . . . . . . . . . . . . . X . . . . . . . . . . . . . . . O # # # # # # # # # # # # # O . . . . . . . . . . . . . . X O # # # # # # # # # # # # # # # # # # # # # # # # # # # # # + # # # # O # # # # # # # # # u n z z - L z z L z f L L f L # # # # # # @ # # # # # # # # # # # # # # # # # # # # # # O . . . . . . . . . . . . . . . O + @ @ # # # # # # # # # # # # # # # # # # O O # # # # # # # # # # # # # # # # # # O # # # # # # # # # # # # # # # # O X   X   . . . . . . . . . . o # # # # # # # # # # # # # # # . . . . . . . . . . . . . . . . . . . . . . . . . . . . . X # # # # # # $ O # # O O # # # + # # # # # # # # # # # # # # # # # # O + O O O + # # # # $ # # # # # # # # # # # # # # # - R - L - L z z z z z L L - : # + @ @ O # # # # + @ @ + @ + X . . . . . . . . . . . . . o $ # # # # # @ # # # # # # # # ",
"# # @ @ # # # # # # # # @ @ + X . . . . . . . . . . . . . . & L - L L z - L z - L z z z L r.m.v.v.v.v.v.v.v.v.v.v.v.v.v.% O # # # # # # # # # # # # O o . . . . . . . . . . . . . X . . . . . . . . . . . . . . . # # # # # # # # # # # # # # @ o . . . . . . . . . . . . . X O # # # # # # # # # # # # # # # # # O O O # # # # # # # @ # + # # # # # # # # # # # # O # - L L L L L L L z L L L L L c O # # # # # # # O # # # # # # @ @ # # # # # # # # # # # # + X . . . . . . . . . . . . . . + + @ # # # # O # # # O # # # O O O # # O O O O O O O O O # # # # # O # # # # O # # O # # # O # # O # # O # # O # # # O . .   . . . . . . . . . . . o O # # # # # # # # # # # # # O . . . . . . . . . . . . . . . . . . . . . . . . . . . . . X O O O O O O O O O O O O + + + + # # # # # # # O # # O # # # O # O $ O O $ O O O # O # # + + + O # # # # # # # # # # # $ R L - R L L L c z L z Q - ! * # + @ + + # # O # + + $ + @ + . . . . . . . . . . . . . . o # # # # # # # O # # # # # # # ",
"# # @ @ @ @ # # # # # # # # + O . . . . . . . . . . . X . . & L L z z L L z z L f z f L L 6.v.j.r.v.v.p.v.p.v.j.v.r.v.r.% O # # # # + # # # # # # # O o . . . . . . . . . . . . . . . . . . . . . . . . . . . . . # # # # # # # # # # # # # # @ . . . . . . . . . . . . . . X O # # # # # # @ # # # # # # # o # # # O O # # # # # # # # + O # # # # # O # # # # # # # # : z z - - L - - - c - - - L - O # # # O # # # # # # # # # # O @ O # # # # # # # # # # # + X . . . . . . . . . . . . . . + # $ $ # $ # # # $ # % $ # # % $ < $ $ < $ < % < $ % < $ % $ # $ $ $ $ $ $ $ $ $ $ $ $ $ $ $ $ $ $ $ $ $ $ $ $ $ $ $ # X . . . . . . . . . . . . . o O # # # O # # # # # # # # # O . . . . . . . . . . . . . . . . . . . . . . . . . . . . . X $ $ % % < $ < $ < < $ < % $ , $ # $ $ $ $ $ $ $ $ $ $ $ $ $ $ $ $ $ $ $ $ $ $ $ $ $ $ $ $ + + O # # # # # # # # # @ # # - L L - - f f - z z z n - - * # @ @ + + # # # @ @ @ O + @ O . . . . . . . . . . . . . . o # # # # # # @ # # # # O # # # ",
"X X o X o o o . o o . o . X . O & & & : : & : & & : & & - & - L z L z - - L L z z z L z L ` ` ' ] ] ` ] ` ] ` ' ` ] ` ] $ # # # # # # # # # # # # # # . . . o . . . . . . . . . . . O + O O O O @ O O # O O O O O % z : - f - f u z : z - - - : + O O O O O O # O O O O O O O X o X o X o X o X o X o X o X o X X o o X o o X o o o o o o o o . o o . o o . o o . o o o @ # # # # # # $ # # # # # # # O . o o . o X o X X X X X o . o o X o o o   X X X o X X X X + + O + + O + O O O O O O O O * - L * L L z L z L L z z z ` j.r.r.g.p.p.g.r.r.a.a.r.g.a.4.$.X.+.+.+. .$.$.+.$.+.+.+. . .$. .$.o.| | $.$.$.$.$.$.$.$.) O O O O O O O O O O O O O O O . . . X o o X o X   X o X O . O O O O O O O O O O O O O O O O O + O O O O + O O + O O O $ r.p.p.p.g.p.g.r.r.g.g.r.a.j.7.$.$.$.$.$.} +.X.X.+.+.+. .$.$.+.$. .+. .+.$.$.$.$.o.o.$.$.q X o o X X X . o o X O o o o o # # # # # # # # # # # # $ # # O o X O X o o X o X O X X X o O O + + O + O + O O + + + + O X X o X o o X o X X X   X X o ",
". .   X . . . . . . . . . . . & R L L L L L z L z L L L L L - L L - z L L z z z z L - L L z c L z z z z z f L z z z z z $ # # # + # # # # # # # # # O o . . . . . . . . . . . . . . O $ + + $ + # # # # # # # # # 4 Q z z z z L W z L z L L L L $ @ # @ # # # # # # # # # # O X . . . . . . . . . . . .         . . . . . . . . . . . . . . . . . . . . . . . . . . . o O # # # # # # # # # # # # # O o . . . . . . . .       X . . . . . . . . X   . . . X . . X + + + O $ # # $ O O $ O $ $ $ R - L L * L c L L L - L L z ' v.v.v.v.v.v.v.m.v.n.n.v.v.n.r.$.$.+.$.$.$.$.$.$.$.+.$.$.$.$.$.$.$.#.o.$.#.$.$.$.$.$.$.$.} O O # # # $ # # # # # $ + $ O . . . . . . . . .       X . X O O # $ # # # $ # # $ # # # @ $ # # $ # O $ # # # # O + + & j.n.v.v.v.v.v.v.m.v.v.v.n.n.g.$.$.$.$.$.$.#.$.$.+.$.$.$.$.$.$.$.+.O.$.$.$.$.$.$.o.o.$.$.< X . . . . . . . . . . . . . o # # # # # # # # # # # # # # O . . . . . . . . . . . . . . o @ @ # # @ @ @ # # # @ @ @ @ O   . . . . . . .   X .       X ",
". . . . . . . . . . . . . . . $ z z z z z z z L z L f z f L L L z L L - z L L f z L z z z - L z L - z L z L z z L - z L # # # # # # # # # # # # # # # . . . . . . . . . . . . . . . O O + + O + # # # # # # # # # - z z z z L L z L z z L L R - # # # # # # # # # # # # # # @ X . . . . . . . . . .   .   X X   . . . . . . . . . . . . . . . . . . . . . . . . . . . . # # # # # # # # # # # # # # O . . . . . . . . . . . X   . . . . . . . .   . . . . . . . . O + @ # # # # # # O $ O O O $ R - L * L z L z - L z z L - ` v.g.v.v.v.v.g.v.v.v.v.v.v.v.9.$.$.$.$.$.$.$.$.$.$.$.$.$.$.$.$.$.$.o.$.$.$.$.$.$.$.$.$.#._ # # # # # # # # # # # # O $ O . . . . . . . . . . . X   . X O # # # # # # # # # # # # # # # # # O # # # # # # # + # O % p.v.v.g.v.v.r.v.g.v.v.v.g.v.a.$.$.$.$.$.$.$.$.$.$.$.$.$.$.$.$.$.$.$.$.$.$.$.$.$.o.X.#.$.q     . . . . . . . . . . . . o # # # # # # O # # # # # # O O . . . . . . . . . . . . . . . @ @ # # # # # # # # + + O $ O . . . . . . . . . . . .   X   ",
". . . . . . . . . . . . . . . & L z L z z L L - z z L z z L - L z L z L z z z z L - L z z L L f z L z z L - L L z L z z # # # # # # # # # # # # # # O o . . . . . . . . . . . . . . + O $ O $ + # # # # # # # # @ z Q z L z z z z z z L - R - - # @ # # # # # # # # # # # # O X . . . . . . . . . . X   X     X . . . . . . . . . . . . . . . . . . . . . . . . . . . o # # # # # # # # # # # # # # + o . . . . . . . . . . . . . . . . . . . . X   . . . . . . . + @ @ # # # # # # O O $ O O $ - R L L L z - L f L L z z - ` v.v.v.g.g.v.v.p.v.v.a.v.a.v.r.$.$.$.$.$.$.$.$.$.$.$.$.$.$.$.$.$.$.#.X.$.$.$.$.$.$.$.$.$.{ $ # # # # # O # # # # # $ O O . . . . . . . .   X .   X . . # # # O + # # # # # # # # # O # # # # # # # # # # # # + + $ r.j.v.v.v.g.v.v.v.g.g.v.v.v.g.$.$.$.$.$.$.$.$.X.$.$.$.$.$.$.$.$.$.$.$.$.$.$.$.$.#.#.| #.q X . . . . . . . . . . . . . o # # # # # # # # # # # # # O O . . . . . . . . . . . . . . o # # # # # # # # # @ + $ + + o   . . . . . . . . . . . X   X ",
". . . . . . . . . . . . . . . $ L L f L f L f L L - L - L f z L L f z f z z L f L z L z L z L z L z z L f L f z L f z f # # # # # + # # # # # # # # O X . . . . . . . . . . . . . . O + + + @ @ # # # # # # # # # - L z L z L z L z L f z f z - # # # # # # # # # # # # # # O X   . . . . . . . . . . . . . . . . . . . . . . . . . . . . . . . . . . . . . . . . . . o O $ O $ O O O $ # # # # # # O X . . . . . . . . . . . . . . . . . . . . . . . . . . . . . @ @ @ @ @ @ @ # # O O # # O $ z f z f z f z f z z L f z c ` v.r.v.v.p.v.v.v.v.v.g.g.v.n.9.$.$.$.$.$.$.$.$.$.$.$.$.$.+.$.$.+.$.$.$.$.$.$.$.$.$.$.$.$. .$ + # # # # # # # # # # + + o . . . . . . . . . . . . . . X O O # # # # # # # # # # # # # # O # # O # # # # # # # # # $ j.v.v.j.v.v.v.v.v.v.g.v.v.v.r.$.$.$.$.$.$.$.+.$.$.$.$.$.$.$.$.$.$.$.$.$.$.$.$.$.$.$.$.$.1   . . . . . . . . . . . . . . # # # # # # # # # # # # # # O X . . . . . . . . . . . . . o # # # # # # # # # # # # O + O . . . . . . . . . . . . . . . ",
". . . . . . . . . . . . . . . $ z z z z z z z z z L z z z L z c z z z L f L z z f z f z - z c L L z z f z z L z z z z L # # # # # # # # + # # # # # # X . . . . . . . . . . . . . . O $ + + # # # # # # # # # # # - L z f z f z L z z L z L L f # # # # # # # # # # # # # # # X . . . . . . . . . . . . . . . . . . . . . . . . . . . . . . . . . . . . . . . . . . . . O O + + O $ O O # # # # # # # X . . . . . . . . . . . . . . . . . . . . . . . . . . . . . @ @ @ @ @ @ @ # # $ O # # O $ z L z L z L z L f L z z z - ` v.v.v.v.v.r.v.v.r.v.v.v.g.n.9.$.$.$.$.$.$.$.$.$.$.$.$.$.$.$.$.$.$.$.$.$.$.$.$.$.+.$.$.$._ + + # # # # # # # # # # + + O X . . . . . . . . . . . . . X O O # # # # # # # # # # # # # # # # # # # # # # # # # # # & j.n.v.v.r.v.v.p.g.v.g.v.g.v.p.$.$.$.$.$.$.$.$.$.$.$.$.$.$.$.$.$.$.$.$.$.$.$.$.$.$.$.$.$.1 . . . . . . . . . . . . . . o # # # # # # # # # # # O # # # . . . . . . . . . . . . . . X # # # # # # # # # # # # $ + O   . . . . . . . . . . . . . . ",
". . . . . . . . . . . . . . . & R f f z z L f z L L - L z f z L L f L z z f z f z z L f L z L - - L f L z z f z L f L z # # # # # # # # # # # # # # O o . . . . . . . . . . . . . . O # # # # # # # # # # # # O # 4 L z z z L f - L z - L z z f $ # # # # # # # # # # # # # O   . . . . . . . . . . . . . . . . . . . . . . . . . . . . . . . . . . . . . . . . . . . . O $ O O + + + $ # # # O # # O o . . . . . . X . . . . . . . . . . . . . . . . . . . . . . @ @ @ # # @ # # # # # # # # $ L f z z L f z z z f z f L z ` v.p.v.v.r.v.v.p.v.g.v.g.n.n.9.$.$.$.$.$.$.$.$.$.$.$.$.$.$.$.$.$.$.$.$.$.+.$.$.$.$.$.$.$._ $ # # # # # # # # # # O + $ O X . . . . . . . . . . . . . o # # # # # + # O # # # # # # # # # # # # # # # # # # # # O & r.v.j.v.v.v.v.v.v.p.v.v.v.v.g.$.$.$.$.$.$.$.$.$.$.$.$.$.$.$.$.$.$.$.$.$.$.$.$.$.$.$.$.$.1 X . . . . . . . . . . . . . o # # # @ # # # # # # # # # # O . . . . . . . . . . . . . . X $ # # # # # # # # # # O O O o . . . . . . . . . . . . . . . ",
". . . . . . . . . . . . . . . $ n z L z z f L z z z L z z L z c z z f z z L z L f L z z f L c L L z z z L f L z z L - z $ # # # # # # # # # # # # # O . . . . . . . . . . . . . . . o # # @ # # # # # # # # # # @ u L z f L z z L z z L f z z f # # # # # # # # # # # # # # O X . . . . . . . . . . . . . . . . . . . . . . . . . . . . . . . . . . . . . . . . . . . o O O $ $ + $ O O # # # # # # O X . . . . . .   . . . . . . . . . . . . . . . . . . . . . . @ @ @ # # # # # # # # # # # $ z z f L z z f L z L z L z - ` j.v.v.v.v.v.v.v.v.g.v.n.g.n.9.$.$.$.$.$.$.$.$.$.$.$.$.$.$.$.$.$.$.$.$.$.$.$.$.$.$.$.$.$. .O # # # # # # O # # # # + + o . . . . . . . . . . . . . . o O # # # # # # # # # # # # # # # # # # # # # # # # # # # O $ j.v.j.v.p.v.v.r.v.v.v.g.g.v.g.$.$.$.$.$.$.$.$.$.$.$.$.$.$.$.$.+.$.$.$.$.$.$.$.$.$.$.$.$.1   . . . . . . . . . . . . . X # # # # O # # # # # @ @ # # O . . . . . . . . . . . . . . X O O # # # # # # # # O $ # $ o   . . . . . . . . . . . . . . ",
". . . . . . . . . . . . . . . $ R z z L f z z z f L f L L z L c L f z f L z L z z f z z L f L z z z z z f L f z z L - L # # # # # # # # # # # # # # O o . . . . . . . . . . . . . . O # # # O # # # # O # # # # # - Q z L f z f L z L z z f z f # # # # # # # # # # # # # # O X . . . . . . . . . . . . . . . . . . . . . . . . . . . . . . . . . . . . . . . . . . . . + + O O @ # # # # # # # # # O X . . . . . . . . . . . . . . . . . . . . . . . . . . . . . O # # # @ # # # # # # # # O # L z L f z z L z L z L z z z ` v.v.v.v.v.v.v.r.v.v.v.v.a.n.9.$.$.$.$.$.$.$.$.$.+.$.$.$.$.$.$.$.$.$.$.$.$.$.$.$.$.+.+.O.{ $ # # # # # # # # # # # # $ O . . . . . . . . . . . . . . X O # # # # # # # # # # # # # # # # O # # # # # # # # # # + & j.v.j.v.v.j.v.v.v.r.v.p.v.v.a.$.$.$.$.$.$.$.$.$.$.$.$.$.$.$.$.$.$.$.$.$.$.$.$.$.$.$.$.$.1 . . . . . . X . . . . . . . o # # # # $ @ @ # # # O + @ O + . . . . . . . . . . . . . . X # # # O $ + $ O O # + + + + O . . . . . . . . . . . . . . . ",
". . . . . . . . . . . . . . . $ z z z z L z L f z z z z f z f L z z z L f z f z z L f L z L f z L f L f z z L z z L L z # # # # # # # # + # # # # # O X . . . . . . . . . . . . . . O # # # # # # # # # # # # # # u z z z z z L f z f z z L z f # # # # # # # # # # # # # # O X . . . . . . . . . . . . . . .   . . . . . . . . . . . . . . . . . . . . . . . . . . . o + + $ + # # # # # # # # # # O X . . . . . . . . . . . . . . . . . . . . . . . . . . . . . O # # # # # # # # # # # # # $ f z z z f L f z z L - z L - ` v.v.r.p.v.p.v.v.v.v.g.v.v.n.9.$.$.$.$.$.+.$.$.$.$.$.$.$.$.$.$.$.$.$.+.$.$.$.$.$.$.+.+.&.{ + O # # # # # # # # # # # # O . . . . . . . . . . . . . . . O + # # # # # # # # # # # # # # # # # # # # # # # # # # O $ r.v.v.v.v.v.v.p.v.v.v.v.v.v.a.#.$.$.$.$.$.$.+.$.$.+.$.$.$.$.$.$.$.$.$.$.$.$.$.$.$.$.$.$.1 . . . . . . . . . . . . . . o # # # # + + O # # # $ + $ + + X . . . . . . . . . . . . . X # # # # @ + O O # # + + + + O . . . . . . . . . . . . . . . ",
". . . . . . . . . . . . . . . $ L z L z f z f L z L f z f L z L L f L z z z L f L z z z L - L z f z z L z z f z z z L L $ # # # # # # # # # # # # # O X . . . . . . . . . . . . . . O # # # # # # # # # # @ # # @ z L z L f L z z z L f L z z f # # # # # # # # # # # # # # O X . . . . . . . . . . . . . . . X . . . . . . . . . . . . . . . . . . . . . . . . . . . . + + + + # # # # # # # # # # # X . . . . . . . . . . . . . . . . . . . . . . . . . . . . . @ # # # # # # # # # O # # # $ z f L f L z z L z L z L L - ` j.v.v.v.v.v.v.p.v.v.r.v.a.n.9.$.$.$.$.$.$.$.$.$.$.$.$.$. .$.$.+.$.$.$.$.$.$.$.$.$.+.+.$.{ $ # # # # # # # # # # # O O O . . .   X . . . . . . . . . . O + # # # # # # # # # # O # # # # # # # # # # # # # # # # % j.v.j.j.p.v.p.v.v.v.v.v.v.v.r.$.$.$.$.$.$.$.$.$.$.$.$.$.$.$.$.+.$.$.$.$.$.$.$.$.$.$.$.$.f . . . . . . . . . . . . . . X # # # # # # # # # # # @ + + O X . . . . . . . . . . . . . X # # # # # # O $ O $ + $ + + o . . . . . . . . . . . . . . . ",
". . . . . . . . . . . . . .   % L f L z L z z z z f L z z z z f z z f z f L z z f z f L z z c f L z z f L f L z L z z L # # + # # # + # # # # # O $ O . . . . . . . . . . . . . . . + # # # # # # # # # # # # # @ - L z z z f z f L z z f z z f # # # # # # # # # # # @ # # O X . . . . . . . . . . . . . . . . . . . . . . . . . . . . . . . . . . . . . . . . . . . . + + $ O # O # # # # # # # # # X . . . . . . . . . . . . . . . . . . . . . . . . . . .     @ # # # # # # # # # # # # # # z L z z - L z z L - z L z - ' v.v.p.v.v.r.v.v.v.v.v.v.v.n.9.+.$.$.$.$.$.$.$.$.$.$.$.$.$.$.$.$.$.$.$.$.$.+.$.$.$.$.+.O._ # # # # # # # + # # # # # O O . . . .   . . . . . . . . . o O + # # # # # # # # # # # # # # # # # # # # # # O # # # # & j.v.v.v.v.v.v.v.v.p.v.r.r.v.p.$.$.$.$.$.$.$.$.$.$.$.$.$.$.$.$.$.$.$.$.$.$.$.$.$.$.$.$.$.- . . . . . . . . . . . . . . o # # # # # # # # # # # @ @ + O . . . . . . . . . . . . . . o # # # # # O # # O + + + + + O   . . . . . . X . . . . . . . ",
". . . . . . . . . . . . . . . $ n z z z z L L f z f z z L z z f z z L f z f z z L f z f z z L f z z z L f z z z z L f z # # # # # # # # # # # # # # O . . . . . . . . . . . . . . . O + + + + + + # # # + # # # # f n z z z L z z z z z z L z z # # # # # # # # # # # # # # O . . . . . . . . . . . . . . . . . . . . . X   X   . . . . . . . . . . . .     X   . . . . O # # # # # # # # # # + # # O X . . . . . . . . . . . . . . . . . . . . . . . . . . . . . # # # # # # # # # # # # # # # L L z z z z z z z L z z z f ` v.v.v.g.g.v.v.v.v.g.r.v.v.n.9.$.$.$.$.$.$.$.$.$.$.$.$.$.$.$.$.$.$.$.$.$.$.$.+.$.$.$.$.$.{ $ # # # $ O O O # # O $ O # O X X     X . . . . . . . . . . # # # # # # # # # # # # # # # # # # # # # # # # # # # # # % r.v.g.v.v.g.n.g.v.v.v.g.n.g.g.$.$.$.$.$.$.$.$.$.$.$.$.$.$.$.$.$.$.$.$.$.$.$.$.$.$.$.$.$.N     X   X   . . . . . . . . . + # # # + # + # # # # # # # O o . . . . . . . . . . . . . X # # # # # # # # # # # # # # O X   X   . . . . . . . . . . . ",
". . . . . . . . . . . . . . . & n f z L z z z z z L f L z n L L f L z z z L f L z z z L f L L - L f z f L z L f z f L z # # # # # # # # # # # # # # O O . . . . . . . . . . . . . . O + + + + + + + # # + + # + # f n z L z L z z z z L z z z z # # # # # # # # # # # # # # O . . . . . . . . . . . . . . . . . . . . .   X     . . . . . . . . . . . . . X   X . . . o # # # # # # # # # # # + # # # X .   . . . . . . . . . . . . . . . . . . . . . . . . . . . @ # # # # # # # # # # O # # # z z z L z z z L z f z z L f Q v.v.v.v.v.v.r.v.v.v.v.v.v.n.9.$.$.$.$.$.$.$.$.$.$.$.$.$.$.$.$.$.$.$.$.$.$.$.$.$.X.$.$.$.{ # # # # O O $ O # # O O O # O     X X   . . . . . . . . . o O # # # # # # # # # # # # # # # O O @ O O # # O O O @ O O $ r.v.v.v.v.n.g.g.g.g.v.n.g.n.u.#.$.$.$.$.$.$.$.$.$.$.$.$.$.$.$.$.$.$.$.$.$.$.$.$.$.$.$.$.<   X   X   . . . . . . . . . o + + # # + + # # # # + O # # O . . . . . . . . . . . . . . X # # # # # # # # # # # # # # O   X   . . . . . . . . . . . . ",
"o o X X . o . . . X . X X . . $ R f f L L L z f L z z z z n f L z f z f L z z z L f L z z z L L f L z L f z f L z z z z $ # # # # # # O # # # # # # O . . . . . . . . . . . . . . . + + + O + + $ O $ + O + + + # 4 n u 4 f z z n z u u f f f 4 # # # # # # # # # # # # # # # o . . o . . . . . . . o . . . o . . . X . . . X X . . o . . . o . . . X X . . X   . . . . O + @ O O + O # + + O + # O O X X X X X . X . X . . . . X . . o . . . o . . . . . . . . . @ # # # # # $ # # # # # # # % R L Q R L Q R L R R R Q Q L ] a.g.g.p.g.r.g.g.g.g.g.r.r.g.9.$.$.$.$.$.$.$.$.$.$.$.$.$.} $.$.$.$.$.+.$.$.$.$.$.$.$.$.$.] $ # $ # + $ $ + $ $ $ $ $ $ O X X   X   . o . . . . . . . o O # # # # # # # # # # # # # # $ $ $ $ $ # $ $ $ # % $ $ $ 4 p.j.v.g.g.a.g.g.a.g.g.g.g.g.9.$.$.$.$.$.+.$.$.$.$.$.+.$.$.$.$.$.$.$.$.$.$.$.$.$.$.$.$.$.q X   X . X . . o . . o . . . o O O O + O O O O + O O O O O O . . . . o . . . . . . . . . o $ # # # # # $ # $ # # # # $ O   X X . X . . X . . o . . . o ",
": : : : - - - : - - * * * * * * L z z z z z z L f z f L z z f c z L z L f z f L z z f z z c c z z z z f L z z z L f L f - - L - f - f - - - L - * - - o . . . . . . . . . . . . . . F O.O.O.O.{ {  .| | O.{ ..O.} < , , , , , % , , , , < , , , R z z z z z z z z Q z z z L z O O O O O O O O O O O O O O O O O O O O O O O O O O O O O O O O O O O O O O O O O O O O O o o o . . o o . . o . o   X X O O O O O O O O O O O O O O O O O O O O O O O O O O O O O # z z z z z z z z z R z n n n ] g.v.g.v.v.g.g.v.v.j.g.g.g.v.r.$.$.$.$.$.#.$.$.$.$.$.#.$.#.$.X.$.$.$.$.$.$.$.$.$.$.$.$.$.$.$.$.$.X.$.$.$.$.$.$.$.$.$.$.X.+.+.+.+. .$.$. .$. . . . .$._ $ O O O O O O O O O # O O O O z z z L z z z Q z z z L z z Q g.g.g.r.v.v.p.g.g.g.a.g.g.g.r.#.$.$.$.$.$.#.$.$.$.$.#.$.$.$.$.$.$.$.$.X.$.$.$.$.$.$.$.+.$.$.$. .$.$.$.$.$.$.$.$.$.$.#.F O O O O O O O O O O + O O O O o o . o . o o o o o o X o o o O O O O O O O O + O O O # O < $.$.$.$.$.$.$.$.$.$.$.$.$.$.n O O O O O O O O O O O O O O O ",
"z z f z z L f z L z L z c L f z f z z z f L f L z z L f z z z L L z L z z f z z L f z f L z L z z L f z z L f z z z z z L L L - z L f L z z z z L L - o . . . . . . . . . . . . . . ( #.$.$.$.$.$.$.$.$.$.$.$.$. ., , , , , , , , , , , , , , , z z z L z z f z z z z L f z - # # # # # # # # # + # # # # # + # O + # # # # # # + # # # # + # # O # # # # # # # + # # O o . . . . . . . . . . . X   . O O O # # # # # # # # # # # # # # # # # # # # # # # # # # # f L - z z z L z z L z y y f ' v.v.v.v.v.p.r.v.r.v.a.v.v.v.7.$.$.$.$.$.X.$.$.+.$.$.$.$.$.$.$.$.$.+.$.$.$.$.$.$.$.$.$.$.$.$.$.$.$.$.$.$.$.$.$.$.$.$.$.$.+.$.$.$.$.$.$.$.$.$.$.$. .$._ $ + + # # # # # # # # # # # # L L z z L z z z z L z z L - Q g.v.v.v.p.v.r.v.v.v.g.v.g.v.p.$.$.$.$.$.$.$.$.$.$.$.$.$.$.$.X.$.$.$.$.$.$.$.$.$.$.$.$.$.$.$.$.$.$.$.$.$.$.$.$.$.$.$.$.( O # # O O # + # # # + + # O O . . . . . . . . . . . . . . o O O + + # # # # # # # # # @ % $.$.$.$.$.$.$.$.$.$.$.$.$.$.' + # # O + + # # # # # # # # # ",
"z L L z z f L z f z f z c c f L L z L f z z z z f L z z f L f L f z f z z L f L z z z L f z c z z f L z z f L z L f L f - L z L z f z z L f L f - L z o . . . . . . . . . . . . . . ( $.$.$.$.$.$.$.$.$.$.$.$.$. ., , , , , , , , , , , , , , , z z z L z L L z z L z z L z f # # # # # # # # # # # # # # # # # + + # # # # # # # # # # # + # # O + # # # # # # + # # O . . . . . . . . . . . . X   X O # # O # # # # # # # # # # # # # # # O # + # # # + # # # # f z L z L z z f L f z n f f ' v.v.v.r.v.v.v.v.v.v.v.v.v.v.r.$.$.$.$.$.$.$.$.$.$.$.X.$.$.$.$.$.$.$.$.$.$.$.X.$.$.$.$.$.X.$.$.$.$.$.$.$.$.$.$.$.$.$.$.$.$.$.$.$.$.$.$.$.$.$.$.$.$.$. .$ O $ # O # # # # # # # # # $ L - f L f z z L z z f L f z Q v.v.g.v.v.v.v.v.g.v.v.v.v.v.r.$.$.$.$.$.$.$.$.$.$.$.$.$.$.$.$.$.$.$.X.$.$.$.$.$.$.$.$.$.$.$.$.$.$.$.$.$.+.$.$.$.$.$.$.( O # # + O # # # # # # # # + O . . . . . . . . . . . . . . o + + + # # # # # # # # # # @ < $.$.$.$.$.$.$.$.$.$.$.$.$.$.~ O # # O O # # # # # # # # # # ",
"z z L z z z z z z z L f L z z z f z f L z L f z z f z f z f z c z z L f L z z z L f L z z z L f z z z z z z z z f z z L z L L z z L z z f z z L L z - o . . . . . . . . . . . . . . _ $.$.$.$.$.$.$.$.$.$.$.$.$. ., , , , , , , , , , , , , , , z z z z z z z z z z L z L z c # # # # # # # # # # # + # # # # # # # # # # # # # # + # # # + # # + # # # O # # # # # # # . . . . . . . . . . . .   X . O # # # # # # # # # # # O # # # # # # # # # # # # # # # # $ L z z L z L z z z z f z L f ' g.v.v.v.v.v.v.v.v.v.v.g.v.v.r.$.$.$.$.$.$.$.$.$.$.$.$.$.$.$.$.$.$.$.$.$.$.$.$.$.$.$.$.$.$.$.$.+.$.$.$.$.$.$.$.$.$.$.$.$.+.$.$.$.$.$.$.$.$.$.$.$.$.$. .$ + # # O # # # # # # # # # # - L L z z L z z L z z z z z R v.v.a.r.v.p.v.v.v.a.v.v.g.v.p.$.$.$.$.$.$.$.$.$.$.$.$.$.$.+.$.$.$.$.$.$.X.$.$.$.+.$.$.$.$.$.$.$.$.+.$.$.$.$.$.$.$.$.$.( # # # + + # # # # # # # # + O . . . . . . . . . . . . . . o O # # # # # # # # # # # # @ < $.$.$.+.$.$.$.$.$.$.$.+.$.$.) O # # # # # + # # # # # # # # ",
"L z f z L f L f f L z z f z f L L z z z z f L z z L z L z L z L f L z z f z f L z z f z f L c L L f L f L f L f L z z f L - L z z f L f L z z f z L z o . . . . . . . . . . . . . X ( $.$.O.$.$.$.$.$.$.$.$.$.$.$., , , , , , , , , , , , , , , z L L z L f L f L f L z z L - $ # # # # # # # # # # # # # # # # # + # # # # # # # # # # # + # # # # # # # # # # # # # O . . . . . . . . . . . . X   . O # # # # # # # # # # # # # # # # # # # # # # # # # # # # # f L z z z L z f L z L z z f ' v.v.g.v.r.v.v.p.p.v.v.g.v.v.r.$.$.$.$.$.$.$.$.$.$.$.$.$.$.$.$.$.X.$.$.$.$.$.$.$.$.$.$.$.$.$.$.$.$.$.$.$.$.X.$.$.$.$.$.$.$.$.$.$.$.$.$.$.$.$.$.$.$.$. .$ + # + $ # # # # # # # # # # f z - L z z L f L z z z z z Q a.v.v.v.v.v.v.v.r.v.v.v.g.v.g.#.$.$.$.$.$.$.$.$.$.$.$.$.$.+.$.$.$.$.$.$.$.$.$.$.$.$.$.$.+.$.$.$.$.$.$.$.$.$.$.$.$.$.$.) O # # + + # # # # # # # # O O . . . . . . . . . . . . . . . O # # # # # # # # # # # # @ < $.$.$.$.$.$.$.$.$.$.$.$.$.$.) O # # # # # # O # # # # # # # ",
"L z L z L z L z z z L f z f z z f z z z z L f z f L f L L z f L z f z z L f z f z f z z L f L z z z z z z z z z f z z L f L f z z L f L f z z L z z 4 o   . . . . . . . . . . . . . ~ #.$.$.$.$.$.$.$.$.$.$.$.$. ., , , , , , , , , , , , $ , , f L f L f L f L f z z L f L f O # # # # # # # # # # # # # # # # # # # # # # # O # # # # # + # # O # # # # # # # # # # O X X   X . . . . . . . . . . . O # # # # # # # # # # # # # O # # # # # # # # # # # O # # $ f z z L f z f z f z z n z f ' v.v.p.v.v.v.v.v.v.v.v.v.v.v.r.| $.$.$.$.$.$.$.$.$.+.$.$.$.$.$.X.$.$.$.$.$.$.$.$.$.$.X.$.$.$.$.$.$.$.$.| $.$.$.$.$.$.#.| $.$.$.$.$.$.$.$.$.$.$.$.$.$.} $ # # # # # # # # # # # # # # L L - L - L f z z L f L f z Q v.v.v.v.a.v.v.v.p.r.v.v.p.v.r.$.$.$.$.$.$.$.$.$.$.$.$.$.$.$.$.$.$.$.$.$.$.$.$.$.$.$.$.$.$.$.$.$.+.$.$. .$.$.$.$.$.$.O.( # O # # # # # # # # # # # # O . . . . . . . . . . . . . . . # # # # # # # # # # # # # O % $.$.$.$.$.$.$.$.$.$.$.$.$.$.) O O # # # # # # O # # O # # # ",
"f z f z f z f z f L z z z L f L L z L f z f L z z z z z f z z c z L f L z z z L z L f L z z f z L f L f L f L f L z z f z z L z z f z z L z z f z z z o . . . . . . . . . . . . . . ~ $.$.$.$.$.$.$.$.$.$.$.$.$.O., , , , , , , , , , , , , , , z z z z z z z z L z z f z z z # # # # # # # # # # # # # # # # # # # # # # # # # # # O # # + # # # # # # # # # # # # # # X   X   . . . . . . . . . . . O # # O # # # # # # # # # # # # # # # # # # # # # # # # # # R f L z z z L z L f L f f f ' v.v.v.v.v.r.v.p.r.v.v.r.p.v.r.$.$.$.$.$.$.X.$.$.$.$.$.$.$.$.$.$.$.$.$.$.$.$.$.$.$.$.$.$.$.$.$.$.$.$.$.$.$.$.$.$.$.$.$.$.$.$.$.$.$.$.$.$.$.$.$.$.$.$.} # # # # # # # # # # # # # # $ - L L z L z L z z f z z L - Q g.a.v.v.v.r.v.v.v.v.v.v.v.v.p.$.$.$.$.$.$.$.$.$.$.$.$.$.$.$.$.$.$.$.+.$.$.+.$.$.$.$.$.$.$.| $.$.$.$.$.$.$.$.$.$.$.$.#.( # # # # # # # # # # # # # O O . . . . . . . . . . . . . . o # # # # # # # # # # # # O @ < #.$.$.$.+.$.$.$.$.$.$.$.$.$.~ O # # # # # # # # # # # # # # ",
"z z L f z z L f z f z f L z z z f z f L z z z z z L z z z z z L L z z z L f L z L z z z L f L z f z z L f z z L f L f L z z f z z L z z f L f L z L f o   X . . . . . . . . . .   X ( $.$.$.$.$.$.$.$.$.$.$.$.$.O., , , , , , , , , , , , , , , z z f z z L f z f L f L z L z # # # # # # # # # # # O # # # # # # # # # # # # # # # # # # + # # # # # # # # # # # # # O . .   . . . . . . . . . . . . O # # # # # # # # # # # # # # # # # # # # # # # # # # # # $ y z z L f L z L z z z y R f ` r.v.v.v.v.p.v.v.v.v.p.v.v.v.r.$.$.$.$.$.$.$.$.$.X.$.$.$.$.$.$.$.$.$.$.$.$.$.$.$.$.$.$.$.$.$.$.$.$.$.$.$.$.$.$.$.$.$.$.$.$.$.$.$.$.$.$.$.$.$.$.$.$.#.| $ # # O # # # # # # # # # # # - L z - L z f L f L z L z z Q v.v.a.v.v.v.v.v.v.v.v.v.v.v.p.#.$.$.$.$.$.$.$.$.$.$.$.$.$.$.$.$.$.$.$.$.$.$.$.$.$.$.$.$.$.$.$.$.$.$.$.$.$.$.$.$.$.O.$.( O $ # # # # # # # # # # # O O . . . . . . . . . . . . . . o O # # # # # # # # # # # # # < #.$.$.$.$.$.$.$.$.$.$.$.$.#.) # # # # # # # # # # # # # # # ",
"f L z z f L z z z L z L f z f L L z z z L f L f z f z f f R f L f z f L z z f z f z f L z z c z L z z f L z z f z z z z L f L z z f L f z z z z z z 4 o   . . . . . . . . . . . X X _ $.$.$.$.$.$.$.$.$.$.$.$.$.O., , , , , , , , , , , , , , , z z L z z f L z z z z z z z z # # # # # O # # # # # # # # # # # # # O # # # # # # # # # # + # # # # # # # # # # # # # O . . . . . . . . . . . . . . o O # # # # O # # # # # # # # # # # # # # # # # # # # # # # # f f L z z f z f z f L f f f ' v.v.r.v.v.v.v.v.v.v.v.v.v.n.r.$.$.$.$.$.$.$.$.$.$.$.$.$.$.$.$.$.$.$.$.$.$.$.$.$.$.$.$.$.$.$.X.$.$.$.$.$.$.$.$.$.$.$.$.$.$.$.$.$.$.$.$.$.$.$.$.$.$.$.$.# # # # # # # # O # # # # # # z z z L z L z z z z z z L - Q r.v.v.a.v.a.v.r.v.v.p.v.v.v.p.$.$.$.$.$.$.$.$.$.$.$.$.$.$.$.$.$.$.$.$.$.$.$.$.$.$.$.$.$.$.$.$.$.$.$.$.$.$.$.$.$.$.$.$.( # O # # # # # # # # # # # O O . . . . . . . . . . . . . . . # # # # # # # # # # # # # # 4 $.$.$.$.$.$.$.$.$.$.$.$.$.$.) O # # # # # # # # # # # # # # ",
"z f z z L f z f L z L z z f z z f z z z f L f L z z z L L f z c z z L f z z L f z z L f z z L f f L f z z L f L z z z z f L f z z L f L z z z L L L f o . . . . . . . . . . . .     ( $.$.$.$.$.$.$.$.$.$.$.$.$.O., , , , , , , , , , , , , , < z L f z f z z z z z z z L L - # O # # # # # # # # # # # # O # # # # # # # O O # # # O O # + # # # # # # # # # # # # # O . . . . . . . . . . . . . . . O # # # # # # # # O # # # # # # # # # # # # # O # # # # # $ y z L z z L f z z L f z z f ' v.v.v.p.v.p.v.r.v.p.v.v.v.v.7.X.$.X.$.$.$.$.$.$.$.$.$.$.$.+.$.$.$.$.$.$.$.$.$.$.$.$.$.$.$.$.$.$.$.$.$.$.$.$.$.$.$.$.$.$.$.$.$.$.$.$.$.$.$.$.$.$.$.$.$.+ # # # # # # # # # # # O # # L L z z z z z L z z L L - z Q v.v.v.v.v.v.v.v.v.v.v.p.v.v.r.$.$.$.$.$.$.$.$.$.$.$.$.$.$.$.$.$.$.$.$.$.$.$.$.$.$.$.$.$.$.+.$.$.$.$.$.$.$.$.$.$.$.$.#.( O # # # # # # # # # # # # O O . . . . . . . . . . . . . . . + # # # # # # # # # # # # @ % $.$.$.$.$.$.$.$.$.$.$.$.$.$.) O # # # # # # # # # O # # # # ",
"z L f L z z z L f z f z z L f L L z L f z z z z L f z f z z z L f L z z f L z z f L z z f L c L z z L z z f z z L f L f z z L z z f z z L L z z z z f o   . . . . . . . . . . .   X _ $.$.$.$.$.$.$.$.$.$.O.$.$.O., , , , , , , , , , , , , , , z z L z L z L f L f L f z z z # # # # # # # # # # # # # # # # # # # # # # O $ # # # # $ # + # # # # # # # # # # # # # # . . . . . . . . . . . . . . o O # # # # # # # # # # # # # # # # # # # # # # # # # # # # $ y z L f L z z f L z z f L f ' v.v.v.v.v.v.v.v.v.v.v.r.v.v.r.$.$.$.$.$.$.$.$.$.$.$.$.$.$.$.$.$.$.$.$.$.$.$.X.$.$.$.$.X.$.$.$.$.$.$.$.$.$.$.$.$.$.$.$.$.$.$.$.$.$.$.$.$.$.$.$.$.$.$.O.$ # # # # # # # # # # # # # $ - L L f L f L - L L z z L - Q g.a.v.v.a.v.a.v.p.v.p.v.v.m.r.$.$.$.$.$.$.$.$.$.$.$.$.$.$.$.$.$.$.$.$.$.$.$.$.$.$.$.$.$.$.$.$.$.$.$.$.$.$.$.$.$.$.$.$.( O # # # # # # # # # # # # O O . . . . . . . . . . . . . . o # # # O # # # # # # # # # @ < $.$.$.$.$.$.$.$.$.$.$.$.$.$.) O # # # # # # # # # # # # # # ",
"L z z z L f L z z z L f L z z z f z f L z L f z f L z L L f L L z f z f z f z f z f z f z f L z z z f z z L z z f z z L z z f z z L z z f z L z z z 4 o . . . . . . . . . . . . X . F $.$.$.$.$.$.$.$.$.$.$.$.$. ., , , , , , , , , , , , , , < z z f z f z f L f z z L z L f # # # # # # # # # # # # # # # # # # # # # # # # # # # O O $ + # # # # # # # # # # # # # O . . . . . . . . o . . . . . . O # # # # O # # # # # # # # # # # # # # # # # # # # # # # # y n z z f z f z f z f z f f ' v.v.v.r.r.v.p.v.v.r.v.v.v.v.r.$.$.+.$.$.$.$.$.X.$.$.$.$.$.$.$.$.$.$.$.$.$.+.$.$.$.$.$.$.$.$.$.$.$.$.$.$.$.$.$.$.$.$.$.$.$.$.$.$.$.$.$.$.$.$.$.$.$.$. .+ # # # # # # # # # # # # # # - z f z z L f z L z z L L - Q v.v.p.r.v.v.v.p.v.v.v.v.g.v.p.$.$.$.$.$.$.$.$.$.$.$.$.$.$.X.$.$.$.$.$.$.$.$.$.$.$.$.+.$.$.$.$.$.+.$.$.+.$.$.$.$.$.$.$.( O # # # # # # # # # # # + # O . . . . . . . . X . . . . . . O # # # # # # # # # # # # # < $.$.$.$.$.$.$.$.$.$.$.$.$.$.) O # # # # O # # # # # # # # # ",
"f z f L z z f z f L z z f z f L L z z z z f L z z z z f z L - L z L z L z L z L z L z L z L f z L f L z z f L f L z z f L f L z z f L f L z z z L z u o   . . . . . . . . . . . . . ( $.$.$.$.$.$.$.$.$.$.$.$.O.O., , , , , , , , , , , , , $ < z f L z L z z z L z z L z z z # # # # # # # # # # O # # # # # # # # # # # # # # # # $ O O O # # # # # # O # # # # # # O . . . . . . . . . . . . . . . O # # # # # # # # # # # # # # # O # # # # # # # # # # # # $ f z z z L z L z L z L z L f ' v.v.v.v.v.v.v.v.v.v.g.v.v.v.r.$.$.$.$.$.$.$.$.$.$.$.$.$.$.$.$.$.X.$.$.$.$.$.$.$.+.$.$.$.$.$.$.$.$.$.$.$.$.$.$.$.$.$.$.$.$.$.$.$.$.$.$.$.$.$.$.$.$.$.$.+ # # # # # # # # # # # # # # f f L z z f L z - L z z L z Q r.v.v.v.v.v.a.v.v.v.p.v.v.v.p.$.$.$.$.$.$.$.$.X.$.$.$.$.$.$.$.$.$.$. .$.$.+.$.$.$.$.$.$.$.$.$.$.$.$.$.$.$.$.$.$.$.$.$.( # # # # # # + # # # # # # # O . . . . . . . . . . . . . . o # # # # # # # O # # # # # # < $.$.$.$.$.$.$.$.$.$.$.$.$.#.F O # # # # # # # # # # # # # # ",
"z z z z L c z L L L f f z z z z z z L z z z z L z z L L z z L - L - L L z f - L z L L L z L L z f L f z z L f L f z z L f L f z z z L z L f z z L z - o X   . . . . . . . . . . X   ( $.O.O.$.O.$.$.$.$.$.O.$.$. ., , , , , , , , , , , , , , < z z z z z L f z f L f z f z f # O # # # # # # # # # # # # # O # # O # # # # # # # # # # + + + + + # + # # O # # + + $ + X X X     . . . . . . . . . . O O # # # # # # # # # # # # # # # # # # # # # # # # # O # # f z f z f z f z f z f z f f ' p.m.v.v.v.v.v.v.v.v.v.v.v.n.r.X.$.$.$.+.$.$.+.$.$.$.$.$.$.+.$.$.$.$.$.$.$.$.$.$.$.$.$.$.$.$.$.$.$.$.$.$.$.$.$.$.$.$.$.$.$.$.O.$.$.$.O.O.O.O.O.$.$.$.} $ O O # # O # # # # O # # # # - L L L f z f z z z z L z z ` j.v.v.v.v.v.v.r.v.v.g.v.v.v.a.$.$.$.$.$.$.$.$.$.$.$.$.$.$.$.$.$.$.$.$.$.$.$.$.$.$.$.$.$.$.$.$.$.$.$.$.$.$.$.$.$.$.$.#.( # # # O O # + + # # # O # O O . . . . . . . . . . . X . . . + # # # # # # # # # # # # O 4 $.$.$.$.$.$.$.$.$.$.X.$.$.$.( O + + + + + + + + + + + + + + ",
"f - f L - - f - - f - f - f f R z L L L L f z f L L z z z L L L z L c * z L L L z z z L L L - L z z L z z f z z L z z f z z L z f L f z z z f L f z : O   . . . . . . . . . . .     ( O. .O.O.O. . . . . . . . .{ < , , , , , , , , , , , , , , z f L f z f L z z z L z L z f # # # # O # # # # # O # # # # $ # # $ $ # # # $ O $ O O $ + O $ + + $ + O $ + # $ + O O O X     X X   . . . . . . . . o O # # # # # # # # # # # # # O # # $ # # $ # # # $ $ # $ # % f z L z L z L z L z L z f f ' r.r.r.9.r.r.r.6.r.r.6.r.r.r.6.X.$.$.$.$.$.$.$.$.$.$.$.$.$.$.$.$.$.$.$.$.$.$.$.$.$.$.$.$.$.$.$.$.$.$.$.$.$.$.$.$.$.$.$.$.O.O.O.O. . .O.O. . . . .} $.{ $ # # # O # # # # @ O # # # # z z z z L z L z L f z f L - Q j.v.r.a.v.a.v.v.j.v.j.j.v.g.r.$.$.$.$.$.$.$.$.$.$.$.$.$.$.$.$.$.$.$.$.$.$.$.$.$.$.$.$.$.$.$.$.$.$.$.$.$.$.$.$.$.$.$.$.( # # # O O , O # # # # $ # # O . X . . . . . X . . . X . . o $ # # # $ # $ # # $ $ $ # # 4 $. .} } X.| } |  . .X.| X.X.) $ $ $ $ $ $ $ $ $ $ $ $ $ $ $ ",
"+ # # # # # O # # $ # # O # # # # # $ # $ # # # # $ # # # # $ # # # $ $ # # $ # # # # # # - - L z z f z z L z z f L f L z z f z z z z f L z L z z z - o . . . . . . . . . . . .   X + , , , , , , , , , , , , , < 4 z z N u n z z f y z z z f 4 z L z z z z z z z z f z f z z f z z f f 4 f z f - f f - z z ] |  . . . . . .} } } } o.| {  .$.{ $.} } } } } $.}  . .$.{ O O O O + O O O O O + + O O O # # # # # O # # # # # # # # $ - - f f L z f f f f z f f f f f z z L f z z L f z z L f z L R R z Q L R L L z Q L Q Q L Q $.$.$.$.$.$.$.$.$.$.+.$.$.$.$.$.$.$.$.$.$.$. .$.$.$.$.$.$.$.$.$.$.$.$.$.$.$.$.$.$.$.$.$._ , , , , , , , , , , , , , , < 4 n z z f - - - L f f f f z z z z z z f z f z f L z z z z z R R Q R Q R R R Q n Q Q Q Q Q $.$.$.$.$.$.$.$.$.$.$.$.$.$.$.$.$.$.$.$.$.$.+.$.$.$.+.$.$.$.+.$.$.+.$.$.$.+.$.$.$.$.$.$.) , , , , , , , , , , , , , , $ O O O O O O O # O O O O O O # c f f f f z z f f f f z f z L R n n R n R z z n n L L L L ~  . .O. . . .O. . . . .$. . . .",
"+ # # # # # # # # # # # # # # # + # + + O # # # # # # # O # # # # # # O # # # # # # # # # z L z L f L z z f L f z z z z L f L z f L z L f z f z L z f o . . . . . . . . . . . .   X , , , , , , , , , , , , , , , f L z n n z z z z n z z z z n z f L f L f L f L f L z L z z f z z z z z z z z z L z z z L | $.+.$.$.+. .$.$.$.$.#.| #.$.$.$.$.$.$.$.$.$.$.$.$.$.$.$.{ $ O O $ + + O O # # # # # # # # # # # # # # # # # # # # # $ c L f L z L L z z z z L z z z n f L z z f L z z f L z z z f z z z z z z L z z z z z z z Q $.$.$.$.+.$.$.$.$.$.$.$.$.$.$.$.$.$.$.$.$.$.$.$.$.+.$.$.+.$.$.$.$.$.$.$.$.$.$.$.$.$.$.$.O., , , , , , , , , , , , , , , z n z z z L L z L z z z z L L z L L f L z L z z z L f L f z z z z z z z L z z z z z z z W $.$.$.$.$.$.$.$.$.$.$.$.$.$.$.$.$.$.$.$.$.$.$.$.$.$.$.$.$.$.$.$.$.$.$.$.$.$.$.$.$.+.$.$._ , , , , , , , , , , , , , , % # # # # # # # # # O # # # O $ L z z f L z L z z z z z z z z n L z z z z z z Q n - L z L _ $.$.$.$.$.$.$.$.$.$.$.$.$.$.$.",
"# # # # # # # # # # # # # # # # # # # # # # # # # # # # # # # # # O # # # # # # # # # # # z Q z f z z L f z z L z z z z f L f z z z L z z f z f z z u o X   . . . . . . . . . . X . + , , , , , , , , , , , , , , z z L z z z z z z z z z z z L z L f L z z z z f z z L f z z L z z z z z L z z z L z z z n | $.+.$.$.$.$.$.$.$.$.$.$.$.$.$.$.$.$.$.$.$.$.$.$.$.$.$.$.$.# # # # # # # # # # # # # # # # # # # # # # # # # # # # # # f z z z L f f z z z f L f L L L z z z z L z L z L f z L f L z z - L z L f z z z z L z L L X.$.$.$.$.$.$.$.$.$.$.$.$.$.$.$.$.$.$.$.$.$.$.$.$.$.$.$.$.$.$.$.$.$.$.$.$.$.$.$.$.$.$.$.{ , , , , , , , , , , , , , , , z z f z f z z f z z L f z z z z z f L f z f z z z f L f L z z z z L f z z z z z z L f z Q | $.$.$.$.$.$.$.$.$.$.$.$.$.+.$.$.$.$.$.$.$.$.$.$.$.$.$.$.$.$.$.$.$.$.$.$.+.+.#.$.$.$.#.( , , , , , , , , , , , , , , , # # # # # # # # # # # # # # $ z L f z z f L f L z z z L L f n z L z L z L z z L z z L - ) $.$.$.$.$.$.$.$.$.$.$.$.$.$.$.",
"# # # # # # # # # # # # # # # # # # # # + # # # # # # # # # # # # # # # # # # # # # # # @ z z z L z z f L z z f L f L f z z L z f L f z z L z L f L 4 o   . . . . . . . . . . . . . + , , , , , , , , , , , , , , u z z L f L f L f L f z L z z z f z z L f L f L z z f L z z f L f L f z z z L z L z L z n $.$.$.$.$.$.$.$.$.$.$.$.$.$.$.$.$.$.$.$.$.$.$.$.$.$.$.$.#.{ $ # # # # # + # # # + # # # O # # # + # # # # # O # # # # # f z z z z z L z L f z z z z z z z L f L f z f z z z z f z z z z L z z f L z L L z z z z R $.$.$.$.$.$.$.$.$.$.$.+.$.$.$.$.+.$.$.$.$.$.$.+.$.$.$.$.$.$.$.$.$.$.$.$.$.$.$.$.$.$.$.$.O., , , , , , , , , , , , , , < z L L z L z L L z z f L z L f L f z z L z L z L f z z z z z L f L z z f L z L f L z z z n $.$.$.$.$.$.$.$.$.$.$.$.$.$.+.$.+.$.$.$.+.$.$.$.$.$.$.$.$.$.+.$.$.+.$.$.$.+.+.O.$.$.$.$._ , , , , , , , , , , , , , , $ # # # # # # # # # # # # # # $ L z z f L z z z z z L z f f L n z f z f z L z z L - L L - ) $.$.$.$.$.$.$.$.$.$.$.$.$.$.$.",
"# # # # # # # # # # # # # # # # # # # # # # # # # # @ @ # $ # # # # # # # # # # # # # # # z Q - f L f L f L f L f z z L z z f z z z z f L f z z z f f o . . . . . . . . . .   X   X , , , , , , , , , , , , , , , 4 L z f z z L f z z L z z L z z L z z f z z L f L f L f L f L f z z L z z z L z z L z z R } $.+.$.$.$.+.$.$.$.$.$.$.$.$.O.$.$.$.$.$.$.$.$.$.$.$.$.$.} # O # # # # # # # # # # # # # # # # # # # # # # # # # # # $ f f z f L f f z f L z L f z L f z L z z z f z f L f z L z z L L z z z z z z z z L z z z R $.$.$.$.$.$.$.$.$.$.$.$.$.$.$.$.$.$.$.$.$.$.$.$.$.+.$.$.$.$.$.$.$.$.$.$.$.$.$.$.$.$.$.$. ., , , , , , , , , , , , , , < - c z z z z z z z z z z z f z z L z z f z f z f L z L f z z z L z L z L z z z L z L z L n $.$.$.$.$.$.X.$.$.$.$.$.$.$.+.$.$.$.$.$.$.$.$.$.$.$.$.X.$.$.$.$.$.$.$.$.$.$.$.$.$.$.$.$.( , , , , , , , , , , , , , , , # # # # # # # # # # # # # # % z L z L z z L f z f L z L f z L z z z L f z z z z L f z L ) $.$.$.$.$.$.$.$.$.$.$.$.$.$.$.",
"# # # # # # # # # # O # # # # # # # O # # # # # @ @ @ @ @ @ # # # # # # O # # # # # # # # z - L z z z z z z z z L z z f L f L z f L z L z z f L z L f o   . . . . . . . . . X   X X + , , , , , , , , , , , , , < - L f L z z f L z z f L f L z z f L f L z z f z z z z z z z z L z z f L L z z L z z z z n $.$.$.$.$.$.$.$.$.$.$.$.$.$.$.O.$.$.$.$.$.$.$.$.$.$.$.$.$.} $ # # # # # # # # # # # # # # # # # # # # # # # # # # # # # f L z L z z L z z z z f L z z L z z f L z L z L z z z f L f z z z L L f L f - L z z L z n $.$.$.$.+.$.$.+.$.$.$.$.$.$.$.$.$.$.$.$.+.$.$.$.$.$.$.$.$.$.$.$.$.$.$.$.$.$. .$.$.$.O.$.O., , , , , , , , , , , , , $ < L - L f L L f L f L f L f L z z f L f L z L z z z z f L z L z f z f z f z L z f z f z f R | $.$.$.$.$.$.$.$.$.$.$.$.$.+.$.$.$.$.$.$.$.$.$.$.$.$.$.$.$.$.$.$.$.$.$.$.$.$.$.$.$.$.$.( , , , , , , , , , , , , , , $ # # # # # O # # # # # # # # $ c f z f z z f L z z z z f L z f z f L z z z L L z z L z - ) $.$.$.$.$.$.$.$.$.$.$.$.$.$.$.",
"# # # # # # # # # # # # # # # # # # # # # # # # # # # O # # # # # # O # # # # # # # # # # z z z z z z z z z z z f z z L f L f z z z L z L f z z n n q o . . . . . . . . . . . .   X + , , , , , , , , , , , , , , q n n z L f L f L f z z L f L f L f z z L f L z z z z z z z z f z z L f L f z L f z f z L | $.$.$.$.$.$.$.$.$.$.$.$.$.$.$.$.$.$.$.$.$.$.$. .$.$.$.$.} O + # # # # # # # # # # # # # # # # # # # # # # # # # # # # z n f z z z z z z L f z z z L z L - L z z L z L f L f z z L z z z z z z z z L z f z z z L X.+.+.+.$.$.$.$.$.$.$.$.$.$.$.$.$.$.$.X.$.$.$.$.$.$.$.$.$.$.$.$.$.$.$.$.$.$.$.$.$.$.$.$.} < , , , , , , , , , , , , , , < c z L z z z z z z z z z f z z L f L f z f z z z z L f z f L f L f L f L f L f L z z z z $.$.$.$.$.$.$.$.$.$.$.$.$.$.+.$.$.$.$.$.$.$.$.$.$.$.$.$.$.$.$.$.$.$.$.$.$.$.$.$.$.$.$.$.( , , , , , , , , , , , , , , , O + + $ # # # # # # # # # # $ f f L f L z L f z z z z L L f z L z z L f L z L z z L L L ) $.$.$.$.$.$.$.$.$.$.$.$.$.$.$.",
"+ # # # # # # # O # # # # O # # # # # # # # # # # # O $ # # # # # # # # # # # # # # # # # z L z L f L f L f L f L z z f z z L z f L f z z z f L n n y o . . . . . . . . . . . . X   + , , , , , , , , , , , , , , < n n z f z z z z L z z f z z z z L z z f z z L f L f L f L f L z z f z z L z z L z L z L | $.$.$.$.$.$.$.$.$.$.$.$.$.$.$.$.$.$.$.$.$.$.$.$.$.$.$.$.$.$ + # # # # # O # # # # # # # # # O # # # # # # # # # # # $ z z L z L f L f z f L z L f L z z z z L L - z f z z L z z f L f L f L f L f z L L z L f R o.+.#.$.$.$.+.$.$.$.$.$.$.$.$.$.$.$.$.$.$.$.$.$.$.$.$.$.$.$.$.$.$.$.$.$.$.$.$.$.$.+.$.$.{ , , , , , , , , , , , , , , , N L L - L L f L f L f L f L z z f z z L z L z L f z f L z z z z z z z z z z z z z L L z Q $.$.$.$.$.$.$.$.$.O.$.$.$.$.+.$.$.$.$.$.$.$.$.$.$.$.$.+.$.$.$.$.$.$.$.$.$.$.$.$.$.$.$.$.( , , , , , , , , , , , , , , , O O O O # # # # # # # # # O $ L z z z z z f L z L f z f f L n z f L z z f z f z L - L - R #.$.$.$.$.$.$.$.$.$.$.$.$.$.$.",
"# # # # # # # + # # # # # # # # # # # # # # # # # # O # # # # # # # # # # # # # # # # # # u Q z f z z L f z z L f L f L z z f z z z z f L z L z n z q o . . . . . . . . . . . . X X $ , , , , , , , , , , , , , , z W z z L z z z z f z z L z z z z f z z L z z f z z L f z z L f L f L z z f z L - z z z L | $.$.$.$.$.$.$.$.$.$.$.$.$.$.$.$.$.$.$.$.$.$.$.$.$.$.$.$.{ # # # # # # # # @ # # # # # # # # # # # # # # # # # # # # # z L f z f L f L z L f z f L - L - L L - z L z L z z f L f L f z z L f z z L z L z z z z R $.O.+.+.O.$.$.$.$.$.$.$.$.$.$.$.$.$.$.$.$.$.$.$.$.$.$.$.$.$.$.$.$.$.$.$.$.$.$.+.$.$.$.$.} , , , , , , , , , , , , , , , N L - L - f z z L f z z L f L f L z z f z f z f L z z z z z L f z z L f z z L f z z z z L | $.$.$.$.$.$.$.$.$.$.$.$.$.$.$.$.$.$.$.$.$.$.$.$.$.$.$.$.$.$.$.$.$.$.$.$.$.$.$.$.$.$.#.( , , , , , , , , , , , , , , + O O $ O # # # # # O # # # # $ L z L f z z z z z f L z L f z L z z f z f z z L f z z L - ) $.$.$.$.$.$.$.$.$.$.$.$.$.$.$.",
"# # # # # # # # # # # # # # # # # O # # # # # # # # # # # # # # # # # # # # # # # # # # # z z z L z z f L z z f z z z z L f L z f L z L f z f z L z q X . . . . . . . . . . . .     # , , , , , , , , , , , , , , z z z z f L f L f L z z f L f L f L z z f L f L z z f L z z f z z z z L f L z z z L L z L | $.$.$.$.$.$.$.$.$.$.$.$.$.$.$.$.$.$.$.$.$.$.$.$.$.$.$.$.} # # # + # # # # # # # # # # # # # # # # # # # # # # # # # # f z L z z z z z z f L z z z L L L z z L z z z f L f z z z z L z z f L z z f L - L f z z R $.O.O.#.O.$.$.$.$.$.$.$.$.$.$.$.$.$.$.$.+.$.$.$.$.$.$.$.$.$.$.$.$.$.$.$.+.$.$.$.$.$.$.$.{ , , , , , , , , , , , , , , , N z L z L L z z f L z z f z z z z L f L z L z z z L f L f z f L z z f L z z f L z z L z W #.$.$.$.$.$.$.$.$.$.$.$.$.$.$.$.$.$.$.$.$.$.$.$.$.$.X.$.$.$.$.$.$.$.$.$.O.$.$.$.+.$.$.$.( , , , , , , , , , , , , , , , # $ + O # # # # # # # # # # $ z z f L z L f L f z z z f L z f z z L z L f L z L - L z L ) $.$.$.$.$.$.$.$.$.$.$.$.$.$.$.",
"# + # # # + # # # # # # # # # # # # # # # # # # # # # # # # # # # # # # # # # # # # # # # - L L f L f z z L f L z z z z f L f z z z L z z f z f z z z o . . . . . . . . . . . .   X O , , , , , , , , , , , , , , z L z z z z L f z z L f z z L f z z L f z z L f L f z z L f L z z z z f L f z L z z z n n $.$.$.$.$.$.$.$.$.$.$.$.$.$.$.$.$.$.$.$.$.$.$.$.$.$.$.$.$.} # # # # # # # # # # # # # # # # # # # # # # # # # # # O # $ f z z z f z z L f z z L f z L f z f L z L f z L f L z z z z f L f z z L f L z z z L z z L $.O.O.O.O.+.O.#.O.$.+.$.$.$.$.$.$.$.$.$.$.$.$.$.X.$.$.$.$.$.$.$.$.$.$.$.$.$.$.$.$.$.$.$. .< , , , , , , , , , , , , , , n n n z z f L f z z L f L z z z z f L f z f z z z f L f L z z z L f z z z z z z L L z z z $.$.$.$.$.$.$.$.$.$.$.$.$.$.+.$.$.$.$.$.$.$.$.$.$.$.$.$.$.$.$.$.$.$.$.+.$.$.$.$.$.$.$.$.{ , , , , , , , , , , , , , , , # # # # # # O # # # # # # + % f f z z z f L f L z z z L L f z f L z L z z f z z L f z - ) $.$.$.$.$.$.$.$.$.$.$.$.$.$.$.",
"# # # # # # # # # # # O # # # # # # # # # # # # # # # # # # # # # # # # # # # # # # # # # z - z z z L z z L z z L f L f z z L z f L f z z L z L z L z o . . . . . . . . . . . . X   $ , , , , , , , , , , , , , , u L z z L L - L z z f L z z f L z z f L z z f z z L z z f z z L f L f z z L z z z L z n y  .$.$.$.$.$.$.$.$.$.$.$.$.$.$.$.$.$.$.$.$.$.$.$.$.$.$.$.$.$.# # # # # # # # # # # # O # # # # # # # # # # # # # # # # # f z z L L z z f L z z f L z z L z L f z z z z f z z L f L f z z L z z f z z L L z z z L R $.#.+.+.#.#.O.O.O.$.$.$.$.$.$.$.$.$.$.$.$.$.$.$.$.$.$.$.$.$.$.$.$.$.$.$.$.$.$.$.$.$.$.$.{ , , , , , , , , , , , , , , , q W n L z z z L z z f z z L f L f z z L z L z L f z z z z L f z f L z L f L f z f z z L Q $.$.$.$.$.$.$.$.$.$.$.$.$.$.+.$.$.$.$.$.$.$.$.$.$.$.$.$.$.$.$.$.$.$.$.$.$.$.$.$.$.$.$.$.( , , , , , , , , , , , , , , , # # # # # # # # # # # # # # $ f L z L f z z z z L f z f f L z L f z f z z L f L z z z L ) $.$.$.$.$.$.$.$.$.$.$.$.$.$.$.",
"# # # # # # # # # # # # # # # # # # # # # # O O # # # # # # # # # # # # # # # # # # # # # z L z L z f z z z L z f z z L z z f z z z z f L f z z z z z o . . . . . . . . . . . . X X $ , , , , , , , , , , , , , , z n z z z L L f L f L f L f L f L f L f L f L z z f z z L z z f z z L z z f z z z z Q n R $.$.$.$.$.$.$.$.$.$.$.$.$.$.$.$.$.$.$.$.$.$.$.$.$.$.$.$.#.| # # # # # # # # # # # @ # # # # # # # # O # # # # # # # # # L L z z z z z z z z z z z z L - z z z f L f z L z z f z z L z z f z z L z z f z L z z z R $.O.+.#.+.O.O.O.O.$.O.$.$.$.$.$.$.$.$.$.$.$.$.$.$.$.$.$.$.$.$.$.$.$.$.$.$.$.$.$.$.$.$.$. ., , , , , , , , , , , , , , , N z L z z z z f z z L z z f z z L z z f z f z f L z L f z f L z L f z f L f L z L z L n n $.$.$.$.$.$.$.$.$.$.$.$.$.$.+.$.$.$.$.$.$.$.$.$.$.$.$.$.$.$.$.$.$.$.$.$.$.O.O.O.$.$.$.+.( , , , , , , , , , , , , , , $ $ O # # # # # # # # # # # # $ n f z f L z L f z f L z L c z L z z z L f L z z z L f L z ) #.$.$.$.$.$.$.$.$.$.$.$.$.$.$.",
"# # # # # # # # # # # # # # # # # # # # # # $ O # # # # # # # # # # # # # # # O # # # # # z L z L z L L L z L z L L z L L f L z f L z L z z L z z z z o . . . . . . . . . . . .     # , , , < $ , , , , , , , , , 4 L z L z z z z z z z z z z z z z z z z z z z L f L z z f L f L z z f L f L z z z z n n n $.$.$.$.$.$.$.$.$.%.$.$.$.$.$.$.$.$.$.$.$.$.$.$.$.$.$.$.#.| # # @ O # O O O O @ O O O # O # # # # # # # # # # # # # # $ z z L f L f L f L f L f L f L z f L z L z z z f L f L z z f f f L z z f L f L z z z z z R $.O.#.O.+.O.#.#.O.#.$.#.$.$.$.$.#.$.$.#.$.$.$.$.$.$.$.%.$.$.$.$.$.$.$.$.$.$.$.$.%.$.$.$.$., , , , , , , , , , , , , , , N L z z L L f L z z f L f L z z f L f L z L z z z z f L z z z z f L z z z z z z f z z n n $.#.$.$.$.$.$.$.#.$.$.#.$.$.#.$.$.$.$.$.$.#.$.$.$.$.$.$.$.$.#.$.$.$.#.$.$.#.#.O.$.$.#.#.{ , , , , , , , , , , + , $ , , O # # # # # # # # # # # # # $ n L z z z z f L z z z z f L z f z f L z z f z f L z z f z ) $.$.#.$.$.$.$.$.$.$.$.#.$.$.$.",
"# # # # # # # @ # # # # O $ $ O # # # # # # # # # # # # # # # # # # # # # # # # # # # # # % : & : & & & - * & * * & * & c c L L L L - L L - - L L L - o . . . X   X . X   X   X . . @ % % $ < < < < < < < < % % < - L L z L z L - L - L - L L z z L L L L L L L L - L L - L z L L z L L - L L L - L - Q L z ] | | | | $.} } | $.| | | } } | | $.|  . . .| | $.| $.| | } 1 < < % % % < % < % < < % % 4 # # # # # # # # # # # # # # # - L L L L L L L L L L L L L L z L - Q L L - L L L L - L L z z L - L L L - L - L L L L L L | | | | | $.} | $.| $.| $.| } | | $.} | $.| $.| $.| $.} $.} | | |  . .| | $.| | | | } | } < < % % < < < < , < < % < % & z z L L L L - L z L L L - z L - L z L L - L - L L L L - z L - L - L - L L L z L L L - L L X.| | X.| | | | $.} | $.| $.} | | | $.| $.| | $. . .| } } } | |  . .| } } $.| | $.| $.| _ W W N W W W W W W N N < ( W , + + + + # # # # # # O # # # $ z L z L L L L L - L L - L L z z L z L L L - L L - L L - - ` X.| | | | $.} | | $.| $.} } | ",
"# # # # # O # + # # # # O O O O # # # # # # O # # # # # # # # # # # # # # # # # # # # # O X . . X . . . . . . . . . . . 4 c f f z f L z L L L z L - z o   . . . .   . . . . .   . . % Q z n z z f z f z f f f z z L - z z L z f L L L z L z z f z L - z - z z z z L z f L z L - f L z z L L z L L L L - L z L L R n f R y R y y L c n R n z y R n R n y c L n n n n n Q r.v.a.a.v.r.r.v.j.a.r.r.a.v.r.# # # # # # O # # # # # # # $ * z - L - z - z z z z z z z L z L z - L z L z z z z z L L z z L z L z z L L z L - L - L L z c L R n n n c L n n n y R z y R y y c L n n n y f R y y n y L L y R n R y z L L y R z z f f f z f f f z f f f L f z z L z L - z z L z f - L L L L z z L L - z z L L - L z z L L z L z z L L - L f L - L z L - L L L L z c L R n n n c L n n z z f L n n n n z L y R y R y n R c y R y R y y R L n n n z $.g.a.a.a.a.a.g.f.f.f.v.f.f.g.<.$ + O $ # # # # # # # # # # $ z L z z z L - L z L z z L c L L f z z L - L z L L z f L z L L c L R n n n c L n n n n R f ",
"# # # # # # $ + # # # # # # # # # # # # # # # # # # # # # # # # # # # # # # # # # # # # O X   . . . . . . . . . . . . . f z z z z L z z z - L z z L z o . . . . . . . . . . . . . . : L z z L L f f z z f f L f z z - L L - z L L z L z L z z L L - - L L z f z L L - L - L z z z z z f - L z - L - z L f z f L n z z z z z n n z L z z f z z z z z n n z z z f n L z Q j.v.v.v.v.v.v.v.v.v.v.v.v.n.j.# # # # # # # # # # # # # # # L z L z f z L z f z z L f z - z z L z L L z L f L z L z L f f L z L L f L z z L z z z L z z f z f L z L z z L z z z f z f L n L z z L z z z L f L z n L z z n n z z z L f z n z L z 4 z f z f f L f f z z z z z L - L - L f L L - L L z z z f z f L L L - L - L L z L f L z L L - L - L L z z z z f L L - z L z z z f z f L z L z z z c z L L f L z n z L L n n L f z z z L n n L f z z f z z z n z $.n.v.v.g.n.n.n.g.n.v.v.g.n.B.<.# # O $ # # # # # # # # # # $ z f z f L z z z L z z L - c z L z L z L L L z z z z L z z z - L z L z z z f z f L z z L L ",
"# # # # # # O # # # # # # # # # # # # # # # # # # # # # # # @ # O # # # # # # # # # # # # X . . . . . . . . . . . . . . 4 z f L z f L f z L z L z z z o . . . . . . . . . . . . . . & L z z z z z z z z z n z z z L L L z L z f L z z L - L z f z L L z z L L z z z L z L z z L f L z L L z z L z L z z L z z z z z z L L L z z z f L f R f z z L L z z f L z L z z z ` a.v.v.v.p.v.v.v.v.v.v.v.v.v.j.$ O # # # # # # # # # # # # $ - z L z L z z L L z z f L z L L L - L - L z z z f z - L z z z z L - z z f z L - L z z z z L L z z z z z z L z z L z L z z z n z z L f z L z z z f z n z z L z z f L z z L z L z z z z z L z z z z z z z f L L z z L z L z z z z L z z L - L L z z z z z L z L z z L z z f z z z L z L z z L f L z L z z L L L z L z L z z z z z z L z L z f z z f z n z z z z z z z f L z f z z z z f L L z L z n q  .n.v.v.n.g.n.g.n.g.p.v.g.n.g.<.# # O O # # O # # # # # # O % z L z z z z L L - L L z L L z z z - L z z z L - L z f L f z L z L z z L z L z z z L z z z ",
"# O # # # # # # # # O $ # # # # # O # # # # # # # # # # # $ @ # # # # # O O # # # # # # # . . . . . . . . . . . . . . . 4 z z z z L f L z z z z L - z o . . . . . . . . . . . . . . : L z L z z z z L f L f z f z L L f z L f L - L z z z L f L L L - L f z z z z f z f z z L - z z L z z f z f L z L z z L f z L z L z z f z z z L f L L z L z z z z z L f z z z z n R j.n.v.v.p.v.v.v.v.v.v.v.v.v.r.# # # # # # # # # # # # # # $ L z f z z z z L z L f z z z L z z L z z z L L f z f L z L z z z L f z z L f z z z z L L - L f z z z f L f L z L f z z L f z L z L z z f z z L f z f L z L z z z L z f z z z z z z L f z z z z z z L z z L z f L f L L f z f z z z z z L z L f z z z f L f L z L z L z z L f L z L z z z L - z z L z z z c L f z f z z L f z z f z f L f z z L f z f L z L z z z L z z L f L z z L z f z z z z f z f $.n.v.j.g.n.g.n.v.v.r.v.g.n.g.<.# # # # # # # # # # # @ # # $ z z z f z f L f L - L z z f z n L f L f L z L z L - L z L f L f L z z z L f z z z f L f L ",
"# # # # # # # # # # O O # # # # # # # # # # @ # # # # # # # @ @ # # # # $ O # # # # # # # X . . . . . . . . . . . . . . 4 z z z z f z z L f L f z L z o . . . . . . . . . . . . . . & - L - L L z z z z z z z L L - L z z f z z L z - L z f z z z z L z L z L f z L z L L z z L f L f z z L z L L z z L L - L z f z f z z L f L z f z z c z f z z L f L z z f L L L z ) a.n.g.v.v.v.v.r.v.p.v.v.v.v.r.# # # # # # # # # # # O # # # - L L z L f L - z f L z L f - z L - z L L - z z z L f z f z f L z z f L z z L f L f z z L z L z L f z z z z z f L z z f L z f z f z z L f L z z z L f z f z L z L z L z L f z L z z L z L f z z z f f L f z z z z f z z z L L f L f L - z z L z L f z z z z z z L - - L z z f z f L L z z L f L f z z f L z L z L z z f L z z L z L f L f L z z z L f z f z L z L z z f z z L z L z L z L f z L z f | v.v.v.n.g.n.g.v.p.v.v.n.g.n.<.# # $ O @ # # # # # # # # # $ z z L L z z z z z L z - L L z n z z z z z L - z L L z z f z z z z L f z f L z L f z z z z ",
"# # # # # # # # # # # # # # # # # # # # # # # # # # # @ # # # # # # # # # # # # # # # # # X . . . . . . . . . . . . . . 4 f z L z L z z f z z L L L - o . . . . . . . . . . . . . . & z f z L z z f L f L f L z L L c z z L z z - L L z z L z z z z f z f z f L L f z z z f L f z z z f L f z z - L z - z z z z z z L f L z z z z L z z L f L f z z L z L z L z f z z R a.v.v.v.v.v.v.p.r.v.v.r.v.v.r.$ # # # # # # # # # # # # # # z L f z f L f L z L f z f L L L z L L - z L L f L z z z L f z f z f z f z f f z z L z z f z f z f L z L f z z z z z z z z z z z L f L z z z L f L z z z L f L z z z f z f L L z L z f z f L f L z L z z z f z f z L L f L z f z z L z z L - f z f L z L f z L z L L L f z f z z L - z L L z z z z f L f f z c z z z z z z z L f z z z f z z L f L z z z L f z z f z z L z z z z f z f z f L L z z f $.v.v.a.g.v.g.v.v.v.v.v.g.n.V.<.# # O O # # # # # # # # # # $ f z z z z z L f z - L L z L f f L z L f z z z L z f L f L z L f z f L z L f z f L z L f z ",
"# # # # # # # # # # # # # # # # # # # # # # # # # # # # # # # # $ O # # # # # # O # # # @ X . . . . . . . . . . . . . . 4 L z z z f L f L z z f z z - o   . . . . . . . . . . . . . $ L L z - L z L z z z z f z f - L z z f L f L z z L z f L f L f L z L z z z z z f L z L z z f L z L z z f L L z z L L f L f f L z z f z f L z f L f L z z z L z f z f z f z L z z Q a.v.v.a.r.v.v.v.v.v.v.v.v.m.p.# # O # # # # # # # # # # # # z - L z z z z z z f L z z z - L z L z L z z z z f z f L z z z L z L z L z L L z z f L f L z L z z z z f L z L f L f L f L f f L z z f z f L z z f z f L z z f z f L L z z z z z L z L z z z z z z f f L z L z L z c z z f z L z L - L L z L L z z z z f L z - L z z z L z L f L z z L - L z f L z L z z L z L f L f L f L f z z f L z L f L z z f z f L z z L f L z z f L f L f L z L z z z f z z f | v.v.v.v.v.g.v.v.v.r.v.n.g.g.<.# O O $ # # # # # # # # # # % f L f L f z f L z L z z L L z n z z f L z L z - L z z z z z f L z z z z f L z z z z f L z ",
"# # # O $ @ @ # # # # # # # # # # # O # # # # # # # # # # # # # O # # # # # # # # # # # # X . . . . . . . . . . . . . . 4 z z z z L f L f z z L z z 4 o   . . . . . . . . . . . . . % z - L z z L f z z L z L f z z L L f z z L z L f z z z z L f z z z z L f z L z L f L f z f z f z z z z L z L z L z L z L z z z L f z f z z L f z f L f L f z f z f z f z f f L f R v.v.v.v.v.v.v.v.v.p.v.p.v.v.r.$ # # # # # # # # # O # # # $ f z z L f z f z z z z L f z L - L z L f z f z f z z L f z f f L f L f L f L f z z L f L f z f z z z z L f z f L f L f L f L z f z z L f z f z f z z L f z f z z L f z f z z z L f L z z f z z L f z z z z L z z L f z z L f f L f z z L f L f L f z f z z z z z z z z z z z z z L f z f z z f z z z z L L f L z L z L z L z L z L f z L f f z f z z L f z f f z z L f L f z f z z z z L f z z z z f | v.v.v.v.v.v.v.v.r.v.p.g.v.n.*.# # # # # # # # # # # # # O $ L f L f L z L f z z z z L c z z z z L f z L z L z L z L z z z z L f z z z z z z L f z z z ",
"# # # # + + # O # # # # # # # O # # # # # # # # # # # # # # # # O # # # # # # # # # # # # X . . . . . . . . . . . . . . 4 z z z z f z z L z z f z z z o . . . . . . . . . . . . . . : L L z L z z z f L f z z z f L c z L z z f z f L z L f z f L z L f z f L z f z z z z z z L z L f L f L f z f z f z f z f z f L z z z L f L z z z L L z z z z L z L z L z L z z f ) a.v.v.a.v.a.v.a.v.g.v.v.g.v.r.$ # # # # # # # # # # # # # # f L z z L z L z L f z f L z L L z L z L z L z L f L z z z L z z z z z z z z L z z f z z L z L z L f z f L z z z z z z z z z z L f L z z z L z L f L z z z L f L z z z L f L z L z z z L L z z f L z L f z f f L f L f L z z z z L z L - z z z z L z L z L f L f L f L f L f f L z z z L f L L z L f z f c L c z f z f z f z f z z z z c z L z L f L z z z L L z z f z z L z L z L f z f L z f L z f #.n.v.a.p.v.p.v.v.v.v.v.n.g.n.<.# # # # # # # # # # # # # O $ z z z z z z f L z L f z f L z L f z f L z f z f z f z f z L f z f L z L f L f z f L z L f ",
"# # # # # # # # # # # # # # # # # # # # # # # # # O # # # # # # # # # # @ # # # # # # # @ . . . . . . . . . . . . . . . - z L z z L z z f L f L z L f o   X . . . . . . . . . . . . $ Q L z L z L z L z z f L f z z c L f L f L z z z z f L z L L z z z z z z z z f L f L f L z L z z z z z z L z z L f z z L f z f z f L z z z L f L z f z z f L f z z L f z z f L z R a.v.v.v.v.v.v.v.v.v.g.v.v.v.9.# # # # # # # # + # # # # # # L z z z f z f z f L z z z z L L z L L - z z L z z z L f L z z L f z z L L z f L f L z z f z f z L z z z z z z L f z z L f z L z z z L f L z L z z z L f L z z f z f L z z z z z L z z z z z z z z z f L z L L z z c z f z f z z f z z L L - z z f z f z L z f z z L f z z L z f z f L z z z f z L z z z L z L f L f z z L f z f L f z L f L L z z z L f L z f L f L z z f z f z f L z z z z z f z f | v.v.v.v.v.v.p.v.v.v.v.g.n.n.*.# # # # # @ # # # # # # # # $ L z L L z z z z z f L z L L f L z z z z z z z L f z z L f f L z L f z f L f L z L f z f L ",
"# # # # # # # # # # # O # # # # # # # # # # # # # # @ # # # # # # # # # # # # # # # # @ @ . . . . . . . . . . . . . . . : z L z z f L f z z z z z z 4 o   . . . . . . . . . . . . . : - z L - z f z f z z L z z z f L z z z z z L f L f z z z f z z L L L f L f z L z z z z f z f z f L f L z z f L z z f L z z z L z L f z f L z z f z L f z L z z f L z z f L z z f ) a.v.g.g.p.v.v.r.g.v.v.v.v.v.r.# # # # # # # # # # # # # # $ L z L f L z L z z z L f L f - z L - z z L L f z f L z z f z z f L z z f z z z z z z L f L z L z z z L f L f z f L z z f L z f z f L z z f z f z f L z z f z z L z L f z f L L z z z L f L f L f L f z z z f - L z L z L z L L f L z z L z L L f L z L z z z L z z f L z z L z L z L f z f L L z z z L f c z L z z z f L z z z L z z f L z z f z f L z z f z z z z z L f L z L z z z L f L f z L z f $.v.v.a.p.v.v.v.v.p.v.r.n.g.V.<.# # # # # # # # # # # @ # # $ z z f z z L f L f z z z f L z z z L f L f f L z z f L z z z z z f L z z z z z z f L z z z ",
"# # # # # # # # # # # # # # # O # # # # # # # # @ @ @ # $ @ @ @ # # # # # # # # # # @ @ @ X . . . . . . . . . . . . . . f z z z z L f L z z z L L L f o . . . . . . . . . . . . . . $ L - L z L z f z f L z L f n z L z L z L c L z L L z z z L z z z z z z z n L f L z z L z L z z z L z z L z z f z z z z L L z z z z z f z z z z L L L f z f L z L f z z L z z L z Q a.n.v.v.v.v.g.v.v.g.m.g.v.v.a.$ # # # # # # # # # # # # # # f f f L f z f f z z f L z z L L z z L z z z z z z z L z z L z z z L z z L L z L L z f L f z z z L L L z z z z z z L z z z z z z L f z z L f z z L f z z L f L z L z z f z z z L f L f L f L f L f L z z z L L f z c z L - L f z L - L z z z f z z L z z z L f L f z L z z z L z z z z f z z z z L L L z L z c z z z c L c f L f z z L L L z z z L f z z L f z z z z f L f z f z z z f L f L z z z f | n.v.v.v.g.v.v.v.v.v.v.g.v.V.*.# # # # # # # # # # # # # # % f z z L L z L L z z z z L L z z L z L z z z f z z c L f f z L z L z z z z z L z z z L z z ",
"# # # # # # # # # # # # # # # # # # # # # # # # + + # # O @ @ O # # # # # # # # @ # @ @ @ . . . . . . . . . . . . . . . 4 z L z z f z z L L z z z z f o   . . . . . . . . . . . . . : L z L L - z L z L f z z z f f L f f z f c f z f L L f z f z z L z L z z y z z z z z z z L f L z z z L z z z L f L L z z z L L z z z L f L L z z z f L z L f z z z f L f z z f n ~ g.n.v.v.r.v.v.m.v.v.g.m.v.n.r.# @ # # # + + # # # # # # # + f f z z L z f f L f z z z f L z L z L z L z f L L z L z z z L f z f z z z z z z z z z z L z L z z z z z L z L f z f z z L f f L z z f L z z f L z z f L z z f z f z z L f L z f z z z z z z z z z z L f z f z L z L z z L z L z z z z L L z L z z L z L z L z z L z z z L z z z L z z L f L z z z z f z f z L f f L c n z L z z z z z z z z f L z z f L z z L f L f z z L z L z L f z z z z z z z f $.n.v.v.v.m.v.g.j.j.v.v.v.g.V.*.# # # # # # # # # # # # # # $ z z z z z z z z z L f z f L z n z z z z z z L f L c c z L z f z z z L z z z f z z z f z z ",
"# # O # # # # # # # # # # # # # # # # # # # # # + + @ + @ @ + O $ O # # # # # @ # # # @ @ X . . . . . . . . . . . .   . - z z z z L z z f z L z z z 4 o . . . . . . . . . . . . . . $ L L z L L L f z z z f L f L f c f f f c - - c c * * c - L n z z z z z f f L z z L L z z z z z L z z L z z z z z z z z z z z z z z z z z z z z z z f z z z z f L f z z z f z z z R v.n.n.V.m.V.V.V.v.V.V.V.v.V.a.# # # # # O + # + + # + + # $ c f - c - c c f f f f f f f - z L z - z L z z z L z z z L z z z z L z z L z L z z z L z f z z z z z z L n z z z z L f z z z z f z f z f z f z f z f z f z f z z L f L z z z z L z z z z f z z L f z f L z L L - z f L - z z f z z L z L - L f z z z z L z z L z f z z z L z z L z z z L z z z z z z z z z z z z z z n n n n L f z z L z f z z f z f z f z f f z z L z z f z f z f L z L f z z L z f $.V.v.v.V.V.V.V.v.v.V.m.V.V.V.,.# # # # O @ @ @ @ @ @ @ @ O # L z z L z L z z z z z z L n z z z L z n z z z z z n n n n z z z z z z z z z z z z z z z z ",
"# # # # # # # # # # # # # # # # # # # # # # # O $ @ @ + + $ O O O O O O O O O O O O O O @ o o O o O o o o O o o o o O o f z f L z f L f L z z z L z z o   . . . . . . . . . . . . . : L - L z z z z f L z L z z n R ' ' ' ' ' ' ' ' ` ` | ' ' ` R n R R R R R R L L L L L L R L L L L R L L L R R R L L z Q R R R R R n R R R R n R R R R z f L z L z z f L z L L f L R =.1.,.,.,.,.,.,.=.,.,.,.=.4.=.% # $ # # $ $ $ # $ $ $ # # % ' R | ' ' ' ` ' ' ' ' ' ` ` ' Q L L L Q L L L L L L L L L R R L L L R R L L L L R L L L Q L z Q Q n R R n R R n R R R R L z z L z L z L z L z L z L z L z L f L z z f z f L z f L z f L L z z f L z z z z f z z L Q L ! Q Q L Q L Q L Q Q L L Q R L L L L L L L L L Q n R z R L R R L L L L R n R R R R R R R R R R n R R ~ R R n R L R R z z L z L z L z L L z z f L L L z L z z z z f L z z f f f } 4.,.=.,.,.,.,.,.,.=.4.,.,.,.%.< u < < < < < < < < < u < 4 4 ` R R L L L L R R L L L L R R Q n R R R n R R R R n R R ~ R R R R R R R R R R R R R R R R ",
"# # # # # # # # # # # # # # # # # # # # # # # # # # # # $ O o . . . . . . . . . . . . . . : L z c c c L - - L - - L L - L z L - L f z f z z L f z f - O . . . . . . . . . . . . . . $ L L z L z L z L f z z L z R a.v.v.g.v.v.g.r.v.v.v.v.p.v.r.$.$.$.$.$.$.$.$.O.O.$.$.$.$.$.$.O.O.O.O.O.$.....$.$.$.$.$.$.$.$.$...$...$...$.$.$.$.$.$.$.y L z z z L f z z L z z L z f # + + # + + + + + + + O O # # n z L - L f z z L f L f z z Q v.v.v.g.v.v.p.v.v.v.v.v.v.v.r.$.$.$.$.O.O...O.....$...$.$.$.$.| $.$.$.$.$.$...$...$...$.#...$.$.$.$.$.$...$...$...$.$...f n f L f L f L f L f L f L f L f L z f z z L f z f z z L z z f z z L f z f z z L f z f L 4.r.r.p.6.r.6.r.6.r.r.6.r.r.7.$.$.O.$.$.$.$.| $.$.$.$.$.$.| $.$...$.....O.$.$.$.$.O.O.....$...$...O.O.$.O.$.$.$.$.X.#.o.W L z L z L z L z f L f z z L L L - L z L f L f z z L f L & O O O + + + + + + + + + + O N v.v.v.p.r.v.v.v.v.p.v.v.v.v.6.$.$.$.$.$.$.$.$.$.$.$.$...$.$.$.$.$.$.$.$...$...$...O.$.O.$.O.....$...$...$.$.$.$.$.$.$.$.",
"# # # # # # # # # # # O # # # # # # # # # # O O # # # # @ O o X . . . . . . . . . . . . . : L L c c L c L c L L L L - L L z z L z z z L f L z z z L f .   . . . . . . . . . . . . . : L f z f z f z z z f L f z R v.n.v.v.v.v.v.v.v.v.v.v.v.v.v.$.$.$.#.$.$.$.$.#.$.$.$.$.$.$.$.$.O.#.$.#.$.$.$.#.| $.$.$.$.$.$.$.$.$.$.#...$.$.$.$.$.#.$.n z z L z z z f L f z z z z z # # # # # # # # # # # # # # # z z L L z L z z f z z L z - ` j.m.v.v.v.v.v.v.v.v.v.v.v.v.r.$.$.$.$.O.#.$.#.#.$.$.$.$.$.| X.#.$.$.$.$.$.$.$.$.$.$.#...$.$.$.$.$.$.$.$.$.$.$.$.O.#.$.} f y z z z z z z z z z z z z z z z z z L f L z z z L f L z z z L f L z z z L f L z z z L Q r.V.v.m.v.m.v.m.v.m.v.v.v.n.f.#.$.$.$.$.$.$.#.$.$.$.$.$.$.$.$.$.$.$.#...#.#.$.$.$.$.$.#...$.$.O.#.$.$.#...$.$.$.$.$.o.| z f z f z f z f z z z L z z f z z L z z f z z L z z f z z : @ # # # # # # # # # # $ + O q v.v.v.v.v.v.v.v.v.v.v.v.v.V.4.+.$.$.$.$.$.$.$.$.$.$.$.$.$.| $.$.$.$.$.$.$.$.#.$.$.$.#.O.#...#.#.$.$.$.$.$.$.$.$.$.$.$.$.",
"$ O # # # # # # # # # # # # # # # # # # # # # $ # # # # @ O X . . . . . . . . . . . . . . - L z z z - L z L z z - L - L z f L f L f L z z f z f z z f X . . . . . . . . . . . . . . & L z z L f z f L f z z z f R g.n.v.v.a.v.v.v.v.v.v.v.r.v.j.$.$.$.$.$.$.$.$.O.O.$.$.$.$.$.$.$.$.$.$...$.$.$.$.$.$.$.$.$.$.$.$.$.$.$.$.$.$.$.$.$.$.$.$.n z L z f L f z z z f L f L z # # # # # # # # # # # # # # # n L z z L f L f L z z f z - ` r.v.v.v.v.v.v.p.r.v.v.p.r.v.r.$.$.$.$.$.$.$...O.$.$.$.$.O.$.$.$.$.$.$.$.$.$.$.$.$.$.O.#.$.$.$. .$.$.$.$.$.$.$.$.O.$.$.| f L z L f z z L f z z L f z z L f z L z z z L f L z z f z z L z z z L f L z z f z f L z Q r.v.r.v.p.v.v.v.v.v.v.a.v.n.r.$.$.$.$.$.$.$.$.$.$.$.$.$.$.$.$.$.$.$.$.O.#.$.$.$.$.$.$.$.$.$.$.$.$.$.$.$.$.$.$.$.$.$.#.} n z z L f z z L f z z f z z L z z f L f L z z f z z L z z : @ @ # # # # # # # # # O O O N r.v.v.v.v.v.v.p.v.v.v.v.g.x.,.$.$.$.$.$.$.$.$.$.$.$.$.$.$.#.$.$.$.$.$.$.$.$...$.$.$.$.$.O.O.$.$.$.$.$.$.$.$.$.$.$.$.$.$.",
"+ # # # # # # O # # # # # # # # # # # O # # # O # # # # @ O X . . . . . . . . . . . . . . - L z L f L z z f L f L L L z z L z z z z f z z L z L L z u o . . . . . . . . . . . . . . $ L f L z z z L z z f L z L ~ a.n.g.v.v.v.g.v.p.v.v.v.v.v.r.$.$.$.$.$.$.$.$.$.$.$.$.$.$.$.$.$.$.$.$.$.$.$.$.$.$.$.$.$.$.$.$.$.$.$.$.$.$.$.$.$.$.$.#.$.n z z z L z z f L z L z z L R # # # # # # # # # # # # # # # n - L z z z z z z L f L z z ` r.v.v.p.v.p.v.v.v.v.v.v.v.v.r.#.$.$.$.$.$.$.$.$.$.$.$.$.$.$.$.$.$.$.$.$.$.$.$.$.$.$.O...$.$.$.$.$.$.$.$.$.$.$.$.$.$.$.| z z z f L z z f L z z f L z z f L z f z f L z z f z z L z L f z f L z z f z z L z L - z Q p.v.v.v.v.j.v.j.v.v.j.v.v.j.j.$.$.$.$.$.$.$.$.$.$.$.$.$.$.$.$.$.$.$.O.O.O.$.$.$.$.$.$.$.$.$.$.$.$.$.$.$.$.$.$.$.$.$.$.X.n f L z z f L z z L f L z z f L f z z z z L f L z L - L L : @ @ # # # # # # # # # O $ O 4 v.v.v.v.v.v.v.v.v.r.r.v.v.V.9.$.$.$.$.$.$.$.$.$.$.$.$.$.$.$.$.$.$.$.$.$.$.$.$.$.$.$.$.$.$.O.$.$.$.$.$.$.$.$.$.$.$.| $.$.",
"+ @ # # # # # # # # # # # # # # # # # O # # # # # # # # # O X . . . . . . . . . . . . . . : L z f z z L f z z L z f z f L z L f L f z f L z L z z z f o . . . . . . . . . . . . . . & z L f z f L f z z L f z z Q r.v.r.v.v.v.v.v.p.v.r.g.v.v.p.#.$.$.$.$.$.$.$.$.$.O.$.$.$.$.$.$.$.$.$.$.$.$.$.$.$.$.$.$.$.$.$.$...$.$.$.$.$.$.$.$.$.$.X.z z L L f z z L f z z L z L - # # # # # # # # # # # # # # # W z z - L z z z z f L f z - ` j.v.v.v.r.v.v.r.v.p.v.v.v.v.r.$.$.$.$.$.$.$.$.$.$.$.$.$.$.$.$.$.$.$.$.$.$.$.$.$.$.$.O.O.$.$.$.$.$.$.$. .$.$.$.$.$.O.$...n c z z z L f z z z z z z L f z z z z z L f z z L f L - z L z f z z L f z f L z L z L z Q r.m.v.v.v.v.v.v.v.a.v.v.v.n.a.$.$.$.$.$.$.$.$.$.$.$.$.$.$.$.$.$.$.$.$.$.$.$.$.$.$.$.$.#.$.$.$.$.$.$.$.$.$.$.$.$.$.$.$.$.n z f z z L f z f f z z L f z z L z z z z f L f z z z L z : # # # # # # + # # # + O # O W v.p.v.r.p.v.r.v.v.v.v.v.g.V.9.+.$.$.$.$.$.$.$.$.$.$.$.$.$.$.$.$.$.$.$.$.$.$.$.$.$.$.$.$.$.$.$.$.$.$.$.$.$.$.$.$.$.$.$.$.",
"@ # # # # # # # # # # # # # O # # # O $ # # # # # # # # O $ X . . . . . . . . . . . . . o : L z L z z f L z z f z L z L f z z z z z z L f z f z z L z o   . . . . . . . . . . . . . : L z L z L z z f L z z f L Q g.v.v.r.v.v.p.v.v.v.v.v.v.v.j.$.$.$.$.$.$.$.$.$.$.$.$.$...$.$.$.$.$.$.$.$.$.$.$.$.$.$.$.$.$.$.$.$.$.$.$.$.$.$.$.$.$.$.X.L L - z z f L z z f L f z L f # # # # # # # + # # # # # # # z z z L z L f L f z z L z z ` p.v.p.v.v.v.v.v.v.v.r.v.v.v.r.$.$.$.$.$.$.$.$.$.$.$.$.$.$.$.$.$.$.$.$.$.$.$.$.$.$.$.#...$.$.$.$.$.$.$.$.$.$.$.$.O.#...O.y f L f z f L z L f L f z f L z L f f L z z f L z z z L z z z L f L z z z L f z f z z L Q p.v.v.p.v.v.p.v.p.v.v.v.a.j.j.$.$.$.$.$.$.$.$.$.$.$.$.$.$.$.$.$.$.$.$.$.$.$.$.$.$.$.$.| $.$.$.$.$.$.$.$.$.$.$.$.$.$.$.} n z L f L z z z L L z z f L z z f L f L f z z L z L z - L % # # # # # # # # # # # # # O q v.v.v.v.v.v.v.v.v.r.p.v.g.m.,.+.$.$.$.$.$.$.$.$.$.$.$.$.$.#.$.$.$.$.$.$.$...$.$.$.$.$.$.$.$...$.$.$.$.$.$.$.$.$.$.$.$.$.",
"# # # # # # # # # # # # + # $ + # # # # # # O O # # O O O + X . . . . . . . . . . . . . . : L f f L f L f L f L L f z z z f L f L f L z z z L f z z - o . . . . . . . . . . . . . . $ L L - z L L z L z L z L z Q a.v.v.v.v.v.v.r.v.p.v.v.r.g.r.$.$.$.$.$.$.$.$.$.$.$.$.$.$.$.$.$.$.$.$.$.O.$.$.$.$.$.$.$.$.$.$.$.$.$.$.$.$.$.$.$.$.$.$.X.L z L L z L z L z L z f L c - # # # # # # # # # O # # # # # z L L z z f z z L z z f z z Q r.v.v.v.p.v.v.v.v.v.v.v.p.v.r.$.$.$.$.$.$.$.$.$.$.$.$.$.$.$.$.$.$.$.$.$.$.$.$.$.$.$.$.$.$.$.$.$.$.$.$.$.$.$.$.$.$.....O.n c f L z L f z f L f L z L f z f L z f z f z f z f L z L z L z z z L f L z z z L f z L R r.v.v.v.v.p.v.v.v.v.g.n.j.n.j.$.$.$.$.$.$.$.$.$.$.$.$.$.$.$.$.$...$.$.$.$.$.$.$.$.$.$.$.X.$.$.$...$.$.$.$.$.| $.$.$.$.| z L z z z L f L z f L f L f L f L f z z L z z f z L z z z : @ # # # # # # # # # # + O O N r.v.p.v.v.r.v.p.v.v.v.v.v.v.,.+.$.$.$.$.$.$.$.$.$.$.$.$.$.$.$.$.$.$.$.$.$.$.$.$.$.$.$.$.$.$.#.O.$.$.$.$.$.$.$.$.$.X.$.$.",
"O # # # # # # # # O # # @ # @ + # # # # # # $ O # # $ O $ + X . . . . . . . . . . . . . o : z L z z z z z z z z z z f L z L z z z z f z f L z z L z f o   . . . . . . . . . . . . . : L z z L - f z f z f z f z R g.v.v.p.v.v.r.v.v.v.v.v.v.v.v.$.$.$.$.$.$.$.$.$.$.$.$.$.$.$.$.$.$.$.$.$.$.$.$.$.$.$.$.$.$.$.$.$.$.$.$.$.$.$.$.$.$.$.$.X.R z L f z f z f z f z z z L f # # # # # # # # # # # # # # $ z z z z L L z z f L f L z z ` p.v.r.v.v.v.v.p.v.r.v.v.v.v.j.$.$.$.$.$.$.$.O.$.$.$.$.$.$.$.$.$.$.$.$.$.$.$.$.$.$.$.$.$.$.$.$.$.$.$.$.$.$.$.$.$.$.$.$...c c z z z f L z z z z z z f L z z z z L z L z L z L L z z z f z f L z z f z f L z z L - Q r.v.j.p.v.v.v.v.p.n.a.v.n.j.r.%.$.$.$.$.$.$.$.$.$.$.$.$.$.$.$.$.$.$.$.$.$.$.$.$.$.$.$.$.$.$.$.$.$.$.$.$.$.$.$.$.$.$.#.$.z f z f L z z f z z z z z z z z z L z z f L f L z z z L z % # # @ # # # # # # # # + $ + q v.v.v.v.v.v.v.v.v.p.v.v.v.v.9.$.$.$.$.$.$.$.$.$.$.$.$.$.$.$.$.$.$.$.$.$.$.$.$.$.$.$.$.$.$.$.$.O.$.$.$.$.$.$.$.$.$.$.$.$.",
"# # O $ # # # # # # # # # # # # # # # # # # # # # # O $ $ + o . . . . . . . . . . . . . . & z z z f z f z f z f L f z z L z L f L f z f z z L f z z z o . . . . . . . . . . . . . . : z z L z L z f z f z f z f ) a.v.v.v.v.g.v.v.v.j.a.v.v.g.r.$.$.$.$.$.$.$.$.$.$.$.$.$.$.$.$.$.$.$.$.$.$.$.$.$.$.$.$.$.$.$.$.$.$.$.$.$.#...$.$.$.$.$.$.n z z z f z f z f z f z L z f # # # # # O # # # # # # # # # z f L f L f z z L f L f z - ` j.v.v.v.v.v.v.a.v.a.g.v.v.n.r.$.$.$.$.$.$.$.$.$.$.O.$.$.$.$...$.$.$.$.$.$.$.$.$.$.$.$.$.$.$.$.$. .$.$.$.$.$.$.$.$.$.$.| z f z L f z z z z L f z z z z L f z z f z f L - z L - L - L z z L - L - L f z z L f z z Q r.v.v.a.v.v.v.v.r.v.v.p.v.n.a.#.$.$.$.$.$.$.$.$.$.$.$.$.$.$.$.$.$.$.$.$.$.$.X.$.$.$.$.X.$.$.$.$.$.$.$.$.$.$.$.$.$.$.$.$.y L f z f z z L f L z L z z L z z f z z L f L f z f z z z : O # # # # # # # # # # $ O $ q n.g.n.g.v.v.g.g.v.v.v.r.g.n.,.$.$.$.$.$.$.$.$.$.$.$.$.$.$.$.$.$.$.$.$.$.$.$.$.$.$.$.$.$.$.$.$.$.$.$.$.$.$.$.$.$.$.$.$.$.",
"# # O O # # # # # # # # # # # # # # # # # # # # # # O O O O . . . . . . . . . . . . . . . : L L z L z L z L z L z z f L f z z z z z z L f L z z L z - o   . . . . . . . . . . . . . : L L - z L z L z L z L z L Q a.v.g.g.v.r.v.j.v.v.v.a.v.v.v.$.$.$.$.$.$.$.$.$.$.$.$.$.$.O.$.$.$.$.$.$.$.$.$.$.$.$.$.$.$.$.$.$.$.$.$.$...$.$.$.$.$.$.$.( L z z L z L z L z L z f L f # # # O # # # # # # # # # # # z z z z z L z z f z z L z z ` p.v.v.j.r.v.v.v.v.v.v.n.a.j.r.$.$.$.$.$.$.$.$.$.$.$.$.$.$.$.$.$.$.$.$.$.$.$.O.$.$.$.$.$.$.$.$.$.$.$.$.$.$.$.$.$.$.$.$.| z L z f L z L f z f L z L f z f L z z L z L z L z z L z L z L z z L z z z L f L z z z z Q p.v.v.v.v.v.p.v.v.v.v.v.v.j.a.$.$.$.$.$.$.$.$.$.$.$.$.$.$.$.$.$.$.$.$.$.$.$.$.$.$.$.$.#.$.$.$.$.$.$.$.$.$.$.$.$.$.$.#.} n z z z L f L z z f z f z L - L L L z z f z z L z L z L f : # # # # # # # # # # # $ O O q g.n.g.n.g.n.v.v.v.g.v.v.n.n.7. .$.$.$.$.$.$.$.$.$.$.$.$.$.$.$.$.$.$.$.$.$.$.$.$.$.$.$.$.$.$.$.$.$.$.$.$.$.$.$.$.$.$.$.$.",
"# # # # # # # # # # # # # # # # # # # # # # # # # # $ O O + . . . . . . . . . . . . . . . : L z L f z z L f z z L z L z z f L f L f L z z f z f z z z o . . . . . . . . . . . . . . & z z z L z L f z z L f z z R a.n.v.v.v.v.v.j.v.v.n.v.a.v.a.$.$.$.$.O.$.$.$.$.$.$.$.$.$.$.$.$.$.$.$.$.$.$.$.$.$.$.$.$.$.$.$.$.$.$.$.$.$.$.$.$.$.$.$.+.n n z L f z z L f z z z z L f # # # # # # # # # # # # # # # z z L L z f L f L z z f z z Q r.v.v.v.v.v.v.a.v.v.v.a.n.n.r.$.$.$.$.$.$.$.$.$.$.$.$.$.$.$.$.$.$.$.$.$.$.$.$.$.$.$.$.$.$.$.$.$.$.$.$.$.$.$.$.$.$.$.$.| z z z z z z f L z L f z L z z z z z L f z z L f - L z - L z z L L z z L z z z f z f L z Q r.v.r.a.v.v.v.v.p.v.p.r.v.n.r.$.$.$.$.$.$.$.$.$.$.$.$.$.$.$.$.$.$.$.$.$.$.$.$.$.$.$.$.$.$.$.$.$.$.$.$.$.$.$.$.$.$.$.$.| n L f z z z f z f z z L f z z z z f L f L z z f z f z f L : @ @ # # O # # # # O # O # O q v.v.v.g.n.g.n.g.v.v.g.p.g.n.7.$.$.$.$.$.$.$.$.$.$.$.$.$.$.$.$.$.$.$.$.$.$.$.$.$.$.$.$.$.$.$.$.$.$...$.$.$.$.$.$.$.$.$.$.",
"# # # # # # # # # # # # # # # O O # # # # # # # # # O O $ + . . . . . . . . . . . . . . o - L z z z f L z z f L f z f z z L z z z z f z z L z L z L - o   . . . . . . . . . . . . . $ L L z - L z z f L z z z z ) a.v.v.v.p.v.v.v.n.j.j.v.v.v.r.$.$.$.$.$.$.$.$.$.$.$.$.$.$.$.$.$.$.$.$.$.$.$.$.$.$.$.$.$.$.$.$.$.$.$.$.$.$.O.$.$.$.$.#.} n W z z z f L z z L z L f c - # # # # # # # # # # # # # # # z z f z z z z z z L f L z z ` r.v.p.v.p.v.v.v.a.v.v.v.j.n.r.#.$.$.$.$.$.$.$.$.$.$.$.$.$.$.$.$.$.$.$.$.$.$.$.$.$.$.$.$.$.$.$.$.$.$.$.$.$.$.$.$.$.$.$.} L z L f L f z z z f L z z z L f L f z z f L z z L z z L z L L - L z L - L L z L z L L z Q r.v.v.v.v.v.r.v.v.v.v.v.v.n.r.%.$.$.$.$.$.$.$.$.$.$.$.$.$.$.$.$.$.$.$.$.$.$.$.$.$.$.$.$.$.$.$.+.$.$.$.+.$.$.$.$.$.$.$.$.n z z L L z L z L f L z L - L z z z z z z L f L z L z z z : @ @ # # # # # # # O $ O # O W g.g.v.v.g.n.g.n.g.v.v.v.g.n.1.$.$.$.$.$.$.$.$.$.$.$.$.$.$.$.$.$.$.$.$.$.$.$...$.$.$.$.$.$.$.$.$.$.$.$.$.$.$.$.$.$.$.$.$.",
"# # # # O O # # # # # O # # # # # # # # $ O O O # O O $ # + o . . . . . . . . . . . . . . : L z L z L f z z L z z f z f L z L f L f z f L z L z z z - o . . . . . . . . . . . . . . % L z z z z L f z z z z z z Q p.v.v.r.v.v.v.c.c.c.j.c.n.n.j.$.$.$.$.$.$.$.$.$.O.$.$.$.$.$.$.$.$.$.$.$.$.$.$.$.$.$.$.$.$.$.$.$.$.$.$.$.$.$.$.$.$.$.$.$.n z z L z L f z z z z z L z z # # # # # # # # # # # # # # # L z L z z z z z z f z L z z ) g.v.v.g.g.n.v.v.v.v.n.j.n.n.r.$.$.$.$.$.$.$.$.$.$.$.$.$.$.$.$.$.$.$.$.$.$.$.$.$.$.$.$.$.$.$.$.$.$.$.$.$.$.$.$.$.$.$.$.{ y z z L z z z z z L z z L L z f z f L z L f L - L z z L - Q z L z z L z z z z L L z - L Q j.m.v.v.g.g.v.v.v.v.v.j.v.n.r.$.$.$.$.$.$.$.$.$.$.$.$.$.$.$.$.$.$.$.$.$.$.$.$.$.$.$.$.$.$.+.$.$.$.$.$.$.$.$.$.$.$.$.#.+.n z z z z z z z z z f z z n Q z z z L z z f z z z z z z L 4 # # # # # # # # # # O O O O N v.v.v.a.n.g.n.g.g.n.g.g.v.n.,.$.$.$.$.$.$.$.$.$.$.$.$.$.$.$.$.$.$.$.$.$.$.$.$.$.$.$.$.$.$.$.$.$.$.$.$.$.$.$.$.$.$.$.$.$.",
"# # # # $ O # # # # # O # # # # O O # # O # # O O $ O O # + o . .   . . . . X . . . . . . : L z f z z z f L f z z L z L f z z z z z z L f z f z L z z o . . . . . . . . . . . . . . $ L f f f f f f f f f f f f n g.V.m.v.v.v.j.n.n.c.n.n.j.n.j.#.$.$.$.$.$.$.$.$.$.$.$.$.$.$.$.$.$.$.$.$.$.$.$.$.$.$.$.$.$.$.$.$.$.$.$.$.$.$.$.$.$.$.$.$.n z n f z z z z n z L z z z z # # # # # # # # # # # # # # # z z z f f f f f z - f f f 4 Q p.v.v.v.v.g.r.v.v.p.n.n.j.n.r.$.$.$.$.$.$.$.$.$.$.$.$.$.$.$.$.$.$.$.$.$.$.$.$.$.$.$.$.$.$...$.$.$.$.$.$.$.$.$.$.$.$.$.} n z z z z z L f z f z n z z z L z L f z z z z z z L z z z z - f c - - - - L - z - - z - L r.V.v.v.v.v.v.v.v.j.v.j.v.n.r.$.$.$.$.$.$.$.$.$.$.$.$.$.$.$.$...$.$.$.$.$.$.$.$.$.$.$.$.$.$.$.$.$.$.$.$.$.$.$.$.$.$.$.} n z z L z L L z z z L f L n n z z - z - z f f f f z z - z % O # # # # # # # # # # $ $ O q v.g.v.v.g.g.g.n.n.g.n.g.g.n.9.$.$.$.$.$.$.$.$.$.$.$.| $.$.$.$.$.$.$.$.$.$.$.$.$.$.$.$.$.$.$.$.$.$.$.$.$.$.$.$.$.$.$.$.$.",
"$ $ $ $ $ O $ $ $ $ $ $ $ $ $ $ $ $ $ $ $ $ $ $ $ $ $ $ $ # O o o o o o O o o o o o . O O : L z z f L f z z z f L f z z z f L f L f L z z z L f z z f o . . . . . . . . . . . . .   f ' ` ` ' ) ' Q ' Q Q ' ' ' } r.r.r.r.r.r.r.r.r.r.r.7.r.r.7.$.$.$.$.$.$.$.$.$.$.$.$.$.$.$.$.$.$.$.$.$.$.$...$.$.$.$.$.$.$.$.$.$.$.$.$.$.$.$.$.$.$.#.X.z f f z 4 f f z f f f z f z 4 # # # # # # # # # # # # # # # ` Q Q Q ` Q Q Q Q Q Q Q Q ) ] u.g.r.r.a.a.a.a.r.r.r.r.r.j.7.$.$.$.$.$.$.$.$.$.$.$.$.$.$.$.$.$.$.$.$.$.$.$.$.$.$.$.$.$.$.$.$.$.$.$.$.$.$.$.$.$.$.$.$.} N y f f q n N 4 f f N q y f f z z z z f L f z L z z L - z L ` ` ` ` ` ' ` ` ` ` ` ` ` ] ] 4.p.r.r.r.r.r.r.r.r.r.r.r.r.7.$.$.$.$.$.$.$.$.$.$.$.$.$.$.$.$.$.$.$.$.$.$.$.$.$.$.$.$.$.$.$.$.$.$.$.$.+.$.$.$.$.$.$.$.} u q n N 4 z f z 4 u z f 4 u n ] ` ` ' ' ` ` ` ` ` ) ` { ) N # # # # # # # # # # # O O O N a.a.r.r.f.u.a.g.g.a.f.u.u.s.,.$.$.$.$.$.$.$.$.$.$.$.$.$.$.$.$.$.$.$.$.$.$.$.$.$.$.$.$.$.$.$.$.$.$.$.$.$.$.$.$.$.$.$.#.| ",
"* L L * L R * - L * R - * R - * * L c - L * L L * R - - y f f f f f f f f c c c L z f z z f c L z L z z f L z L z z f L z L z z z z f z f L z z L z f o . . . . . . . . . . . . .   &.v.v.v.a.v.v.v.v.v.g.v.v.v.r.#.$.$.$.$.X.$.$.$.$.$.$.$.$.$.$.$.$.$.$.$.$.$.$.$.$.$.$.$.$.$.$.$.$.$.$.$.$.$.$.$.$.$.$.$.$.$.$...$.$.$.$.$.$.$.$.$.$.} < , , < < , < , , , , % < < < # # # # # # # O # # # # # @ $ r.r.g.r.r.a.a.g.r.a.g.r.r.g.9.$.$.#.#.#.#.$.$.#.#.#.#.#.#.#.$.$...$.$.$.$.$.$.$.$.$.$.$.$.$.$.$.$.$.$.$.$.$.$.$.$.$.$.$.$.$.$.$.$.$.$.$.$.$.$.$.$.$.{ , , , , , , , , , , , , , $ < z f L z L z z L - L L z L z ' j.v.v.v.v.v.j.v.v.v.v.v.v.m.6.X.X.$.$.$.$.X.$.$.$.$.$.$.$.$.$.$.$.$.$.$.$.O.$.$.$.$.$.$.$.$.$.$.$.$.$.$.$.X.$.$.$.$.$.X.$.X.$.$.$.$.$.$.$.$.$.$.$.$.{ , , , , , , , , , , , , , $ ) m.j.v.v.p.v.v.j.v.v.v.g.v.V.,.O # # # # # # # # # O O $ O < $.#.$.#.#.#.$.$.#.$.#.#.$.#.#.$.$.$.$.$.$.$.$.$.$.$.$.$.$.$.$.$.$.$.$.$.$.$.$.$.$.$.$.$.$.$.$.$.$.$.$.$.$.$.$.$.$.$.X.X.",
"c L L f z f z z L f z f z z L f z f z z L f z f z z L f z f z L L f z f z z L f z f z z L f L z L f z z L z L f z z L z L f z z L z L f z z L z L f f o . . . . . . . . . . . . . . *.V.p.v.v.v.v.v.v.v.r.v.v.v.p.$.$.$.$.$.$.$.$.$.$.$.$.$.$.$.$.$.X.$.$.$.$.$.+.$.$.$.X.$.$.$.$.$.$.$.+.$.$.$.$.$.$.$.$.$.$.$.$.+.$.$.$.$.$.$.$.$.$.$. .< , , , , , , , , , , , , , , # # # # # # # # # # # # # O $ s.g.x.g.V.v.v.v.v.v.v.v.v.p.r.$.$.$.$.$.$.$.$.$.$.$.$.$.$.$.O.$.$.$.$.$.$.$.$.$.$.$.$.$.$.$.$.$.$.$.$.$.$.$. .$.$.$.$.$.$.$.$.$.$.$.$.$.$.$.$.$.$.$.} , , , , , , , , , , , , , , , N n n L f z f z z L f z f z ` r.m.v.g.v.v.v.r.v.v.p.v.v.v.9.$.$.$.$.$.$.$.$.$.X.$.$.$.$.$.$.$.$.$.$.$.$.$.$.$.X.$.$.$.$.$.$.$.$.$.$.$.$.$.$.$.$.$.$.$.$.$.$.$.$.$.$.$.$.$.$.$.$.#._ , , , , , , , , , , , , , , ( M.x.x.x.f.x.v.v.v.v.v.v.p.v.=.O # # # # # # # # # # # # O % $.$.$.$.$.$.$.$.$.$.$.$.$.$.$.$.$.$.$.$.$.$.$.$.$.$.$.$.$.$.$.$.$.$.$.$.$.} $.$.$.$.$.$.$.$.$.$.$.$.$.$.$.$.$.$.$.$.$.$.",
"L * z z z L f L z z z L f L z z z L f L z z z L f L z z z L z c z z z L f L z z z L f L z z f z z z f L f z z z f L f z z z f L f z z z f L f z z z z o   . . . . . . . . . . . . . *.V.v.v.v.r.p.v.v.p.v.v.p.v.v.$.$.$.X.$.$.$.$.$.$.$.$.X.$.$.$.$.$.$.$.$.$.$.$.$.$.$.$.$.$.$.$.$.$.X.$.$.$.$.$.$.$.$.$.$.$.$.$.$.$.$.$.$.$.$.$.$.$.$. .< , , , , , , , , , , , , , # # # # # # # # # # # # # # O , s.g.g.n.g.r.v.v.p.v.r.v.v.v.r.#.$.$.$.$.$.$.$.$.$.$.$.$.$.$.O.$.$.$.$.$.$.$.$.$.$.O.$.$.$.$.$.$.$.$.$.| $.$.$.$.$.$.$.$.$.$.$.$.$.$.$.$.$.$.$.$.$.$._ , , , , , , , , , , , , , , , q z z z z z L f L z z z L z ] v.v.v.v.v.p.v.v.v.v.v.v.g.v.9.$.$.$.$.$.$.$.$.$.$.$.$.$.$.$.$.$.X.$.$.$.+.$.$.$.$.$.$.$.$.$.X.$.$.$.$.$.$.$.$.$.$.$.$.$.| $.$.$.$.$.$.$.$.$.$.$.+.O._ , , , , , , , , , , , , , , ( M.f.f.x.l.x.a.v.r.v.v.p.v.v.,.O # # # # # # # # # # # # O % $.$.$.$.$.$.$.$.| $.$.$.$.$.$.$.$.$.$.$.$.$.$.$.$.$.$.$.$.$.$.$.$.$.| $.$.$.$.$.$.$.$.$.$.$.$.$.$.$.$.$.+.$.$.$.$.$.$.$.",
"L - L f L z z z L f L z z f z f L z z z L f L z z f z f z f z L L f L z z f z f L z z z L f L z L z L z z f L f z z z f L z L z z f L f z z z f L z - o . . . . . . . . . . . .   X *.V.v.v.g.v.v.r.v.v.v.r.v.v.r.$.$.$.$.$.$.$.$.$.$.$.$.$.$.$.$.$.$.$.$.$.$.$.$.$.$.$.$.$.$.$.$.$.$.$.#.} $.$.$.$.$.$.$.$.+.$.$.$.$.$.$.$.$.+.$.$.$.$. .< , , , , , , , , , , , , , , # # # # # # # # # # # # # # , s.g.n.g.n.v.v.v.v.v.p.v.r.v.r.$.$.$.$.$.$.+.$.$.$.$.X.$.$.$.O.$.$.$.$.$.$.$.$.$.$.$.$.$.$.$.$.$.$.$.$.$.$.$.$.$.$.$.$.$.$.$.$.$.$.$.$.$.$.$.$.$.$.$.{ , , , , , , , , , , , , , , < z z z L f L z z f z f z z L ` v.v.p.v.v.v.v.p.v.p.r.v.v.v.r.$.$.$.$.$.$.X.$.$.$.$.$.$.$.$.$.$.$.$.$.$.$.$.$.$.$.$.$.$.$.$.$.$.} $.$.$.$.$.$.$.$.$.$.$.$.$.$.$.$.$.$.$.$.$.$.$.+.#.( , , , , , , , , , , , , , , ( M.M.n.l.l.l.v.v.v.a.v.v.v.v.4.O # # + # # # # # # # + O O % $.$.$.$.$.$.$.$.$.$.$.$.$.$.$.$.$.$.$.$.$.$.$.$.$.$.$.$.$.$.$.$.$.$.$.$.$.$.$.$.$.$.$.$.$.$.$.$.$.$.$.$.$.$.$.$.$.$.$.$.",
"z L z L f z f L z z f z z L z L f z f L z z f z z L z L z L z c z z f z z L z L f z f L z z c z f z f z z L z z f L z L f z f z z L z z f L z L f z f o . . . . . . . . . . . . . X *.V.r.v.v.v.v.v.v.v.v.v.v.v.g.#.$.$.$.$.$.$.$.$.$.X.$.$.$.$.$.$.$.$.$.$.$.$.$.$.$.$.$.$.$.$.$.$.$.$.X.$.$.$.$.$.+.$.$.$.$.$.$.$.$.$.$.$.$.$.$.$.$.$. ., , , , , , , , , , , , , , , # # # # # # # # # # # # # O # s.v.g.V.g.p.v.v.r.v.v.v.v.v.g.$.$.$.$.$.$.$.X.$.$.$.$.$.$.$.O.$.$.$.$.$.$.$.$.$.$.$.$.$.$.$.$.$.$.$.$.$.$.$.$.$.$.$.$.$.$.$.$. .$.$.$.$.$.$.$.$.$.$.} , , , , , , , , , , , , , , < z z z z z f z z L z L L L z ' r.v.v.v.v.r.v.v.v.v.v.v.v.V.9.$.$.$.$.$.$.$.$.$.$.$.$.$.$.$.$.$.$.$.$.$.$.$.$.$.$.$.$.$.$.$.$.$.$.$.$.$.$.$.$.$.$.$.$.$.$.$.$.$.$.$.$.$.$.$.$.$.+.+._ , , , , , , , , , , , , , , ( M.M.l.l.l.l.a.v.v.v.v.r.v.v.<.O # # # # # # # + # # + O O % $.$.$.$.$.$.$.$.$.$.$.$.$.$.$.$.$.$.$.$.$.$.$.$.$.$.$.$.$.$.$.$.$.$.$.$.$.$.$.$.$.$.$.$.$.$.$.$.$.$.$.$.X.$.$.$.$.X.$.$.",
"L z L z z f z z L f z f L z L z z z L f z z L f z f z f L z L c L f z f L z L z z z L f z z L f z f z f L z L f z z L z z f z f L f z z L f z z z z z o   . . . . . . . . . . . . . *.V.V.g.v.g.v.v.v.v.v.v.v.v.p.$.$.$.$.$.$.$.$.$.$.$.$.X.$.$.$.$.$.$.$.$.$.X.$.$.$.$.$.$.$.$.$.$.X.$.$.$.$.$.$.$.$.$.$.$.$.$.$.$.$.$.$.$.$.$.$.$.$.#.+.< , , , , , , , , , , , , , , # # # # # # # # # # O # # O # g.v.v.g.v.v.v.p.v.p.v.p.v.v.r.$.$.$.$.$.$.$.$.X.$.$.$.$.$.$.O.$.$.$.$.$.$.$.$.$.$.$.$.$.$.$.$.$.$.$.$.$.$.$.$.$.$.$.$.$.$.$.$. .$.$.$.$.$.$.$.$.$.$.{ , , , , , , , , , , , , , , < n z z L f z f L z L z - L z ` j.m.p.v.v.v.v.v.v.v.v.v.v.v.9.$.$.$.$.$.$.$.$.$.$.$.$.$.$.$.$.$.$.$.$.$.$.$.$.$.$.$.$.$.$.$.$.X.$.$.$.$.$.$.$.$.$.$.$.$.$.$.$.$.$.$.$.$.$.$.$. .$.$.{ , , , , , , , , , , , , , , _ n.n.l.n.g.n.g.n.v.v.v.g.v.v.,.O # # # # # # # # + # # # O % $.$.$.$.$.$.$.$.$.$.$.$.$.$.$.$.$.$.$.$.$.$.$.$.$.$.$.$.$.$.$.$.$.$.$.$.$.$.+.$.$.$.$.$.$.$.$.$.$.$.$.$.$.$.$.$.$.$.$.$.",
"f z f z z L f L z z z L f z f z f L z z f L z z z L z L f z f L z z z L f z f z f L z z f L c L z L z L f z z z f L f z z L z L z z f L z z f L z z u o . . . . . . . . . . . . . . *.V.g.n.v.g.v.p.v.v.v.p.v.v.p.#.$.$.$.$.$.$.$.$.$.$.$.$.$.$.$.$.$.$.$.$.$.$.$.X.$.$.$.$.$.$.$.$.$.$.$.$.$.$.$.$.+.$.$.$.X.$.$.$.$.$.$.$.$.$.$.$.$.$. .< , , , , , , , , , , , , , , # # # # # # # # # # # # # O % p.g.v.g.v.v.v.v.v.v.v.v.v.v.r.#.$.$.$.$.$.$.$.$.$.$.$.X.#.$.O.$.$.$.$.$.$.$.$.$.$.$.$.$.$.$.$.$.$.$.$.$.$.$.$.$.$.$.$.$.$.$.$.$.$.$.$.$.+.$.$.$.$.$.{ , , , , , , , , , , , , , , < 4 z z z z z L f z f z L z L ' v.v.v.v.v.p.v.v.r.v.v.p.g.v.9.$.$.$.$.$.$.$.$.$.$.$.$.$.$.$.$.$.$.$.$.$.$.X.$.$.$.$.$.$.$.$.$.$.$.$.$.$.X.$.$.$.$.X.$.$.$.$.$.$.$.$.$.$.$.$.$.$.$.$._ , , , , , , , , , , , , , , ( B.g.n.f.n.g.n.g.a.v.v.v.v.v.,.O # # # # # # # # # # # # O % $.$.$.$.$.$.$.$.$.$.$.$.$.$.$.$.$.$.$.$.$.$.$.$.$.$.$.$.$.$.$.$.$.$.$.$.$.$.$.$.$.$.$.$.$.$.$.$.$.$.$.$.$.$.$.X.$.$.$.$.",
"z z L f L z z z L f L z z z L f z f z f z f z f L f z z f R z L L f L z z z L f z f z f z f L z L f z z z f L f z z z f L f z z L z L z L z L z L z z o   . . . . . . . . . . . . . *.V.v.v.v.v.r.v.v.r.v.v.r.v.j.$.X.$.$.$.$.$.$.$.$.$.$.$.$.$.X.$.$.$.$.$.$.$.$.$.$.$.$.$.$.$.$.$.+.$.$.$.$.$.$.$.$.$.$.$.$.$.$.$.$.$.$.$.$.$.$.$.$.$. .< , , , , , , , , , , , , , , # # # # # # # # # # # # # O $ v.v.g.v.v.v.r.v.v.v.v.p.v.v.p.X.$.$.$.$.$.$.$.$.$.$.$.$.$.$.O.$.$.$.$.$. .$.O.$.$.$.$.$.$.$.$.$.$.$.$.$.$.$.$.$.$.$.$.$.$.$.$.$.$.$.$.$.$.$.$.$.$.$.} , , , , , , , $ , , , , , , < z z L L f L z z z L f z - L ] j.v.v.j.r.v.v.r.v.v.v.v.v.v.9.$.$.$.$.$.$.$.$.$.X.$.$.$.$.$.$.$.$.$.} $.$.$.$.$.$.$.$.$.$.+.$.$.$.$.$.$.$.$.$.$.$.$.#.X.$.$.$.$.$.$.$.$.$.$.$.$.$.$.{ , , , , , , , , , , , , , , ( B.g.f.n.g.n.g.v.v.v.r.v.v.v.,.# # # + # # # # # # # # # O % $.$.$.$.$.$.$.$.$.$.$.$.$.$.$.$.$.$.$.$.| $.$.$.$.$.$.$.#.$.$.$.$.$.$.$.$.$.$.$.+.$.$.$.$.} $.$.$.$.$.$.$.$.$.$.$.$.$.$.",
"f L z z f z f L z z f z f L z z z L z L z L z L z z z z f z z f z z f z f L z z z L z L z L f z z z f L z L z z f L z L z z f L f z f z f z f z L z 4 o . . . . . . . . . . . . . . *.V.v.g.g.v.v.v.v.v.p.v.v.v.p.$.$.$.$.$.$.$.$.$.$.$.$.$.$.$.$.$.$.$.$.$.$.$.$.$.$.$.$.$.X.$.$.$.$.$.$.$.$.$.X.$.$.$.$.$.$.$.$.$.$.$.$.$.$.$.$.$.$.$. .< , , , , , , , , , , , , , , # # # # # # # # # # # # # O # r.v.v.v.g.v.v.p.v.v.r.v.v.v.r.$.$.$.$.$.$.$.$.$.$.$.$.$.$.$.$.$.$.$.$.$.$.$.$.$.$.$.$.$.$.$.$.$.$.$.$.$.$.$.$.$.$.$. .$.$.$.$.$.$.$.$.$.$.$.$.$.$.$._ , , , , , , , , , , , , , , < z z z z z f z f L z z z L z ` j.v.v.v.v.v.v.v.p.v.v.r.v.V.9.$.$.$.$.$.$.$.$.$.$.$.$.$.$.$.$.$.$.$.$.$.$.$.$.$.$.$.X.$.$.$.$.$.$.$.$.$.$.$.$.$.$.$.$.$.$.$.$.$.$.$.$.$.$.$.$.$.$.$.{ , , , , , , , , , , , , , , _ B.g.n.g.n.g.v.g.a.v.v.v.v.v.,.O # # # # # # # # # # # # + % $.$.$.$.$. .$.$.$.$.$.$.$.$.$.$.$.$.$.$.#.$.$.$.$.$.$.$.$.$.$.$.$.$.$.$.$.$.$.$.$.$.$.$.$.$.$.$.$.$.$.$.$.$.$.+.$.$.$.$.",
"z f z z L f z f z f z z L f z f z f z f z f z f L f z z L n z L L f z f z z L f L z L z L z L f L z L f z z L z L z L f L z L z L z L z z z z L z z u o . . . . . . . . . . . . X   *.V.v.j.j.v.v.v.v.r.j.v.v.v.p.#.X.$.$.$.X.$.$.$.$.$.$.$.$.$.$.$.$.$.$.X.#.} $.$.$.$.$.$.$.$.$.$.$.$.$.$.$.$.$.$.$.$.$.$.$.$.$.$.$.$.$.$.$.$.$.$.$.$. ., , , , , , , , , , , , , , , # # # # # # # # # # # # # # $ v.v.r.v.v.p.v.r.v.v.j.v.v.v.a.$.$.$.$.$.$.$.$.$.$.$.$.$.$.$.$.$.$.$.$.$.$.$.$.$.$.$.$.$.$.$.$.$.$.$.$.$.$.$.$.$.$.$.$.$.$.$.$.$.$.$.$.$.$.$.$.$.$.$.} , , , , , , , , , , , , , , , n z z L f z f z z L f z L z ' p.v.v.v.v.v.v.r.j.v.v.v.p.v.6.$.$.$.$.$.$.$.$.$.$.$.$.$.$.$.$.$.$.$.+.$.X.$.$.$.$.$.$.$.$.$.$.$.$.$.$.$.$.$.$.$.$.$.$.$.$.$.$.$.$.$.$.$.$.$.$.$.$.$.( , , , , , , , , , , , , , , ( x.g.p.v.p.v.v.v.v.j.v.v.v.v.=.O O # # # # # # # # # # # O < $.$.$.$.$.$.$.$.$.$.$.$.$.$.$.$.$.$.$.$.$.$.$.$.$.$.$.$.$.$.$.$.$.$.$.$.$.$.$.$.#.} $.$.$.$.$.$.$.$.$.$.$.$.$.$.$.$.$.$.",
"z L f L z z z L z L f L z z z L z L z L z L z L z z f L f n z L z z z L f L z z f z f z f z f L f z z z f L f z f z z z - L f z f z f z L L z z f L u o   . . . . . . . . . . .   X *.V.v.v.v.v.p.v.v.v.v.v.j.v.p.$.X.$.$.$.$.$.$.$.$.$.X.$.+.$.$.$.$.$.$.$.$.$.X.$.$.$.$.$.$.+.$.$.$.$.$.$.$.$.$.$.$.$.$.$.$.$.$.$.+.$.$.$.$.$.$.$.$.$. .< , , , , , , , , , , , , , , # # # # # # # # # # # # # O $ r.v.v.v.v.v.v.v.v.v.j.v.p.v.g.$.$.$.$.$.$.$.$.X.$.$.$.X.#.$.$.$.$.$.$.$.$.$.$.$.$.$.$.$.$.$.$. .$.$.$.$.$.$.$.$.$.$.$.$.$.$.$.$.$.$.$.$.$.$.$.$.$.$.{ , , , , , , , , , , , , , , < 4 z z z z z L f L z z z z z ' v.v.j.j.p.v.v.v.v.v.j.v.v.v.r.$.$.$.$.$.$.$.$.$.X.$.$.$.$.$.$.$.$.$.$.X.$.$.$.$.$.$.$.$.$.$.$.X.$.$.$.$.$.$.$.$.$.$.#.$.$.$.$.$.$.$.$.$.$.$.$.$.$.$._ , , , , , , , , , , , , , , ( B.x.v.v.v.v.j.j.v.v.p.v.r.v.4.O # # # # # # # # # # # O O , $.$.$.$.$.$.$.$.$.$.$.$.$.$.$.$.$.$.$.$.$.$.$.$.$.$.$.$.$.$.$.$.$.$.$.$.$.$.$.$.X.$.+.$.$.X.$.$.$.$.$.$.$.$.$.$.$.$.$.$.",
"L z z z L f L z L z z z L f L z L f z z L f z z L z L z f L z L z L z n z f z f z z L f z z c z z f L f z z z L z f L f z z - L z z L f z z L z z f f o . . . . . . . . . . . . . . *.V.j.v.v.j.r.v.v.v.v.j.v.v.p.#.$.$.$.$.$.$.$.$.$.$.$.$.$.$.$.$.$.$.$.$.$.$.$.$.$.$.$.$.$.$.$.$.$.$.$.$.$.$.$.$.$.$.$.$.$.$.$.$.$.$.$.$.$.$.$.$.$.$. .< , , , , , , , , , , , , , , # # # # # O # # # # O # # O $ g.v.p.v.j.v.r.v.p.v.v.j.v.v.r.$.$.$.$.$.$.$.$.$.$.$.$.$.$.$.$.$.$.$.$.$.$.$.$.$.$. .$.$.$.$.$.$.$.$.$.$.$.$.$.$.$.$.$.$.$.$.$.$.$.$.$.$.$.$.$.$.$.$.{ , , , , , , , , , , , , , , < z z z L f L z z f z f L - z ] p.v.v.v.r.v.v.v.v.j.v.j.v.m.r.X.$.$.$.$.$.$.$.$.$.$.$.$.$.$.$.$.$.$.$.$.$.$.$.$.$.$.$.+.$.$.$.$.$.$.$.$.$.$.$.$.$.$.$.$.$.$.$.$.$.$.$.$.$.$.$.O.$.#._ , , , , , , , , , , , , , , _ M.g.v.v.p.v.v.v.j.v.p.v.v.v.=.O # # # # # # + # # # # # O < $.$.$.$.$.$.$.$.$.$.$.$.$.$.$.$.$.$.$.$.$.$.$.$.$.$.$.$.$.$.$.$.$.$.$.$.$.$.$.$.$.$.$.$.$.$.$.$.$.$.$.$.$.$.$.$.+.$.$.$.",
"f z f L z z f z f z f L z z f z z z f L z z f L f z f z z z z c z z z y z L z L f L z z f L L z z L z z f L z z z L z z L z L z f L z L - L z z z L f o . . . . . . . . . . . . . . *.m.p.v.v.j.v.v.v.p.v.j.v.v.p.$.$.$.$.$.$.$.$.$.$.$.$.$.$.$.$.$.$.$.$.$.$.$.$.$.$.$.$.$.$.$.$.$.X.$.$.$.$.$.$.$.$.$.$.$.$.$.$.$.$.$.$.$.$.$.$.$.$.$. .< , , , , , , , , , , , , , $ # O # # # # # # # # # # # O $ g.v.j.v.v.v.v.v.v.j.v.v.v.v.r.$.$.$.$.$.$.$.$.$.$.$.$.$.$.$.$.$.$.$.$.$.$.$.$.$.$.$.$.$.$.$.$.$.$.$.$. .$.$.$.$.$.$.$.$.$.$.$.$.$.$.$.$.$.$.$.$.$.$.{ , , , , , , , , , , , , , , < z z L z z f z z L z L z L z ` v.v.j.v.v.v.v.p.v.j.v.v.g.m.r.X.$.$.$.$.+.$.$.$.$.$.$.$.$.$.$.$.$.$.$.$.$.$.$.$.$.$.$.$.$.$.$.+.$.$.$.$.$.$.$.$.$.$.$.$.$.$.$.$.$.$.$.$.$.$.$.$.$.$._ , , , , , , , , , , , , , , ( M.x.v.p.v.v.v.p.v.v.v.v.v.v.4.O # + # # # # # # # # # O O < $.$.$.$.$.$.$.$.$. .$.$.$.$.$.$.$.$.$.$.$.$.+.$.$.$.$.$.#.$.$.$.X.$.$.$.$.$.X.$.$.$.$.$.$.$.$.$.$.$.X.$.$.$.$.X.$.$.$.$.",
"z z L f z z L f z z L f z z L f L z L f z z L z L z L z z f f f f f f f f f f f f f f f f f c f L f L z z L L z L f L z z L L z z z L f L z z L z z z o   . . . . . . . . . . . . . *.V.v.v.v.v.v.v.v.v.v.v.m.m.v.$.$.$.$.$.$.$.$.$.$.$.$.$.$.$.$.+.$.$.$.$.$.$.$.$.$.$.$.$.$.$.$.$.$.$.X.$.$.$.$.$.$.$.$.$.$.$.$.$.$.$.$.$.$.$.$.$.$.$. .< , , , , , , , , , , $ , , , # # # # # # # # # # # + # # # v.v.v.v.v.v.v.v.v.v.v.v.v.v.g.$.$.$.$.$.$.$.$.$.$.$.$.$.$.$.$.$.$.$.$.$.$.$.$.$.$.$.$.$.$.$.$.$.$.$.$.$.$.$. .$.$.$.$.$.$.$.$.$.$.$.$.$.$.$.$.$.$.#.{ , , , , , , , , , , , , , < < f f y L f z f L z z L L z L ` v.v.v.v.v.v.v.v.v.v.m.v.m.m.r.$.$.$.$.$.$.X.$.$.$.$.$.$.$.$.$.$.$.$.$.$.$.$.$.$.$.$.$.$.$.$.$.$.$.$.X.$.$.$.$.$.$.$.$.$.$.$.$.$.$.$.$.$.$.$.$.$.$.#._ , , , , < , , , , $ , , , $ ) m.j.v.v.j.v.v.v.j.j.v.v.v.v.=.@ O + # # O O # # O + # # O < $.$.#.$.$.$.$.$.$.$.$.$.$.#.$.$.$.$.$.$.$.$.$.$.$.$.$.$.X.$.$.$.$.$.$.$.$.$.$.$.$.$.$.$.$.$.$.$.$.$.+.$.$.X.$.$.$.$.$.$.",
"f L z z f L z z f L z z f L z z f z z z f L f z z L - z L L ' ] ' ' ' ' ' ' ' ' ' ' { ' ..c - : : : : - : : : - : : : - : : : - : - : : : : - : : : 4 o . . . . . . . . . . . . . . $.9.4.1.1.4.4.4.4.4.1.4.1.4.4.X.$.$.$.$.$.$.$.X.$.$.$.$.$.$.$.$.$.$.$.$.$.$.$.$.$.+.$.$.$.$.$.$.$.$.$.$.$.$.$.$.$.$.$.$.{ { { } { { _ } _ }  . ._  ._ < < < < < < , , , , , < % < < $ $ $ # $ $ $ $ $ # $ $ % # % 4.4.4.4.4.4.4.4.4.4.1.4.6.4.=.$.$.$.$.$.$.$.$.$.$.$.$.$.X.$.$.$.$.$.$.$.$.$.$.$.$.$.$.$.$.$.$.$.$.$.$.$.$.$.$.$.$.$.$.$.{ _ } { { { } { { { { _ } _ _ < < , < < < < < < < < < < < < f z n z z z L - z L - f z z ` 1.4.4.1.4.4.4.4.1.4.1.4.4.4.=.X.$.$.$.$.$.$.$.$.$.$.$.$.$.$.$.$.$.$.$.$.$.$.$.$.$.$.$.$.$.$.$.$.$.$.$.$.$.X.$.$.$.$.$.} _ { _ } { } { { { { {  .{ { F < < < < < , , , , < 4 < < , { j.p.r.r.p.r.r.r.p.p.r.6.r.p.=.# % # $ $ $ $ $ $ $ $ $ $ # % _ _ { _  ._  ._ _ _ _  .{ _ { $.$.$.$.$.+.$.$.$.$.$.$.$.$.$.$.$.$.$.$.$.$.$.$.$.$.X.$.$.$.$.$.$.$.$.$.$.$.$.$.$.$.X.$.$.",
"z f z f z f z f z f z f z f z f z f L f L z z L z L z L z W 7.n.v.v.g.v.n.a.v.v.j.v.v.v.j.$ # # # # # # # # # # # # # # # # # # # # # # # # # # # # O X . . . . . . . . . . . . . . 4 n z L L - z z z - z L z z z $.$.$.$.$.$.$.$.$.$.$.$.$.$.$.$.$.$.$.$.$.$.$.$.$.$.$.$.$.$.$.$.$.X.#.$.$.$.$.$.$.$.$.$.+.< , , , , , , , , , , , , , , f L z z z Q u n n N N z L z z L L f z f L L c f z f L z z L z f z z f - z z z - L z - z n $.$.$.$.$.$.$.$.$.$.$.$.$.#.$. .$.$.$.$.$.$.$.$.$. .$.$.$.$.$.$.$.$.$.$.$.$.$.$.$.$.$.$.} , , , , , , , , , , , , , , < n n z z f f L f z z f f L f z z z z L f L z L z z L L - z L L f L z z z z - z L z z z z z X.$.$.$.$.$.$.$.$.$.$.+.$.$.$.$.$.$.$.$.$.$.$.$.$.$.$.$.$.$.$.$.$.$.$.$.$.$.$.$.$.$.$.$.{ , , , , , , , , , , , , , , < z z z z z z z W u z z L z W z L z L L z L L L z L L L L L R z L L z f z f R z z z L z n 4 # # O $ O + # # # O $ O # # < $.$.$.$.$.$.$.$.$.$.$.$.$.$.#.X.$.$.$.$.$.$.$.$.$.$.$.$.$.$.$.$.$.$.$.$.$.$.$.$.$.$.$.$.$.",
"z L z L z L z L z L z L z L z L z L z z - L z z L - z L z n 9.v.a.v.v.v.g.n.a.v.v.v.j.v.j.1 + # # # # # # # # # # # # # # # # # @ # # # # # # # # # O X . . . . . . . . . . . . . . % W z L z L z z z L L - L z z $.$.$.$.$.$.$.$.$.$.$.$.X.$.$.$.$.$.$.$.$.$.+.$.$.$.$.+.$.$.$.+.$.$.} $.$.$.$.} $.$.$.$.} < , , , , , , , , , , , , , % z L z z z n n n n n n z f L L z z L z z z f L L z z z z z f z f z z L z z L z L z z L z Q X.$.$.$.$.$.$.$.$.$.$.$.$.| $.$.$.$.$.$.$.$.$.$.$.$.$.$.$.$.$.$.$.$.$.$.$.$.$.$.$.$.$.$.{ , , , , , , , , , , , , , , < n n z z n y z z z z z f z z L L z z z z f z f L z L z L z z z z f z z z z L L - L z z z R X.$.$.$.$.$.$.$.$.$.X.$.$.$.$.$.$.$.X.$.$.$.$.X.$.$.+.$.$.$.$.X.$.$.$.$.$.$.$.$.$.$.$.$.{ , , , , , , , , , , , , , < < z z z z z z u Q u L z z z z z L z z z z z z L z f z z z z z z z z z L z L f z L f z z z 4 # # O O O $ # # # O $ O # # < $.$.$.$. .$.$.$.$.$. .$.$.$.$.$.$.$.$.$.$.$.$.$.$.$.$.$.$.$.$.$.+.$.$.$.$.$.$.$.$.$.$.$.$.",
"L z L z L z L z L z L z L z L z L z L f z z L z L f z z L z r.v.v.v.p.v.r.v.p.v.v.v.v.v.j.$ + + O # # # # # # # # # # # # # O # @ # # # # # # # # # O o . . . . . . . . . . . . . . : Q - L z z z f z f z f z f n $.$.$.$.$.$.$.$.$.$.+.$.$.$.$.$.$.$.X.$.$.$.$.$.$.$.X.$.$.$.$.$.$.$.X.$.$.$.$.$.$.$.$.$.O., , , , , , , , , , , , , , , y n n f z z z z L f z z L f z z z L z f z z z z L f z f L f L f L f L f L f L f L f L z L X.$.$.$.$.X.$.$.$.$.$.$.$.$.$.O.$.$.$.$.$.$.$.$.$.$.$.$.$.$.$.$.$.$.$.$.$.$.$.$.$.$.$.$.{ , , , , , , , , , , , , , , < z L z L z z f z z z z L f z z z z L L f z f z z L f z f z z L - L f L z L z L z L z z W n  .#.$.$.$.$.$.$.$.$.$.$.$.$.$.$.$.$.$.$.$.$.$.$.$.$.$.$.$.$.$.$.$.$.$.$.$.$.$.+.$.$.$.+._ , , , , , , , , , , , , , , < N N n z z L L z z z L f L f z z L f L f z z L f L z z z z z z z z z z z z z z z z z L z - O # # # # # O # # # # # # # < $.$.$.$.$.$.$.$.$.$.$.$.$.$.$.$.$.$.$.$.$.$.$.$.$.$.$.$.$.X.$.$.$.$.$.$.$.$.$.$.$.$.$.$.$.",
"f z f z f z f z f z f z f z f z f z z z f L f z z z f L f L 6.v.v.v.v.v.v.v.v.v.v.r.p.v.j.< + + $ # # # # # # # # # # # # # # # # # # # # # # # # # O o . . . . . . . . . . . . . . : - - L L z z L z L z L z L W $.$.$.$.$.$.$.$.$.$.$.X.$.$.$.$.$.$.$.$.$.$.$.$.$.$.$.$.$.$.$.$.$.$.$.$.$.$.$.$.$.$.$.$.O.< , , , , , , , , , , , , , , y n n L z L f z f L z z f L z L z L z L z L f z f L z z z z z z z z z z z z z z z z z L Q X.$.$.$.$.$.$.$.$.$.$.$.$.X.$.O.$.$.$.$.$.$.| $.$.$.$.$.$.$.$.$.$.$.$.$.$.$.$.$.$.$.$.$.{ , , , , , , , , , , , , , , 1 z z z z z L L z L f z f L z L f z f z z z L f L z z z L z L z z z L f z f z f z f z z n n +.$.$.$.$.$.$.$.} +.$.$.$.$.$.$.X.$.$.$.$.$.$.$.$.$.$.$.$.$.$.$.$.$.$.$.$.$.$.$.$.$.+.$.{ , , , $ , , , , , , , , , , < N n n z z z z z L z f z z L z z f z z L z z f z z L f L f L f L f L f L f L f L f z z f - O # # # # # # # # # # # # # < $.$.$.$.$.$.$.$.$.$.$.$.$.$.$.$.$.$.$.$.$.$.$.$.$.$.X.$.$.#.} $.$.$.$.$.$.$.$.$.$.$.$.$.$.",
"z z L f z z L f z z L f z z L f z f L f z z z f L z L z z Q r.v.v.r.v.v.v.v.v.v.v.v.v.v.j.$ # # O O # # # # # # # # # # # # # # # # # # # # # # # # O o . . . . . . . . . . . . . . & L L z z L L f z z L f z z z $.$.$.$.+.$.$.$.$.$.$.$.$.$.$.$.$.$.$.$.$.$.$.$.$.$.$.$.$.$.$.$.$.$.$.$.$.$.$.$.$.O.$.$.O.< , , , , , , , , , , , , , , z n n f z f L z z z z z z z z z z f z f z f L z z z z z L f z z L f z z L f z z L f z z Q X.$.$.$.$.$.$.$.$.$.$.$.$.$.$.$.$.$.$.$.$.$.$.$.$.$.$.$.$.$.$.$.$.$.$.$.$.$.$.$.$.$.$.$.} , , , , , , , , , , , , , , < L z f L z L f z f L z z z z f L z L L f L z z f z f z L z L z L z z z z L f z z L f z z F +.$.$.$.$.$.$.$.#.$.$.$.$.$.$.$.$.$.$.$.$.$.$.$.$.$.$.$.$.$.$.$.$.$.$.$.$.$.$.$.$.$.$.$.{ , , , , , , , , , , , , , , < n n n z z z z z L z L z z f L f L z z f z z L z z f z z L f z z L f z z L f z z L L L z : # # # # # # # # # # # # # O 4 $.$.$.$.$.$.$.$.$.+.$.$.$.$.$.$.$.$.X.$.$.$.$.$.$.$.$.$.$.$.$.$.$.$.$.$.X.$.$.X.$.$.$.$.+.",
"f L z z f L z z f L z z f L z z z L z z f L z L f z f z z z 4.v.v.v.p.v.p.v.r.v.v.v.r.v.j.1 # # # # # # # # # O # # # # # # # # # # O # # # # # # # O . . . . . . . . . . . . . . . $ z z L L - z z f L z z f L n $.$.$.$.$.$.$.$.$.$.X.$.$.+.$.$.$.$.$.$.$.$.$.$.$.$.$.$.$.$.$.$.$.$.$.$.$.X.$.$.$.$.O.O.O.< , , , , , , , , , , , , , < z z Q L z z z L f L f L f L f L f L z L z z z L f L f z f L z z f L z z f L z z f L z z n X.$.$.$.$.$.$.$.$.$.$.$.X.#.$.$.$.$.$.$.$.$.$.$.$.$.$.$.$. .$.$.$.$.$.$.$.$.$.$.$.$.$.$.{ , , , , , , , , , , , , , , < z z z z z f L z z z L f L f z z z f z z f z z L z L z z L - L - L L f L z z f L z z L z n +.#.$.$.$.$.$.$.X.$.$.$.$.$.$.$.$.$.$.$.$.X.$.$.$.$.X.$.$.$.$.$.$.$.$.$.$.$.$.$.$.$.$.O.{ , , , , , , , , , , , , , , < n n n z z L L z z z f L f z z z z L f L z z f L f L z z f L z z f L z z f L z z f z z z - # # # # # # # # # # # # # # 4 $.$.$.$.$.+.$.$.$.$.$.$.$.X.#.$.$.$.$.$.$.X.$.$.$.$.$.$.$.$.+.$.$.$.$.$.$.$.$.$.$.$.$.$.$.",
"z f z z L f z f z f z z L f z f L f z z L f z z L z L z z n r.m.p.v.v.v.v.v.v.v.p.v.v.v.r.% # + # # # # # # # O # # # # # # # # # # # O # # # + # # + o . . . . . . . . . . . . . . $ L L z L z L z L f z z L z n +.$.$.$.$.$.$.$.$.$.$.$.X.$.$.$.$.$.$.$.$.$.$.$.$.$.$.$.$.$.$.$.$.$.$.$.$.$.$.$.$.$.$.+.+., , , , , , , , , , , , , , $ z z z f z z z f L f L L z z L z z z L f z z z f L f L z z z L f z z z z z z L f z z z z R X.$.$.$.$.$.$.$.$.$.$.$.$.$.$.$.$.$.$.$.$.$.$.$.$.$.$.$.$.$.$.$.$.$.$.$.$.$.$.$.$.$.$.$.{ , , , , , , $ , , , , , , , < y z z L f z z L f z f L f L z z z L L f z f L z L z L - L - L z L z z f z z L f z f z z L X.$.$.$.$.$.$.$.$.+.$.$.$.$.$.$.$.$.$.$.$.$.$.$.$.$.$.$.$.$.$.$.$.$.$.$.$.$.$.$.+.$.$.$._ , , , , , , , , , , , , , , < n f L f L z z z L z L f L z z z z f z z L f z z L f L f z z L f L f L f z z L f L z f f - # # # # # # # # # # # # # # < $.$.$.$.$.$.$.$.$.$.$.$.$.$.#.} $.$.$.$.$.$.$.$.$.$.$.$.$.$.$.$.$.$.$.$.$.$.$.$.$.X.$.$.$.",
"z L f L z z z L z L f L z z z L z z f L z z f L z L - z z R 6.v.v.v.v.r.v.p.v.p.v.v.r.v.r.% # # # # # # # # O $ O # # # # # # # # # # # # # # # # # O o . . . . . . . . . . . . . . : L f z f L f z z z L z - L Q $.$.$.$.$.+.$.$.$.$.$.$.$.$.$.$.$.$.$.+.$.X.$.$.X.$.$.$.$.$.$.$.$.$.X.$.$.$.$.O.$.$.$.+.+.< , , , , , , , , , , , , , , n L z L z L f z z z z - z L - z L L - L z L f z z z z L f z f L z L f L f z f L z L f z R X.$.$.$.$.$.$.$.$.$.$.$.$.$.$.$.$.$.$.$.$.$.$.$.$.$.$.$.$.$.$.$.$.$.$.$.$.$.$.$.$.$.$.$.} , , , , , , , , , , , , , , < y n z f L z z f L z z z z z L f z f z z z L f z f z z L z z z L - L z L f L z z z L z L L X.$.$.$.$.X.$.$.$.$.$.$.$.$.$.$.$.$.$.$.$.$.$.$.$.$.$.$.$.$.$.$.$.$.$.$.$.$.$.$.$.$.$.$.{ , , , , , , , , , , , , , , < q z z z z z L L - z f z z L f L f L z z f L z z f z z L z z f z z z z L z z f z z z L z : # # # # # # # # # # # # # # < $.$.$.$.$.$.$.$.$.$.$.$.$.$.$.$.$.$.$.$.$.$.$.$.$.$.$.$.$.$.$.$.+.$.$.$.$.$.$.} $.$.$.$.$.",
"L z z z L f L z L z z z L f L z L z L z L z L z z L z L z W 9.v.v.v.v.p.r.v.v.v.r.v.v.v.j.$ O # # # # # # # # # # # # # # # # # # # # # # # # # # # O o . . . . . . . . . . . . . . & z z z L - z f L f L z z z n $.$.$.$.$.$.$.$.$.$.$.$.$.$.$.$.$.$.+.$.$.#.} $.$.$.$.$.$.$.$.$.$.$.$.$.$.$.$.$.$.$.$.O.O., , , , , , , , , , , , , , , f L f f z f L z L f z L z z L L - z L f z f L z L f z f L z L f z f L f L z L f z f L z n X.$.$.$.$.$.$.$.$.$.$.$.$.$.$.$.$.$.$.$.$.$.$.$.$.$.$.$.$.$.$.$.$.$.$.$.$.$.$.$.$.$.$.$.{ , , , , , , , , , , , , , , < z f z z z z z z z z z L f z f L z L L f L z z z L f L L - L z L z z L z z z L f z z z z z X.#.$.$.$.$.$.$.$.$.$.$.$.$.X.$.$.$.$.$.$.$.$.$.X.$.$.$.$.$.$.$.$.$.$.$.$.$.$.$.$.$.$.$.( , , , , , , , , , , , , , , < N z L f z f L z L z L z z f z z L f L f L f L f L z z f z z L z z z z f z z L z z L f z - # # + # # # # # # # # # # # 4 $.$.$.$.$.+.$.$.$.$.$.$.$.} #.$.$.$.X.+.$.$.$.$.$.$.$.$.$.$.$.$.$.$.$.$.+.$.$.$.$.$.$.$.$.",
"f z f L z z f z f z f L z z f z f z f z f z f z L - z L z n 9.v.r.v.v.v.v.v.v.p.v.v.p.v.j.% + # # # # # # # # # # # # # # # # # # # # # # # # # # # O . . . . . . . . . . . . . . . & L f L z z z L z z z z L z W $.$.$.$.$.$.$.$.$.$.$.$.$.$.$.$.$.$.$.$.$.$.$.$.$.$.$.$.$.X.$.$.$.$.$.$.$.$.$.$.$.$.$.O. ., $ , , , , , , , , , , , , < f L z L z z z z f L z z L z L z L z z L z z z z f L z z z z f L z z z z z z f L z z z z R X.$.$.$.$.$.$.$.X.$.$.$.X.#.$.$.$.$.$.$.$.$.$.$.$.$.$.$.$.$.$.$.$.$.$.$.$.$.$.$.$.$.$.$.} , , , , , , , , , , , , , , 1 z L L f L f L f L f z f L z z z z f z z f z f L z z z z L z L - L z f z f L z z L L z z R X.$.$.$.$.$.$.$.+.$.$.$.$.$.$.$.$.$.$.$.X.$.$.$.$.$.$.$.$.$.$.$.$.$.$.$.$.$.$.$.$.$.$.$.( , , , , , , , , , , , , , , < N z f L z z z z f z f L f L z z f z z z z z z z z L f L z z f L f L f L z z f L f z z L - # # # # # # # O # # # # @ # < $.$.$.$.$.$.$.$.$.$.$.$.$.$.$.$.$.$.$.$.$.$.$.$.$.$.$.$.$.$.$.$.$.$.$.$.$.$.$.$.$.$.$.$.$.",
"z z L f z f z z L f z f z z L f L z L z L z z z z L z L f L 9.v.v.v.j.j.v.v.v.v.v.j.j.v.j.& # # # # # # # # # # # # # # # # # # # # # # # # # # # # O o . . . . . . . . . . . . . . & f z L - L L f z z L z L f n $.$.$.$.$.$.$.$.$.$.$.$.$.$.$.$.$.$.$.$.$.$.$.X.$.$.$.$.$.$.$.$.$.$.$.$.$.$.$.O.$.$.O.#.+.< , , , , , , , , , , , , , < 4 n L z z z L f z z z z L z L L z L L - L z z f z z z z L f z z z z L f z z z z L f z z Q X.$.$.$.$.$.$.$.$.$.$.$.$.$.$.$.$.$.$.$.$.$.$.$.$.$.$.$.$.$.$.$.$.$.$.$.$.$.$.$.$.$.$.$.} , , , , , , , , , , , , , , , z z f L f L f L f L z L f z z z z L L f z f z z L f L - z L z z z z z z L f z f z z L z R $.$.$.$.$.$.$.$.$.$.$.$.$.$.$.$.$.$.$.$.$.$.$.$.$.$.$.$.$.$.$.$.$.$.$.$.$.$.$.$.$.$.$.$.{ , , , , , , , , , , , , , , < n z L f z z z z L z L f L f z z L z z z z z z z z f z z L f L f z z L f L f z z L L z L : # # # # # # # # # # # # # # < X.$.$.$.$.$.$.$.$.$.$.$.$.$.$.$.$.$.$.$.$.$.$.$.$.$.$.$.$.$.$.$.$.$.$.$.$.$.$.$.$.$.$.$.$.",
"f L z z z L f L z z z L f L z z f z f z f z L z z z z L z L 9.v.j.v.v.v.v.j.v.p.v.v.v.v.j.& # # # # # # # # # # # # # # # # # # # # # # # # # # # # + . . . . . . . . . . . . . . . % L z L L z z z f L f z z z n $.#.$.$.$.$.$.$.$.$.$.$.$.$.$.+.$.$.$.$.+.$.$.$.$.$.$.$.$.$.$.$.$.$.$.$.$.$.$.$.$.$.$.+.+.< , , , , , , , , , , , , , , 4 z z z L z f L z L f L - z f - L z z L z - L L z L f z f L z L f z f L z L f z f L z z n X.$.$.$.$.$.$.$.$.$.$.$.$.$.$.$.$.$.$.$.$.$.$.$.$.$.$.$.$.$.$.$.$.$.$.$.$.$.$.$.$.$.$.$.{ , , , , , , , , , , , , , , < z z z z z z z z z z z f L z L f z f z z z L f L z z z L z z L f L f f L z z z L f L z z n $.$.$.$.$.$.$.$.$.$.$.$.$.$.$.$.$.$.$.$.$.$.$.$.$.$.$.$.$.$.$.$.$.$.$.$.$.$.$.$.$.$.$.+.{ , , , , , , , , , , , , , < < n z f L z L f z f z f z z L z z f L f L f L f L f L z z f z z L z z f z z L z z f f z L : # # # # # # # # # # # # # # 4 $.$.$.$.$.$.$.$.$.$.$.$.$.$.$.$.$.X.$.$.$.$.$.$.$.$.$.$.$.$.$.$.$.$.$.$.$.$.$.$.$.$.$.$.$.",
"z f z f L z z z L f L z z f z f z z z z z z z z L L L z z R 9.v.j.v.n.n.v.j.v.v.j.v.v.j.j.$ # # # O $ # # # # # # # # # # # # # # # # # # # # # # # + o . . . . . . . . . . . X . . & z L z z L L z L z z f L f n $.$.$.$.$.$.$.$.$.$.$.$.$.$.$.$.$.$.$.$.$.$.X.$.$.o.X.$.$.$.$.$.$.$.$.$.$.$.$.$.$.$.$.O.} < , , , , , , , , , , , , , , f c L f L z L f z f L f L z L z z - L - L L z f z f L z z z z f L z L f z f L z z z z z R X.$.$.$.$.$.$.$.X.$.$.$.$.$.$.| $.$.$.$.$.$.$.$.$.$.$.$.$.$.$.$.$.$.$.$.$.$.$.$.$.$.$.#.} , , , , , , , , , , , , , , < z z z L f z z L f z z z z z f L z L L f L z z f z f L z L z f z z L z f z f L z z z z z n $.$.$.$.$.+.$.$.$.$.$.$.$.$.$.$.X.$.$.$.$.$.$.$.X.$.$.$.$.$.$.$.$.$.$.$.$.+.$.$.$.+.+.$.} , , , , , , , , , , , , , , < y z z z z f L z L z L z z f L f L f z z L f z z L f L f L z z f z z L z z f L f L z z z : # # O # O # # # O # # # # # < X.$.$.$.$.$.$.$.$.$.$.$.$.$.$.$.$.$.$.$.$.$.$.$.$.$.$.$.$.$.$.$.$.$.$.$.$.$.$.$.$.$.$.$.$.",
"z L z L f z f L z z f z z L z L f f f f f f f f - - - f z z 9.V.n.j.n.n.v.v.m.v.v.v.v.n.j.& # O # # O O # # # # # # # # # # # O # # # # # # # # # # O . . . . . . . . . . . . . . . % L - L z z f z f z z L z z z $.#.$.$.$.$.$.$.$.$.$.$.$.$.$.$.$.$.$.$.$.$.$.$.X.#.X.$.$.$.$.$.X.$.$.$.$.$.$.$.$.$.$.O.+., , , , , , , , , , , , , , < f L z z z z f L z z z z z z f L z L z L z z L L z z z L f L f z z z f L z z z L f L f z n X.$.$.$.$.$.$.$.$.$.$.$.X.#.$.$.$.$.$.$.$.$.$.$.X.$.$.$.$.$.$.$.$.$.$.$.$.$.$.$.$.$.X.$.{ , , , , , , , , , , , , , , < z z z f L z z f L z L f L f z z z f z z f z z L z L L z z z L z z f z L z L f z f L z n R | $.$.$.$.$.$.$.$.$.$.$.$.$.$.$.$.$.$.$.$.$.$.$.$.$.$.$.$.$.$.$.$.$.$.$.$.$.$.$.$.$.+.+._ , , , , , , , , , , , , , , < z L f L f z z z f z f L f z z z z L z z f L z z f z z z z L f L z z f L f z z z z L L z - # # # O # # # # O $ O O # # % #.$.$.$.$.$.$.$.$.$.$.$.$.#.$.$.$.$.$.$.$.$.$.$.$.$.$.$.$.$.+.$.$.$.$.$.$.$.$.$.$.$.$.$.$.",
"L z L z z f z z L f z f z z z R ` Q ' Q Q Q Q Q ' Q Q Q Q ] =.9.4.4.4.4.4.4.4.4.4.4.4.4.1.$ O O # # # # # # O $ # # # O # # # # O # # # # # # # # # O o . . . . . . . . . . . . . . & L - L - L z f z f L z L f z | X.| X.X.| X.} | $.| | | $.} | X.| | } X.X.X.| X.| X.| | | | } } | | | | $.X.| } } X.+. .< < < < < , < < < % , , < < < f L f z L f z z L f z z L f z z z L z z L f z z L f z f L f L z z z L f z z z f L f L z R } } | | X.} X.| | | | X.X.X.| X.| X.$.| | | X.X.| X.| | $.X.| } $.| { } | $.| | $.} $.| ' < < < < < , , < , < < < < < 4 f L z z z L f z z z f L f L z z z L L f z f L z L z - L f z z L f L L z L z z f z z L f L | | } | | } } | X.| X.| X.} | X.X.| X.| X.} X.| X.| X.| | | $.X.X.| X.| | } $.| | O. . ._ < , , , , , , < , , , , $ < < z f L f L z z z L z L f L z z z z f L f z z L f L z z z z f L f z z L f L z z z z f z z - # # # $ $ $ # $ # $ $ # # $ % } } { } { {  .{  .{  . ._ } } | | } } } | | | $.X.} } | | } | $.} | | | $.$.| | | } X.X.} ",
"f z f z z L f L z z z L L z L 1.v.r.v.a.v.p.v.a.a.g.g.g.v.r.u # $ $ $ O $ $ # $ # # $ # $ $ O $ # # # # # # O O # # # # # # # # # # # # # # # O # # O o . . . . . . . . . . . . . . $ L L z L z z L z L f z z z L L L L z z L z z z n n z L n R n z L L z z z z L L n W n R z L z R W n L L n n n R z R N n N N z z f f 4 f f z n 4 z z f f z z z f L z z f L z z f L z f L z L z f L z z f L z z z z z L f z f L z L f z z z z z L L z L L n R n L L L n n L z z L L L n z R L z L z z L L n n n R z L n R n y z L n R n n n z f z z z < 4 N n z z 4 n f z z z L f z f L z L f z z z z L f z f z z z L f z f L L z z z z z z z f z f z z L f L z z z L R R z L z z z L R n L L n n L z z z z L z z z L R z z L n n z L R z L z n n R L F F R q f f f f 4 f f z 4 z n 4 f f z z z z z z L f z f z f z z L f L f z z L z z f z z L f L f z z L z z f z z L f L f L z z f f L f f y y f z z n f f z z 4 # # O # $ $ O $ O + + # $ O % n L z Q R z L L n n z R n L z z R n L L R n n z R L z z L z ",
"z z L f L z z z L f L z z z L 4.v.v.v.v.v.r.v.v.v.v.v.g.m.p.< O # # # # O + # # # # # # # # O # # # # # # # # # # # # # # # # O # # # # # # # # # # + . . . . . . . . . . . . . . . $ L z - L z L f z z z f L f L - L z L z z L z L n z z L z L z z L z z z z L z z z z n n L z z z z L z z L z z z z z z n N n L z z z n z z z z z z z n L z f z z z z z z z z z z z z z L z - z z z z z z z z z L f z f L z L f z f L z L f z L z z z z z L z z z z z L z z z L z z z z z L z z z z L z z z L z z f z L z z z z L z L z z L f z z z z z z n n L f L z z z f z f L z L f z f L z L f z f L z L L f L z z z L - z L L z L f L z z z L f L z z z L f f L z z z L z z L L z z z z z z L L L L z z z z L L z z L L z L z z z z L L z z z z L z n n z z z L n z z z L z n z z L f L z L f z f L z L z L z z f z z L z z f z z L z z f z z L z z f z z L z z f z z L f L f L L L f L n z z z z L f L z Q : # # # O # O $ O $ + O O O O % z L z L z z z z z f z L z L z L z z z z L z z z z z L z z z ",
"f L z z f z f L z z f z f L z =.v.v.v.a.v.v.a.g.v.v.v.g.m.g.< @ # # + # # # # # # # # # O O $ # # # # # # # # # # # # # # # # # # # # # # # # # # # + o . . . . . . . . . . . . . . & L z L z L z z f L z L z z z z L z L z z L z z z L z L z z z L z z L L z z L z z z z Q z z L L z z L z z z L z z z z n n n z z L z z z f L z z z L z z z L L f L f L f L f L f L f z z z L L f L f L f L f z f L z z z z f L z z z z f L z z z L z L z z z L z L z z z L z L z L L z z z z L L z z f L z z z L L z z z L z z L z z z L z z z z L z z z z z z z f z z z L z z z z f L z z z z f L z z z z f z z f z f L z z L - L z z z f z f L z z f z f L z z z L z z z f L z z z z z L z L z z z z z z L L z z z z z z z z z z L z z z z L z L z z z z n L L z z z z L z z z z z f L z z z f L z z z z f z f L f L z z f L f L z z f L f L z z f L f L z z f L f L z z f z z z z z z z z z z L z z z z z z z : # # # # # O + O + + $ $ O O $ z L z z z z f L z L z z z L z z z z L z z z L z L z z z L z ",
"z f z z L f z f z z L f z f L 4.v.v.v.p.v.v.v.v.v.v.v.r.v.g.% @ # @ # # # # # # # # # O # @ # # # # # # # O # # # # # # # # # # # # # # # # # # # # @ X . . . . . . . . . . . . . . $ L L z L z L f z z L z L f L f L z L f z z L z L f z z L z L f z z L z L f z z L z L f z z L z L f z z L z L f z z L z L f z z L z L f z z L z L z c L f L z f z f z f L - L - z L z L z z L z L z L z L z z z z L f z z z z L f z z z z L f z z z z L f z z z z L f z z z L z z L f z z z z L f z z z z L L f z f z z L f z f z z L f z f z L f z z L f L f z z L f L f z z z L z L f z z L z L f z z L z L z L f z z L z L f z L - L z z L f z f z z L f z f z L z L f L f L f L f L f L f L f L f L f L z f z f z f z f z f z f z f z f z z z z L z L f f z z z z L f z z z z L z L f f z z L f z f z z z L f L f z z L f L f z z L f L f z z L f L f z z L f L f z z L z z z z z z z z z z z z z z z z z W 4 # # # # # # # # # # # # # O $ R y z z L z L f z z L z L f L f z f z z L f z f z z L f z f ",
"z L f L z z z L f L z z z L z 1.v.r.v.v.r.v.v.r.p.v.v.v.m.p.< @ # # # # # # # # # # # # # # # # # # # # # # # # # # # # # # # # # # O # # # # # # # # X . . . . . . . . . . . . . . : L f z f z z z f L f z z z z z f z z z f L f z z z f L f z z z f L f z z z f L f z z z f L f z z z f L f z z z f L f z z z f L f z z z f L f z f z L z z z z L z L z L z L z L z z L - L L f z f z f L - z L f z f L z L f z f L z L f z f L z L f z f L z L f z f L z L f L z z f L z L f z f L z L f z f z z z L f L z z z L f L z z z L z z L z z f z z L z z f z z L z f L f z z z f L f z z z f L f z f z z z f L f z z z z L L z - L z z z L f L z z z L z c z f z z z z z z z z z z z z z z z z z z z L z L z L z L z L z L z L z L z L f L f z L z L L L f z f L z L f z f z f z L f L z z z L f L z f z z L z z f z z L z z f z z L z z f z z L z z f z z L z z f L f L f L f L f L f L f L f L f z n < # # # # # # # O # # # # # # % n y f L f z z z f L f z z z z z z L f L z z z L f L z z z L ",
"L z z z L f L z z f z f z z L 4.v.v.p.v.v.v.p.v.r.v.v.v.v.g.< @ # # # # # # # # # # # # # @ # # # # # + # # # # # O # # # # # # # # # # # # # # # @ # X . . . . . . . . . . . . . . & L z z L f L z L z z f L f L f L f L z L z z f L f z z z f L z L z z f L f z z z f L z L z z f L f z z z f L z L z z f L f z z z f L z L z z z L f - L f z L f z z L f z z L z - L z z L z z z L f z z z L f L z L f z f L z z z z f L z L f z f L z z z z f L z L f z f L L L z L f z f L z z z z f L z L L f L z z f z f L z z z L f L z z z f z z L z z f L f L z z f z z z z f L z L z z f L f z z z f z f L f z z z f L z L z - L L z L f L z z f z f L z z L z L z z z L f z z L f z z L f z z L f z L f z z L f z z L f z z L f z z z z L z f L c z L - z f z z z z f L z L z L L z z f z f L z z z z L z z f L f L z z f z z L z z f L f L z z f z z L z z f L f L f z z L f z z L f z z L f z z L z L 4 # # # # # # # # # # # # # O % n n z z z f L z L z z f L f L f L z z f z f L z z z L f L z ",
"f z f L z z f z z L z L z f L 1.v.v.v.v.v.v.v.v.v.v.v.p.m.g.% @ # # # # # O # # # # # # # @ # # # # # # # # # # # # # # # # # # # # # # # # # # # # # X . . . . . . . . . . . . . . $ L f L z z f z f z z L z z z z f L f z f z z L z z f L z L f z f z z L z z f L z L f z f z z L z z f L z L f z f z z L z z f L z L f z f z f L z f L z L z z z f L z z L z L z L z z L - L f L z z f L L - z z z f L z z z L f L f z z z f L z z z L f L f z z z f L z z z z z z f L z z z L f L f z z z f z z f z z L z L f z f L z z f z L f L z z f L f z z z z L f L z f L z L f z f z z L z z f L z L z L z z f L z L f z f z L z z L z z f z z L z L - L L * z f L f z f L z z f L z z f L z z f L z z z f L z z f L z z f L z z f L L z f z z z f L c L z L L f L f z z z f f L f z z L z L f z f L z f L f z z z z L f L z z f L f z z z z L f L z z f L f z z z z L z z f L z z f L z z f L z z f z L 4 # # O # # # # # # # # # # # $ W z f L z L f z f z z L z z z z f z z L z L f z f L z z f z ",
"z z L f z z L f z f z f L z L 1.v.v.v.v.v.p.v.p.v.v.v.v.v.r.% @ # # # # # # # # # # # # # @ # # # # # # # # # # # # # # # # # # # # # # # # O # # # O X . . . . . . . . . . . . . . : L L f z f z f z f L z L f f z L z L z L z L f z z L f z z z f z f L z L f z z L z z f z f L f z z L f z z z f z f L z L f z z L z L - z L z f z z f z z z L z L f L z z L - L z z - L z z z f z z L z L L z L f z z L f z f L f L z z z L f z z z f L f L z L f z z L f z L z L - L z f z f L f L z z z L L f z f L z L z z z L f z z L f f z z L f z z L z z z z f L f z z z L z L z L z L f z z L f z z L f z z L f z z L z z L z z L - L f z f L z L z L z L L f z z L z z z L f z z z z z z L f z z z L z L f z z L z L z L f z z L z f L f L z z L f c z L z z z z L z L f z z L L f L z L z z f z z z L f L z z z L f z z L f z z L z z z z f L f z z L f L z L - L f L f z z L f L f L f z z L f L z z : @ # # # # # # # # O $ O # # $ R z z z z z z f z f L z L f L f z f L z L z z z L f z z L f ",
"f L z z f L z z z L z L f z L 1.v.v.r.v.v.v.v.v.p.v.v.p.v.p.< O # # # # # # # # # # # # # @ # # # # # # # # # # # # # # # # # # # # # # # # # # # # O X . . . . . . . . . . . . . . : z z L z L z L z L f z z z L z c z f z f z z z f L z z f L z L z L f z z z f L f z z L z L z z f L z z f L z L z L f z z z f L f z z L z z z L f L L L L f f z z z z L L - L z - L L z L z z L f L - L z z z f L z z f L z z z z z L f z f L z L f z z z z z f L z z f L z L z z z z L L z z z z z L f z f z z z L f z f z f L z z f L z z L z z f L z z f L f L f z z L z f L f z z L - z z z f L z z f L z z f L z z f L - z L - L z z L z z z L f z f z f L - L L z z f L f z f L z L f L f z f L z L f f z z z f L f z f z z z f L f z z z z z L f L z L z - L L f L - z f L z z c z z f z f z z L f L z f z z L f L - L z z f L z z f L f L f z z L z z f z z z z L z z z L z z f z z z z L z z f z z L L : @ # # # # # # # # # # O # O % z z L z f L z L z L f z z z z z z L f z f L f L z z f L z z ",
"z f z f z f z f L f z z z f L 1.v.p.v.p.v.p.j.v.v.r.v.v.v.g.% @ # @ O # # # # # # # # # O @ # # # # # + # # # # # # # # # # O # # # # # # # # # # # # X . . . . . . . . . . . . . . $ Q L - z L L f z z z f L f f z L z z z L f L z L z L z L z L f z z z f L f z z z f L f z z L z L z L z L z L f z z z f L f z z z f L f - L L z z z L - z f z f L f L - z L L z L z L z L z L z z z z z - L z z z z z z z z z L f z f L z L f z f L z L L z z z z z z z z z - L - L z L z z z L f z f L z L L f L z z z L f z f z f z f z f f L f L f L f L f z z L z z f z L z z L z L z L L z L z L z L z L z L z L z L z L z z L z f L f L f L z z z L f z f z c f L f L f L z L f z f L f L z L f z L z z f L f z z z f z f L f z z z L z L f z f L f z f z z z f z z L z z z z L L f f z z L f L z z z z L z z f z z L f L f L f L f L f z z L z z f z z L z z L - L z z z f z z L z z z z f z z L z z z L : # # # # # # # # # # # # # O $ L f f z L z L f z z z f L f L f L z z z L - z f z f z f z f ",
"z L z L z L z L z z f L z L L 1.v.v.v.v.v.v.v.v.v.v.v.v.v.p.< @ # # # # # # # # # # # # # @ # # # # # # # # + # # # # # # # # # # # # # # # # # # # # X . . . . . . . . . . . . . . & L z z L - z z f L z L z z L z c z f L z z f z f z f z f z z z f L z L z z f L z L z z L z f z f z f z f z z z f L z L z z f L z L z z L z f z f L c L z L z L z z z z L - f z f L z z f z f z f L L z L z L f L f L f L f z f L z z z z f L z z z z f z z L f L f L f L f L L L z L - L f z f L z z z z f z z f z f L z z z L z L z L z L z z z z z z z z L z z f L f L z - L z z L - L - f z f z f z f z f z f z f z f z z L z L z L z z z z f z f L z L z L z L z z z z z z z f L z z z z z z f L z z z z L z z f L z L z L z z f L z z z f L z z z f L L f L f L z z L L f L f - L z L f L z z f z f L z f L f L z z L z z z z z z z z L z z f L f L z L - L L z L z L L f L z z f L f L f L z z f L f z L : # # # O # # # # # # # # # # % L f z z f z z z f L z L z z z z f z f L z z z L z L z L z L ",
"L z z L z L - L L f L - L z L 1.v.j.v.v.j.v.v.j.j.v.v.v.v.v.4 O # # # # # # # # # # # # # @ # # # # # # # + # # # # # # # # # # # # # # # # # # # # O X . . . . . . . . . . . . . . % L z z z L L z L f L z z L z z L f z z L L z z z z z z n f L f z z L L f z z z L L z z L z z z z z L z z n L z L f z z L z L z L f L - L z z z z z L L z L L - L z z L z L z z L z z L z L z z L z L z L z f L f L L z z z z L f z z z z L L z z z L z z L z L z z c c n n L L z z f L L z z L L z z z L f z z z z z L z L z z z z L z z z - L L z z z L - f z z z L L f z L - L z z L z L L z z L f L f L L - z L L z z L z L L - L z z L z z L z L z L - L z f L L z z z z L L z z z L z L z z z L z z L L f z L z f z z z z L L z z L z z z z L z z z z L z L z - L z z L z L z z c z f z z z z L z L z z L z - L z L z - L L z z z L - f L f z z L z - L f z z z L z - f z L z z z L f L z z z L z z L z L : # # # # # # O $ $ O O # # # # R z L z z f L f z z L z L f L f z f z z z L L z z L L - z L ",
"- z L - z z L z z z z z z L L 1.n.v.j.v.j.v.m.j.v.v.j.j.v.p.< O # # # # # # # # # # # # # @ # # # # # # # # # # + # # # # # # # O # # # # # # # # # # X . . . . . . . . . . . . . . % z L z z L f z z z z z L - L f L z z z z z L L z z L z z f z z z z z z L z z z z z z L z z L L z z z z L n f z z z L z f z f z z z z z z L f L L z - L L - z z z L L - z L f L z L L - z z L z - L L z z L z z z z - z L z z f L z L f z f z z L z L z z z z z z z c c c n z z z z z z z z z f z z L z z z z n z L z z z z L f L L z z L L L z z L L L z L L z L z z z L z z z z L L - z L - z L - z z z z z L z z - z L - L - z z z L L - L z - L L z z z f z z z z z L z z f z z L z L z z n L z L z z z z z z z z L f L L z z z f L z z L f z f Q n z z L z L z L z L z z L - z L L z L f L L z - L L z L - z L z L - L L z z L L L z L z z L z z L z L z L f L z L z L L z z z L z z z z z L z L z z L z L 4 # # # # # # # O O # # # # # % z z f z z R z z f L f z z z z z z L f L z L - z L - z L z z ",
"L z z L L - L z L L - L z z L 4.m.m.v.v.m.m.v.m.m.v.m.v.m.g.< O # + # # # + # # # # # # O # # # # # + + # # # # # # # # # # # # # # # # O # # # # # O X . . .   . . . . . . . . .   % n z z L z z z L f z z z z z f c z n z z n z z n n z z y R L z z z z z f z n n f c z z z z z z z z z L y y z z L f z z z z z z L f z L z z z z z L L - z L z L z z z z L z z z z z z z L - - L L z - L z - z L f z L z z z z L f z L z z L z z n n f z z z L z n n L f c n z z n z z L y n z L z z z z L f y n y f L z z z f z z z z L L z z L L - - L z z f L z z L z f z z L z z z z L z L z z L z L L z L z - L L z z L z z L z z z z L z z z z - L z L z z z f z L n z z z z n z z f z y n c c f z z z L z z z z n z z n n c n z z z z z z z L n n R y L z - L L z L z z L z L - L f z z z z L L z - L z L z L z L z z z L L - - L z z L z f z z z z z z L z z - z z - f z z z z z L f z z y f f z L z z L : # # # # # # # O $ # # # # # % z z z z f y L z L z z z L f L f z z z z z z L z z L L f L z ",
"z L z L z L z z z z L z L L z *.6.6.1.4.6.6.3.3.6.6.3.6.4.4.: + # # # # # # # # # # # O # O # # # # + + # # # # # # # # O # # # # # # # # # # # # # @ X . . . X . . . .     . X X . u ] ` ] ` ' ' ' ] ` ] ` ] ` ' Q Q L Q R Q R R Q R Q R R R n R R R Q R Q R R ~ R R n R R Q R R R R Q R R ~ n R Q R R Q Q n z L L z z L - L L z L L - L L z z L - L L L z - L z L L - z L z L L z z z L z z L z z L ' ' ' ' ' ' ' ' ' ` ' ' ` ] ) Q R R R Q R Q R Q R Q R ~ ~ R Q Q R R R R n L Q R R R R R R ~ R R n R Q R Q R R Q Q L L L z z z z z L z L z z z z L z z L z L - L L L z - L z L z L z z z z L z L z z L z L L z - Q ` ' ' ' ] ` ] ` ' ' ` ] ' ' ' R Q R n R R R Q R R Q R R R R R n R R Q R R R R Q Q Q R R Q R R n R R Q R R Q R L n R R R - z L z z L - z L - L - L L z L z L L - - z L z z L z z L - L z z z z z L z L z - z L z L L L Q L L L L L L Q Q L L L R L L z L n R n f L z L z L L : O # # # # # # O + # # # # O $ z R n R n f L z L z L R z L z z L L z L L z z L z L z z z z ",
"z L z L L f z f z L z z - L z z L z L L z L L L z z L L L L # # # # $ O # # # # # # # # # # # # # # # $ $ # # # # # # # # # # # + # # # # # # # # # # X . . . . . . . .   . . . . . &.m.r.v.v.r.j.v.j.v.p.v.v.v.r.o.$.$.$.$.$.$.$.$.$.$.O.O.O.O.$.$.$.$.$.$.$.$.$.$.O.O.$.$.$.$.$.$.$.$.$.$.O.O.$.$.$.$.$.$.Q z z z z z L f z z L z L z L z L f z z L z z L z z - L L z L - L z L f z f L z L z L L L j.r.v.r.v.v.r.v.g.v.j.j.v.j.a.#.$.O.O.$.$.$.$.$.$...$.$.$.X.$.$.$.$.$.O.O.$.$.$.$.$.$.$.$.$.$.$.$.$.$.$.$.$.$.$.$.$.$.X.z L z L z f z z z f L f L z z z L z z L z z f z f z L z L L f z L - L z z z z L z z L z ] j.v.j.v.j.v.r.v.r.v.v.r.v.v.4.| $.$.$.$.$.$.$.$.$.$.$.$.O.$.$.O.O.O.O.O.O.$.$.$.$.$.$.$.$.O.O...O.O.O.O.$.$.$.$.$.$.$.{ L L z L - L z L z z L - z L f L L z z L L z z L f z z z f L f L L z L z f z z z L z L - ` j.r.r.p.6.r.p.6.j.r.p.p.r.r.4.| | | $.$.| $...| $.| $.| $.Q # # # # # $ O + O $ # # # O 4 $.$...........$.| $.| | $.$.' f z z L z L z z L z L L f z f ",
"L - z z z z z L L - L L L z z L L z z z z L z - z z z z L - $ # # # # O # # + # # # # # O # # # # # # # + # # # # # # # # # # # # # # # # # # # @ @ O o . . . . . . . . X . . . . . *.V.v.v.v.v.v.v.v.v.v.v.v.m.j.#.$.$.$.$.$.$.$.$.$.$.$.$.$.$.$.$.$.$.$.$.$.$.$.$.$.$.$.$.$.$.$.$.$.$.$.$.$.$.$.$.$.$.$.$.n n z L f L z z f L f z f z - L z z L z - L L - L L L z z z - Q L z z z z L f z f z z z L v.v.v.v.v.v.v.v.v.v.v.v.v.v.v.$.$.$.$.$.$.$.$.$.$.$.$.$.$.$.$.$.$.$.$.$.$.$.$.$.$.$.$.$.$.$.$.$.$.$.$.$.$.$.$.$.| X.#.X.L - L L z L z L f z z z z L z L - f L f z z L z L L - z z z z z z L z - L f L f z z z z ` j.m.v.v.v.v.v.v.v.v.v.v.v.n.7.#.$.$.$.$.$.$.$.$.$.$.$.$.$.$.$.$.$.$.$.$.$.$.$.$.$.$.$.$.$.O.$.$.$.$.$.$.$.$.$.$.$.$.$...z z z L L z z f L z z L z f z - - z L - z L L - L z L f z z z z - L L z L z L f z L L - ] m.v.v.m.m.v.v.m.m.v.m.m.m.V.9.#.$.$.$.$.$.$.$.$.$.$.$.$.#.) O # # # # # # O $ O # # O O 4 $.$.$.$.$.$.$.$.$.$.$.$.$.$.] f z z f L - z L - z z z z z L ",
"z z L - L f L z z z L z z L z L L z L z L z z L L - z L * L $ # # # # # # # # # # + # # # # # # + # # # + + # # # # # # # # # # # # # # # # # # @ @ @ X . . . . . . . . . . . . . . *.v.v.v.p.v.v.v.j.j.v.v.v.v.j.$.X.$.$.$.$.| $.$.$.$.$.$.$.$.$.$.$.$.$.$.$.$.$.$.$.$.$.$.$.$.$.$.$.$.$.$.$.$.$.$.$.$.$.$.y y z z L z L z L z z z L f L f L f - L L z z z L z z L - L L z z z L f L z z z L f z z Q v.v.v.v.v.v.j.p.v.p.v.j.v.n.j.$.$.$.$.$.$.$.$.$.$.$.$.#.O.$.$.$.$.$.$.$.$. .$.$.$.$.$.$.$.$.$.$.$.$.$.$.$.$.$.$.$.o.o.X.L L z - L f z f L z L f z f L z L z z z f L f z z z f L - L f L z - L L z z z z f L - z ] p.v.v.j.p.v.p.v.v.v.g.v.v.v.r.$.$.$.$.$.$.$.$.$.$.$.$.$.$.$.$.$.$.$.$.$.$.$.$.$.$.$.$.$.$.$.$.$.$.$.$.$.$.$.$.$.$.$.$.{ z z L z f L f L z L L z z L L z L z z L L - z L f z f L z L L z L z - L f z f L z L z z ' v.v.j.v.j.v.v.v.v.j.j.v.v.v.9.$.$.$.$.$.$.$.$.$.$.$.$.$.$.) O # # O # # # # # O # # # O 4 $.$.$.$.$.$.$.$.$.$.$.$.$.$.] f L z z z z L z z L - L f L z ",
"L L z L z z f L - L - L z z L - z L - z L z z L z L z z L c $ O O # # # # # # # # # # # # # # # # # # # # + # # # # + # # # O # # # # # # # # # @ @ O o . . . . . . . . . . . . . . *.v.v.v.v.v.j.v.v.v.p.v.r.v.r.#.$.$.$.$.$.$.$.$.$.$.$.$.$.$.$.$.$.$.$.$.$.$.$.$.$.$.$.$.$.$.$.$.$.$. .$.$.$.$.$.$.$.$.} R f L z f z f z f z f L z z f L z z L z z L - L - L z z L z z L - L z z f z f L z z z z R p.v.p.v.p.v.v.v.v.v.v.j.v.n.j.$.$.$.$.$.$.$.$.$.$.O.O.O...$.$.$.$.$.$.$.$.$.$.$.$.$.$.$.$.$.$.$.$.$.$.$.$.$.$.$.$.X.X.X.L - z L z L z z z z f L z z z z f f L z L z z f L z L z L z z f z L z z L f L z L z L z ] p.v.v.v.v.v.v.v.g.v.v.v.g.v.r.$.$.$.$.$.$.$.$.$.$.$.$.$.$.$.$.$.$.$.$.$.$.$.$.$.$.$.$.$.$.$.$.$.$.$.$.$.$.$.$.$.$.$.$.{ L z - L z z z z L - L z f L f z f L z L z L z z L z z z z f z L - z L z L z z z L - L - ' v.v.v.v.v.v.j.j.v.v.v.v.g.n.7.$.$.$.$.$.$.$.$.$.$.$.$.$.$.) # # # # # # # # # # # # # # < $.$.$.$.$.$.$.$.$.$.$.$.$.$.| - f z f L L - L L z L z z f z ",
"- L L f z f z z z L f L f z z L f z z L f L f z z L f L f z $ O $ O # # # # # # # # # # # @ # # # # # # # # # # # # # # # # # # # # # # O # # # # # + X     X   . . . . . . . . . . &.n.v.v.v.v.p.v.v.r.v.v.v.v.a.$.$.$.$.$.$.$.$.$.$.$.$.$.$.$.$.$.$.$.$.$.$.$.$.$.$.$.$.$.$.$.$.$.$.$.$.$.$.$.$.$.$.$.$.X.R z f L f L f L f L z f z z * L L - L z L f z f z z L f z f z z L z L L - L L f z f z L R g.v.g.v.v.v.v.r.v.v.p.r.v.v.p.$.$.$.$.$.$.$.$.$.$.$.$.O.#.$.$.$.$.$.$.$.$.$.$.$.$.$.$.$.$.$.$...$.$.$.$.$.$.$.$.$.$.$.X.z L z f z z z z L L f z f z z L f z z L f z f z z L f z f z z L f z L z z L z L f f z z ' j.v.p.v.v.v.v.r.v.v.p.v.v.v.9.$.$.$.$.$.$.$.$.$.$.$.$.$.$.$.$.$.$.$.$.$.$.$.$.$.$.$.$.$.$.$.$.$.$.$.$.$.$.$.$.$.$.$.$.{ L z L z L z L z z - L z z L f f z z L f z f z z f z z z z L f z z z z L f z z z z z n 4 ' v.a.v.v.v.r.v.v.p.v.v.v.v.v.4.$.$.$.$.$.$.$.$.$.$.$.$.$.$.) # # O # # # # # # # # # # O < $.$.$.$.$.$.$.$.$.$.$.$.$.$. .q L z z z L z L f z f z z L f ",
"L z z z z L f L z f z z L z z f L z z f z z L z z f z z z z $ # $ O # # # # # # # # # # # @ # # # # # # # # O # # O # # # # # # # # # # O $ # # # # #   X     X . . . . . . . . . . &.n.p.v.r.v.v.v.v.v.v.p.v.v.j.$.$.$.$.$.$.$.$.$.$.$.$.$.$.$.$.$.$.$.$.$.$.$.$.$.$.$.$.$.$.$.$.$.$.$.$.$.$.$.$.$.$.$.$.$.n z z z z z z z z z z L f L L z z L f L z z z L f L z z z L z L - L z z L z z z z L z z Q r.v.v.v.p.v.p.v.v.v.v.v.v.v.v.#.$.$.$.$.$.$.$.$.$.$.$...#.$.$.$.$.$.$.| $.$.$.$.$.$.$.$.$.$.$.$.$.$.$.$.$.$.$.$.$.$.$.X.W z L L z L f z f z z z L f L z z f L z z z L f L z z z L f L z z z z f L f z z z L z L ` v.v.v.v.v.p.v.v.v.v.v.v.g.v.9.$.$.$.$.$.$.$.$.$.$.$.$.$.$.$.$.$.$.$.$.$.$.$.O.$.$.$.$.$.$.$.$.$.$.$.$.$.$.$.$.$.$.$.$.{ f z f z f z f z z L f L z f z L f L z z z L f L L z L f z f L z L f z f L z L f z z z f ' v.v.v.p.v.v.v.v.v.v.r.g.v.v.6.$.$.$.$.$.$.X.$.$.$.$.$.$.$.) O # # # # # # # # # # # # @ < $.$.$.$.$.$.$.$.$.$.$.$.$.$.{ y z z L z L z z z z L f L z z ",
"z - L f L z z z z L z z f L f L f L f L z z f z z L z z z z # # O # # # O # # # # # # # # @ # O # # # # # # # # # # # # # # # # # # # # # O # # # # O o .   X   . . . . . . . . X X &.n.v.v.v.v.v.v.v.v.r.v.v.v.r.#.$.$.$.$.$.$.$.$.$.$.$.$.$.$.$.$.$.$.$.$.$.$.$.$.$.$.O.$.$.$.$.$.$.$.$.$.$.$.$.$.$.$.$.X.R z z L f z z L f z L z z z c z L z z f z f L z z z L f L z z L z z L z z z L f L z L L L v.v.v.v.v.v.v.v.v.v.v.v.v.v.p.#.$.$.$.$.$.$.$.$.$.$.$.$.$.$.O.$.$.$.$.$.$.$.$.$.$.$.$.$.$.$.$.$.$.$.$.$.$.$.$.$.$.$.$.| n z L z z f L z L L f L z z f z f z f z f L z z z L f L z z f z f L z L z z f L f - L L ' j.v.v.j.v.v.v.p.v.p.r.v.v.v.r.$.$.$.$.$.$.$.$.$.$.$.$.| $.$.$.$.$.$.$.$.$.$.$.$.$.$.$.$.$.$.$.$.$.$.O.$.$.$.$.$.$.$.#.{ z z L f z z L f L z z z z L L z z f z f L z z z f z f L z z z z f L z L f z f L L z z f ' v.v.g.v.v.p.v.v.r.v.v.v.v.v.6.$.X.$.$.$.$.$.$.$.$.$.$.$.$.) # # # # # # O # # # # # # @ 4 $.$.$.$.$.$.$.$.$.$.$.$.$.$.{ y n z L z z z L f L z z f z f ",
"z L z L f z f L z f L f z z z z z z z z L f L z z f L f L f $ O O # # # # # # # # # # # # @ # # # # # # # # # # # # # # # # # # # # # + # # # # # # + X . X   X . . . . . . . .   X *.n.v.r.v.a.v.r.p.v.v.v.v.v.a.$.$.$.$.$.$.$.$.$.$.$.$.$.$.$.$.$.$.$.$.$.$.$.$.$.$.$.$.$.$.$.$.$.$.$.$.$.$.$.$.$.$.$.$.X.R z z f L z z f L z f z f L L z f z z L z L f z f L z z f z L - L z f L - L z z f z z z R v.p.v.v.r.v.v.r.v.r.v.v.p.r.v.$.$.$.$.$.$.$.$.$.$.$.$.$.$.$.$.$.$.$.$.$.$.$.$.$.$.$.$.$.$.$.$.$.$.$.$.$.$.$.$.$.$.$.$.$.n L - L f z z z f z z f z z L z L z L z L f z f L z z f z z L z L - L f z z L z z L z z ' j.v.v.v.v.r.v.v.v.v.v.v.v.n.9.$.$.$.$.$.$.$.$.$.$.$.$.$.$.$.$.$.$. .$.$.$.$.$.$.$.$.$.$.O.$.$.$.$.$.$.$.$.$.$.$.$.$.$.{ f L z z f L z z f z f L f L f z z L z L f z f L L z z z L f L f z z z f L z z z L z f f ' v.v.g.r.v.v.v.v.v.v.p.g.v.m.6.$.$.$.$.$.$.$.$.$.$.$.$.$.#.) # # # # # # # # # # # # # O < #.+.$.$.$.$.$.$.$.$.$.$.$.$.{ y n n f z f L z z f z z L z L ",
"L z L z z f z z z L f L z z z z z z z z f L f z z L f L L c $ # # O # # # # # # # # # # # @ # # # # # # # # # # # # # # # # # # # # # # # # # # + O O X . . . . . . . . . . . . X   *.V.v.v.v.v.v.p.v.v.v.v.v.v.j.$.$.$.$.$.$.$.$.$.$.$.$.$.$.$.$.$.$.$.$.$.$.$.$.$.$.$.$.$.$.$.$.$.$.$.$.$.$.$.$.$.$.$.$.$.n z z z z L f z z z z z L f L f L f L z L z z f z z L f z f L z z z z z L f z z L f z z R a.v.r.v.v.r.v.v.p.g.v.v.v.v.g.$.$.$.$.$.$.$.$.$.$.$.$.$...$.$.$.$.$.$.$.$.$.$.$.$...$.$.$.$.$.$.$.$.$.$.$.$.$.$.$.$.$.| R f L f L z z z L L f z f L z L z L z L z z f z z L f z f L z L z z f z f L z L f L - L ] r.v.a.v.v.v.v.v.v.v.v.v.v.v.7.$.$.$.$.$.$.$.$.$.$.$.$.$.$. .$.$.$.$.$.$.$.$.$.$.$.$.$.$.$.$.$.$.$.$.$.$.$.$.$.$.$.$.$.} z f z z L f z f z z L f z L L f L z L z z f z z f z z z - L L z z L f z z L f z z z z f ' n.v.v.v.v.p.v.v.r.v.v.v.v.v.6.$.$.$.$.$.$.$.$.$.$.X.$.$.$.) O # # # # # # # # # # # # # < #.$.$.$.$.$.$.$.$.$.$.$.$.$.] f L z z f z z L f z f L z L z ",
"f z f z z L f L z f z z L f L f L f L f z z L z z f z z f c $ O # # # # # # # # # # # O # # # # # # # # # # # # # # # # # # # # # # O O # # # # + O O X . . . . . . . . . . . . . . *.n.g.v.v.a.v.v.r.v.a.v.r.v.r.#.$.$.$.$.$.$.$.$.$.$.$.$.| $.$.$.$.$.$.$.$. .$.$.$.$.$.$.$.$.$.$.$.$.$.$.$.$.$.$.$.$.$.$.Q z L f z f L z L f f L z z L z z z f z f z z L f L z z z L z z L z f L z z f L z z z z Q v.v.v.v.v.v.v.v.v.v.v.g.g.v.v.$.$.$.$.$.$.$.$.$.$.$.$.$.#.$.$.$.$.$.$.$.$.$.$.$.$.$.$.$.$.$.$.$.$.$.$.$.$.$.$.$.$.$.$.| c z z z z L f z f z z z L f z f z f z f z z L f L z z z L f z f z z L z L f z z z z z z ` v.v.v.v.v.p.v.v.r.v.v.p.g.v.9.$.$.$.$.$.$.$.$.$.$.$.$.$.$.$.$.$.$.$.$.$.$.$.$.$.$.$.$.$.$.$.$.$.$.$.$.$.$.$.$.$.$.$.$.{ z L f L z z z L f L z z z c z L f z f z z L f L L z L f L z z z z f L z z f L z z L z f ' v.g.v.v.v.v.v.v.g.v.v.v.g.v.6.$.$.$.$.X.$.$.$.$.$.$.$.$.$.Q O # + # # # # # # # # # # @ < $.$.$.$.$.$.$.$.$.$.$.$.$.$.] f f z z L f L z z z L f z f z ",
"z z L f L z z z z L z z f z z L f z z L z z f z z L z z z z $ O # # # # # # # # # # # # # @ # # # # O # # # # # # # # # O # # # # # # $ # # # # + $ O X . . . . . . . . . . . . . . &.n.v.v.v.v.v.v.v.v.g.v.v.v.v.$.$.$.$.$.$.$.$.$.$.$.$.$.$.$.$.$.$.$.$.$.$.$.$.$.$.O.$.$.$.$.$.$.$.$.$. .$.$.$.$.$.$.$.| R L f L z L f z f L z f z f f z z f z z L f L z z z L f z z z L z z z f z f z f z f z z Q g.v.v.p.v.p.v.v.r.v.a.v.v.g.g.%.$.$.$.$.$.$.$.$.$.$.$.$.$.$.O.$.$.$.$.$.$.$.$.$.$.$.$.$.$.$.$.$.$.$.$.$.$.$.$.$.$.$.$.o.R z L f z f L z L L f L z z z z L z z L f L z z z L f L z z z L f L f z z z f L f z L z ] v.v.v.g.r.v.v.r.v.v.v.v.n.v.7.$.$.$.$.$.$.$.$.$.$.$.$.$.$.$.$.$.$.$.$.$.$.$.$.$.$.$.$.$.$.$.$.$.$.$.$.$.$.$.$.$.$.$.#.' L z z z L f z z z f z f z L L - z z L f L z z z f z f L z L z L z z z z z z z z z L z f ' v.v.r.v.p.r.v.v.v.g.v.v.v.v.6.$.$.$.$.$.$.$.$.$.$.$.$.$.$.) # # # # # # # # # # # O # @ < $.$.$.$.$.$.$.$.$.$.$.$.$.$.] f L f L z z z L f L z z z z L ",
"f L z z f z f L z f L f L z z f L z z f L f L z z f L f L z $ # # # # # # # # # # # # # # @ # # # # # # # # # # # # # # # # # # # # # O # # # # + O O X . . . . . . . . . . . . . . &.n.v.g.g.v.v.p.v.v.v.v.v.v.r.$.$.$.$.$.$.$.$.$.$.$.$.$.$.$.$.$.$.$.$.$.$.$.$.$.$.$.$.$.$.$.$.O.$.$.$.$.$.$.$.$.$.$.$.$.n z z z z f L z z z z L z L L f z L f L z z f z f L z z L L z z z n z L z L z L z L z L Q r.v.r.v.v.v.v.v.v.v.v.g.v.v.v.$.$.$.$.$.$.$.$...$.$.$.$.$.$.O.$.$.$.$.$.$.$.$.$.$.$.$.$.$.$.$.$.$.$.$.$.$.$.$.$.$.$.$.o.n z f L z z z z f z z f z f L z L f L z z f z f L z z f z f L z z z z f L z L z z z z z ] r.v.v.g.v.v.v.v.p.v.v.r.g.n.7.$.$.$.$.$.$.$.$.$.$.$.O.$.$.$.$.$.$.$.$.$.$.$.$.$.$.$.$.$.$.$.$.$.$.$.$.$.$.$.$.$.$.$.$.} f z f L z z L L z L z L L * z L f L z z f z f L L z z z z f L - L f L f L f L f z z z f ' v.v.v.v.v.v.v.g.v.v.v.p.v.v.4.$.$.$.$.$.$.$.$.$.$.$.$.$.#.) # # # # # # # # # # # # # @ < $.$.$.$.$.$.$.$.$.$.$.$.$.$.} f z z f z f L z z f z f L z L ",
"z f z z z L f L f L f z z L f L f L f z f z z z z z z L L z # # # # # # # # # # # # # # # # # # # # # # # # # # # # # # # # # # # # O # # # # # + # O o . . . . . . . . . . . . X   *.V.g.g.x.x.r.v.v.g.v.v.g.v.a.$.$.$.$.$.$.$.$.$.$.$.$.$.$.$.$.$.$.$.$.$.$.$.$.$.$.$.$.$.$.$.$.$.$.$.$.$.$. .$.$.$.$.$.| R n f y n z z z z z L z z z L z z z z z L - L f z z z z L z z L f f z z n y z z z z z z R v.v.g.v.v.g.v.v.g.n.g.n.g.g.a.#.$.$.$.$.$.$.$.$.$.$.$.$.$.$.O.$.$.$.$.$.$.$.$.$.$.O.$.$.$.$.$.$.$.$.$.$.$.$.$.$.$.$.$.O.n z - L z c L c z z z z z z z z z z f z z f z z z z z z L z z L f L L f z f z z z z z L ' g.n.v.v.v.p.v.v.n.g.n.g.v.v.9.$.$.$.$.$.$.$.$.$.$.$.$.$.$.$.$.$.$.$.$.$.$.$.$.$.$.$.$.$.$.$.$.$.$.$.$.$.$.$.$.$.$.$.$. .z z z z z z z z z f n f f L z z z z L - L f z z f z z z z L z L z L L z z z z z L f z z ' v.v.v.v.g.v.v.g.v.v.g.v.g.n.7.$.$.$.$.$.$.$.$.$.$.$.$.$.$.` + + + O + # # # + # # + + @ < $.$.$.$.$.$.$.$.$.$.$.$.$.$.' f f n z z z z z z z L z z L z ",
"z L f L L - z z z z L z L - z z z z L z L z L f L f z f L - $ O # # # # # O # # # # # # # # # # # # # # # O # # # # # # # O # # # # # O # + # # # # O o . . . . . . . . . . . .     *.V.m.m.m.V.v.v.m.m.v.v.v.m.j.$.$.$.$.$.$.$.$.$.$.$.$.$.$.$.$.$.$.$.$.$.$.$.$.$.$.$.$.$.$.$.$.$.$.$.$.$.$.$.$.X.$.$.$.} R z R y z L L L z R L z L z c f L f f L z L z L f L f L f z f f f f c f f f c f f f c f L v.n.n.v.v.v.v.v.v.n.n.n.v.v.v.$.$.$.$.$.$.$.$.$.$.$.$.$.$.$.O.$.$...#.$.$.$.$.$.$...#.$.$.$.$.$.$.$.$.$.$.$.$.$.$.$.$.O.n L L L L c n L L L L L L n y L z z L f L L z L f L f z f z z f f - c c - f f f f c f f ' v.n.v.v.v.v.v.v.n.n.n.v.v.n.r.$.$.$.$.$.$.$.$.$.$.$.$.$.$.$.$.$.$.$. .$.$.$.$.$.$.$.$.$.$.$.$.$.$.$. .$.$.$.$.$.$.$.$.{ z n L L c L n y L L L n z L z z f L z L z L f L L z L f z f z z z z z - L L z z z z z z ' v.v.v.V.V.v.v.v.v.m.V.n.n.n.a.$.$.$. .$.$.$.$.$.| $.$.$.$.~ + + + O O # # # O # + + O O % $.$.$.$.$.$.$.$.$.$.$.$.$.$.' f z z n n L L L L z L n y L z ",
"L - z z L L z z L - f z z L z f L - f z - L z f z L z L z z & # $ # $ $ $ # $ # $ $ $ $ $ # $ # $ & $ $ $ $ $ # $ & $ $ $ $ $ # $ $ $ $ $ $ # $ $ # $ o . X . . . . . . . . . . X   %.a.9.9.9.9.r.r.r.r.r.r.9.r.7.$.$.$.$.$.$.$.O.O.O.O.O.O.$.$. .$.$.$.$.$.$.$.$.O.$.$.O.O.$.O.$.$.$.$.$.$.$.$.$.$.$.$.$. .n z q y 4 1 f f 4 q f 4 4 f f f z L z z z L L - z z z z z L ' ' ' ' ' ' { ' ' ' ) ' ' ' | r.a.g.g.a.a.n.r.g.g.g.g.g.a.g.#.$.$.$.$.$.$.$.$.$.O...O.O.$...O...O.O.$...$.O.O.O.O.O...$.$.$.....O.O.O...$.O...O.O.O.O.y q 4 - f q q q 1 y 4 f f y f L z z f z z f z z z L z z L Q ' ' ) ' ' ' ' ) ' ' ) ' ' ' | a.g.g.g.g.n.r.p.g.a.g.g.g.g.6.X.$.$.$.$.O.O.O.O.O.O.$.O.$.$.$.$.O.$.$.$.O.O.O.O.O.O.O...$.O.O.O.$.$.$.$.$.$.$.$.$.$.$.{ z f 4 4 f y y f f f f y f f y n z z z L L - z z f z z z z L L Q Q L Q Q L Q Q Q R Q R R ] r.r.6.9.9.9.9.9.9.r.9.9.9.7.<.$.$.$.$.$.$.$.$.$.$.$.$...$.` & & $ % < < % % $ & % $ % $ N #.$.$.$.$.$.$.$.$.$.$.$.$.$.} 4 f y q y 4 < y 4 f f y y q q ",
"L L c L L * L c L L c L c L z L L L c L L c L L L - L c L z f c L L f R L L L L * L c L L - L L - R - - * L L L * - R - - L L c R - L * L L L c R c z o   . . . . . . . . . . . X   ( #.$.$.$.$.X.X.X.X.X.$.$.X.$.$.$.$.$.$.$.$.$.$.$.$.$.$.$.$.$.$.$.$.$.$.$.$.$.$.$.$.$.$.$.$.$.$.$.$.$.$.$.$.$.$.$.$.$.+.< , , , , , , , , , , , , , , f c L L c L * L L c L f L L ) j.v.v.v.n.n.j.v.v.v.v.v.n.v.v.#.%.$.$.#.$.$.$.#.$.%.$.$.$.$.$.$.$.$.$.$.$.$.$.$.$.$.$.$.$.$.$.$.$.$.$.$.O.$.$.$.O.O.#.$.$.$.$.$.$.$.$.$.#.$.$.$.O.O. ., < , < $ , , , , , , , $ $ < L L L L c L L c L c c c L - Q a.v.v.n.v.v.v.v.v.v.v.n.v.n.a.&.$.$.$.$.$.$.#.$.%.$.$.%.$.#.$.$.$.$.$.$.$.$.$.$.$.$.$.$.$.$.$.$.$.$.$.$.$.$.O.$.$.$.$.$.$.$.$.$.$.$.$.$.$.$.$.$.$.$.{ , , < , < $ < , , , , , , < < f L c L * L L c L L c L c z | r.j.r.j.j.r.p.r.r.r.r.j.r.p.1.X.$.X.$.$.$.$.$.$.$.$.$.$.$.$.$.$.$.$.$.$.$.$.$.$.$.$.$.$.O.o.#.$.$.$.$.$.$.$.$.$.$.$.$.$.$.+.$.$.$.$.$.$.$.$.$.$.$.$.) , , , , , , , , , , $ , , , , ",
"f z z L f z z L f z z z L f z z f z z z L f z z f z L f z z z L L f z z L f z z - R z L f z c z - - L - L L f z - R z L f z z L - - L L z L f L z z 4 o   . . . . . . . . . . . .   F #.$.$.$.$.$.$.$.$.X.$.$.$.$.| $.$.$.$.$.$.$.$.$.$.$.$.$.$.$.$.$.$.$.$.$.$.$.$.$.$.$.$.$.$.$. .$.$.$.$.$.$.$.$.$.$.$.+.< , , , , , , , , , , , , , , f z z z z z z f L f z z L z R j.v.v.v.n.v.v.v.v.v.v.v.v.v.v.$.X.$.$.$.$.$.$.$.$.$.$.$.$.$.$.$.$.$.$.$.$.$.$.$.$.$.$.$.$.$.$.$.$.$.$.$.#...$.$.$.$.$.$.$.$.$.$.$.$.$.$.O.O.$.$.$.#.O.$ , , , , , , , , , , , , , < z z f z z L f z z L z z L - ` v.v.v.n.v.v.v.v.v.v.v.n.v.V.9.$.$.$.$.$.$.$.$.$.$.$.$.} $.$.| $.$.$.$.$.$.$.$.$.$.$.$.$.$.$.$.$.$.$.$.$.$.$.$.$.$.$.$.$.$.$.$.$.$.$.$.$.$.$.$.$.$.$._ , , , , , , , , , , , , , , < f z z z z f L f z z L f L z | v.v.m.m.v.v.v.v.v.v.v.v.v.v.4.X.X.X.$.$.$.$.$.$.$.$.$.$.$.$.$.$.$.$.$.$.$.$.$.$.$.$.$.$.$.#.$.$.$.$.$.$.$.$.$.$.$.$.$.$.$.$.$.$.$.$.$.$.$.$. .$.$.$.) , , , , , , , , , , , , , , , ",
"L z z f L z z f z z f L z z f L z z f L z z f L f L z z f L f L z z f L z z f L - L L - L z L z - R L L z f L z R - z f L z z f R L - L z f z z z z z o . . . . . . . . . . . . . . ~ $.$.$.$.$.$.$.$.$.$.$.$.$.$.$.$.$.$.$.$.$.$.$.$.$.$.$. .$.$.$.$.$.$.$.$.$.$.$.$.$.$.$.$.$.$.$.$.$.$.$.$.$.$.$.+.$.$. ., , , , , , , , , , , , , , < y z z L f L f z z L z z L z R a.v.v.v.v.g.v.v.r.v.v.v.g.v.a.$.$.$.$.$.$.$.$.$.$.$.$.$.$.$.$.$.$.$.$.$.$.$.$.$.$.$.$.$.$...$.$.$.$.$.$.$.O.O.$.$.$.$.$.$.$.$.$.$.$.$.$.$.O.$.$.O...[ , , , , , , , , , , , , , , < z z L z z f L z z f - L z f ` r.v.j.j.v.v.v.v.a.v.v.v.g.V.9.$.$.$.$.$.$.$.$.$.$.$.$.$.$.$.$.$.$.$.$.$.$.$.$.$.$.$.$.$.$.$.$.$.$.$.$.$.$.$.$.$.$.$.$.$.$.$.$.$.$.$.$.$.$.$.$.$.$.$.{ , , , , , , , , , , , , , , < f L f L f z z L z z f z z f | v.v.v.j.v.v.v.v.v.p.v.p.v.v.4.X.$.$.$.$.$.+.$.$.$.$.$.$.$.$.$.$.$.$.$.$.$.$.$.$.$.$.$.$.$.$.$.$.$.$.$.$.$.$.$.$.$.$.$.$.$.$.$.$.$.$.$.$.$.$.$.$.$.$.) , , , , , , , , , , , , , , , ",
"f L f L f L f L L z L z L z L z L z L z L z L z z f z f z f z c L z L z L z L z L * L L f L f z R L - - z z z z L L L L f L f L L - L L z L z z z L f o   . . . . . . . . . X . X   ( $.$.X.$.$.$.$.$.$.X.$.$.$.$.$.O.$.$.$.$.$.$.$.$.$.$.$.$.$.$.$.$.$.$.$.$.$.$.$.$. .$.$.$.$.$.$.$.$.+.$.$.$.$.$.$.$.$. .< , , , , , , , , , , , , , $ y L z f z z L z z f z z z n R g.v.v.r.v.v.g.v.v.v.v.v.v.v.a.#.$.$.$.$.$.$.$.$.$.$.$.$.$.$.$.$.$.$.$.$.$.$.$.$.$.$.$.$.$...$.$.$.$.$.$.$.$.$.$.$.$.$.$.$.$.$.$.$.$.$.$.$.$.$.$.$...O., , , , , , , , , , , , , , < y z f L f L f L f L L f z c ` p.v.v.v.v.v.v.v.v.v.v.v.v.v.9.#.$.$.$.$.$.$.$.$.$.$.$.$.$.$.$.$.$.$.$.$.$.$.$.$.$.$.$.$.$.$.$.$.$.$.$.$.$.$.$.$.$.$.$.$.$.$.$.$.O.$.$.$.$.$.$.$.$.$. ., , , , , , , , , , , , , , < z f z z L z z f z z L z z f | v.v.p.v.j.v.r.v.p.v.v.v.v.v.6.X.$.$.$.$.$.$.$.$.$.$.$.$.$.$.$.$.$.$.$.$.$.$.$.$.$.$.$.$.$.$.$.$.$.$.$.$.$.$.$.$.$.$.$.$.$.$.$.$.$.$.$.$.$.$.$.$.$.$._ , , , , , , , , , , , , , , , ",
"z z z z z z z z f z f z f z f z f z f z f z f z z L z L z L z L f z f z f z f z L L L z z z L f - R R L L f L f - L - L z z z z z L z z z f L L z z 4 o . . . . . . . . . .   X   X _ $.$.$.$.$.$.$.$.X.#.$.$.$.$.$.$.$.$.$.$.$.$.$.$.$.$.$.$.$.$.$.$. .$.$.$.$.$.$.$.$.$.$.$.$.$.$.$.$.$.$.$.$.$.$.$.$.$.+.< , , , , , , , , , , , , , % f c f L z z f L f L z L z z Q a.v.v.v.a.v.a.v.p.v.v.r.v.a.a.$.$.$.$.$.$.$.$.$.$.$.$.$.$.$.$.$.$.$.$.$.$.$.$.$.$.$.$.$.$.$.$.$.$.$.$.$.$.$.$.$.$.$.$.$.$.$.$.$.$.$.$.$.$.$.$.$.$.#.[ , , , , , , , , , , , , , , , n n z z z z z z z z z L z - Q j.v.v.v.a.v.a.v.a.v.r.g.v.v.7.$.$.$.$.$.$.$.$.$.$.$.$.$.$.$.$.$.$.$.$.O.$.$.$.$. .$.$.$.$.$.$.$.$.$.$.$.$.$.$.$.$.$.$.$.$.$.$.$.$.$.$.$.$.$.$.$.$.$._ , , , , , , , , , , , , , % < f L z z f L f L z z f L L z | v.v.v.v.j.v.v.v.v.v.v.p.v.v.4.X.$.$.$.$.$.$.$.$.$.$.$.$.$.$.$.$.$.$.$.$.$.$.$.$.$.$.$.$.$.$.$.$.$.$.$.$.$.$.$.$.$.$.$.$.$.$.$.$.$.$.$.$.$.$.$.$.$.$._ , , , , , , , , , , , , , , , ",
"z f z f z f z f z f z f z f L - z f z f z f z f z f z L f R f L L z L z L z L z L z L z L z L z z z z z z z z z z z z z z z z z L z L f z z L z L f f o . . . . . . . . . . . . . . ( O.$.$.$.$.$.O.$.$.$.$.$.$.$.$.$.$.$.$.$.$.$.$.O.$.$.$.$.$.$.$.$.$.$.$.$.$.$.$.$.$.$.$.$.$.$.$.$.$.$.$.$.$.$.$.O.$.$. .< , , , , , , , , , , , , , < 4 n z L z z z L z L f z z L ~ j.n.v.v.g.g.v.v.v.v.p.v.v.v.g.$.$.$.$.$.$.$.$.$.$.$.$.$.$.$.$.$.$.$.$.$.$.| $.$.$.$.$.$.$.$.$.$.$.} $.$.$.$.$.$.$.$.$.$.$.$.$.$.$.$.$.$.$.$.$.$.$.$.{ , , , , , , , , , , , , , , < L z f L f L f L f L f L L z Q p.v.p.v.v.v.v.p.v.v.r.g.n.V.9.$.$.$.$.$.$.$.$.$.$.$.$.$.$.O.$.$.$.$.$.$.$.$.$.$.$.$.$.$.$.$.$.$.$.$.$.$.$.$.$.$.$.$.$.$.$.$.$.$.$.$.$.$.$.$.X.$.$.$.) , , , , , , , , , , , , , , < n n n L z z z L z f z z z f | n.v.v.v.v.a.v.p.v.r.v.v.v.v.4.X.$.$.$.$.$.$.$.$.$.$.$.$.$.$.$.$.$.$.$.$.$.+.$.$.$.$.$.$.$.$.$.$.$.$.$.$.$.$.$.$.$.$.$.$.$.$.$.$.$.$.$.$.$.$.$.$.$.$.( , , , , , , , , , , , , , , , ",
"z L z L z L z L z L z L z L z L z L z L z L z L z L z z f z z c f z f z f z f z f z f z - z c L L f L f L f L f L f L f L f L f f z z z f L f z z z z o . . . . . . . . . . . . . . _ #.$.$.$.$.$.$.$.$.O.$.$.$.$.$.$.$.$.$.$.$.$.$.$.$.$.$.$.$.$.$.$.$.$.$.$.$.$.$.$.$.$.$.$.$.$.$.$.$.$.$.$.O.$.$.$.$.$. .< , , , , , , , , , , , , , , y n z L z f L f z z z f L f R a.n.g.v.v.v.v.a.v.v.v.v.v.v.g.$.$.$.$.$.$.$.$.$.$.$.$.$.$.$.$.$.$.$.$.$.$.$.$.$.$.$.$.$.$.$.$.$.$.$.$.$.$.$.$.$.$.$.$.$.$.$.$.$.$.$.$.$.$.$.$.$.$.$.} , , , , , , , , , , , , , , < f z z z z z z z z z z z z z ` r.v.v.v.v.r.v.v.v.v.v.v.g.n.u.#.$.$.$.$.O.$.$.$.$.$.$.$.$.O.$.$.$.$.$.$.$.$.$.$.$.$.$.$.$.$.$.$.$.$.$.+.$.$.$.$.$.$.$.$.$.+.$.$.$.$.$.$.$.$.$.$.$.$._ , , , , , , , , , , , , , , < n z W z z L z L z L z L f z | n.v.v.g.v.v.v.v.v.v.v.v.v.v.=.X.$.$.$.$.$.$.$.$.$.$.$.$.$.$.$.$.$.$.$.$.$.$.$.$.$.$.$.$.$.$.$.$.$.$.$.$.$.$.$.$.$.$.$.$.$.$.$.$.$.$.$.$.$.$.$.$.$.$.( $ , , , , , , , , , , , , , , ",
"L f z z L f z z L f z z L f z z L f z z L f z z L f L z z n z L z z L f z z L f z z L f L z L - f z z L f z z L f z z L f z z L z f L f z z z f L z - o   . . . . . . . . . . . . . ( O.$.$.O.O.$.$.$.$.$.$.$.$.$.$.$.$.$.$.$.$.$.$.$.$.$.$.$.$.$.$.$.$.$.$.$.$.$.$.$.$.$.$.$.$.$.$.$.$.$.$.$.$.$.$.$.$.O.O.< , , , , , , , , , , , , , $ y c L z z z z z f L f z z z ) g.n.v.v.v.v.v.v.v.r.v.v.g.v.a.$.$.$.X.$.$.$.$.X.$.$.$.$.$.$.$.$.$.$.$.$.$.$.$.$.$.$.$.#.$.$.$.$.$.$.$.$.$.$.$.$.$. .$.$.$.$.| $.$.$.$.$.$.$.$.$.$.$.} , , , , , $ , , , , , , , , < L f z L f z z L f z z L z z Q v.v.v.p.v.v.p.v.v.v.v.v.g.n.9.| $.$.$.$.$.$.$.$.$.$.$.$.$.O.$.$.$.$.$.$.$.$.$.$.$.$.$.$.$.$.$.$.$.$.$.$.$.$.$.$.$.+.$.$.$.$.$.$.$.$.$.$.$.$.$.$.$.$.{ , , , , , , , , , , , , , , < n z z z L z z f z f z f L f | n.v.p.v.v.r.r.v.p.v.p.v.r.v.4.X.$.$.+.$.$.$.$.$.$.$.$.$.$.$.$.$. .$.$.$.$.$.$.$.$.$.$.$.$.$.$.$.$.$.$.$.$.$.$.$.$.$.$.$.$.$.$.$.$.$.$.$.$.$.$.$.$.$._ , , , , , , , , , , , , , $ , ",
"z z f L z z f L z z f L z z L z z z f L z z f L z z z z z n z c f L z z f L z z f L z z f L c L L z z f L z z f L z z f L z z f z L z z f L z L f z f o . . . . . . . . . . . . . X ( #.$.O.O.#.$.$.$.$.$.$.$.$.$.$.$.$.$.$.$.$.$.$.$.$.$.$.$.$.$.$.O.$.$.$.$.$.$.$.$.$.$.$.$.$.$.$.$.$.$.$.$.$.$.$.$.$.$.O., , , , , , , , , , , , , , < f L z z L L z z L z z f L z R a.n.v.g.p.v.v.r.v.v.p.v.g.v.g.$.$.$.$.$.$.$.$.$.$.+.$.$.$.$.$.$.$.$.$.$.$.$.$.$.$.$.$.$.$.$.$.$.$.$.$.$.$.$.$.$.$.$.$.$.$.$.$.$.$.$.$.$.$.$.$.$.$.$.{ , , , , , , , , , , , , , , < z z z f L z z f L z z f z z Q r.p.v.v.v.v.v.v.r.p.v.v.v.n.7.#.$.$.$.$.$.$.$.$.$.$.$.$.$.$.$.$.$.$.$.$.$.$.$.$.$.$.$.$.$.$.$.$.$.$.$.$.$.$.$.$.$.$.$.$.$.$.$.+.$.$.$.+.$.$.$.$.$.$.{ , , , , , , , , , , , , , , < n z z z z L f L z L z z z f | n.n.v.v.v.v.v.v.v.v.v.v.v.v.4.X.$.$.$.$.$.$.$. .$.$.$.$.$.$.$.$.$.$.$.$.$.$.+.$.$.$.$.$.$.$.$.$.$.o.$.$.$.$.$.$.$.$.$.$.$.$.$.$.$.$.$.$.$.$.$.$.$.$.( , , , , , , , , , , , , , , , ",
"L z L f z z L z L z L f L z z L L z L f z z L z L z L f z R f L z f z z L f z f z f z z L f L z f L f z z L f L f L f z z L f L L f z z L f z z z z z o   . . . . . . . . . . . . . ( O.O.#.O.O.$.$.$.$.O.$.$.$.$.$.$.$.$.$.$.$.$.$.$.$.$.$.$.$.$.$.$.$.$.$.$.$.$.$.$.$.$.$.$.$.$.O.$.$.O.$.$.O.O.O.O.$.$.O.< , , , , , , , , , , , , , , < L z z f z f L z L f L z z Q a.v.g.v.v.v.v.v.v.p.r.v.v.v.r.#.$.$.+.$.$.$.$.$.$.X.$.$.$.$.$.$.$.$.$.$.$.$.$.$.$.$.$.$.$.$.$.$.$.$.$.$.$.$.$.$.$.$.$.$.$.$.$.$.$.$.$.$.$.$.$.$.$.$.| , , , , , , , , , , , , , , < f z z z z L f z z z z z z f ` p.v.v.r.v.v.p.v.g.v.v.g.g.v.9.$.$.$.$.$.$.$.$.$.$.$.$.$.$.O.$.$.$.$.$.$.$.$.$.$.$.$.$.$.$.$.$.$.$.$.$.+.$.$.$.+.$.$.$.$.$.$.$.$.$.$.$.$.$.$.$.$.$.$.{ , , , , , , , , , , , , , , < n z z z z f L f z f z z z f | v.v.v.v.v.v.p.v.v.v.v.p.g.v.4.X.X.X.$.$.$.$.$.$.$.$.$.$.$.$.$.$.$.$.$.$.$.$.$.$.$.$.$.$.$.$.$.$.$.$.$.$.$.$.$.$.$.$.$.$.$.$.$.$.$.$.$.$.$.$.$.$.$.$._ , , , , , , , , , , , , , , , ",
"f z z z f L f z f z z z z z L - f z z z f L f z f z z z z n z z z L f L z z z L z L f L z L f z z z L z z f z z z z L z z f z z z z f L z z f L z z u o . . . . . . . . . . . . . . ( #.O.O.O.O.$.$.$.$.$.$.$.$.$.$.$.$.$.$.$.$.$.$.$.$.$.$.$.$.$.$.$.$.$.$.$.$.$.$.$.$.$.$.$.$.$.$.$.$.$.$.$.$.+.O.#.$.$.O.< , , , , , , , , , , , , , , q L z z L z L f z z z z z L R a.v.v.v.r.v.v.r.v.v.v.v.v.r.g.$.$.$.$.$.$.$.$.$.$.$.$.$.$.$.$.$.$.$.$.$.$.$.$.$.$.$.$.$.$.$.$.$.+.$.$.$.$.$.$.$.$.$.+.$.$.$.$.$.$.$.$.$.$.$.$.$.$.$.} , , , , , , , , , , , , , , < f z L f z f L z L f L f z f Q j.v.v.v.v.v.v.v.g.v.g.v.v.V.r.$.$.$.$.$.$.$.$.$.$.$.$.$.$.O.$.$.$.$.$.$.$.$.$.$.$.$.$.$.$.$.$.$.$.$.$.$.$.$.$.$.$.$.$.$.$.$.$.$.$.$.$.$.$.$.$.$.$.$._ , , , , , , , , , , , , , , < q L f L f z z L z L z L f f | v.v.v.r.v.v.v.v.r.v.v.v.v.v.4.} $.X.$.$.$.$.$.$.$.$.+.$.$.$.+.$.$.$.$.$.$.$.$.$.X.$.$.$.$.$.$.$.$.$.$.$.$.$.$.$.$.$.$.$.$.$.$.$.$.$.$.$.$.$.$.$.$.$.{ , , , , , , , , , , , , , , , ",
"z f L f z z z f z f L f z L z L z f L f z z z f z f L f L f f L L z z z L f L z L z z z L - L z z z f z z L z z z z f z z L z z L z L z L z L z L z z o   . . . . . . . . . . . . . ( #.O.O.O.#.$.$.$.$.$.$.$.$.$.$.$.$.$.$.$.$.$.$.$.$.$.$.$.$.$.$.$.$.$.$.$.$.$.$.$.$.$.$.$.$.$.$.$.$.$.$.$.$.#.O.O.O.O.+.< , , , , , , , , , , , , $ , y y z L f z z z f L f z L n R g.v.v.g.v.v.p.v.v.v.v.v.p.v.g.$.$.$.$.$.$.$.$.$.$.$.$.$.$.$.$. .$.$.$.$.$.$.$.$.$.$.$.$.$.O.$.$.$.$.$.$.$.$.$.$.$.$.$.$.$.$.$.$.$.$.$.$.$.$.$.$.$.$.} , , , , , , , , , , , , , , < z z f L z L f z f L f L z f ` p.v.v.p.v.v.r.v.v.g.v.v.g.v.9.$.$.$.$.| $.$.$.$.$.$.$.$.$...$.$.$.$.$.$.$.$.$.$.$.$.$.$.$.| $.$.$.$.$.$.$.$.$.$.$.$.$.$.+.$.$.$.$.$.$.$.$.$.$.$.$.$.{ , , , , , , , , , , , , , , , N f z z L z z f z f z L z f | n.v.v.p.v.r.r.v.v.v.v.p.v.v.6.X.$.$.$.+.$.$.$.$.$.$.$.$.$.$.$.$.$.$.$.} $.$.$.$.$.$.$.$.$.$.$.$.$.$.$.| #.$.$.$.$.$.$.$.$.$.$.$.$.$.$.$.$.$.$.$.$.$.( , , , , , , , , , , , , , , , ",
"z L z z f L z L z L z z z L z z z L z z f L z L z L z z z z z f f z f L z z f z f z f L z z c L L f L z z f L f L f L z z f L f f z f z f z f z L z 4 o . . . . . . . . . . . . . . ( O.O.#.O.O.$.O.$.$.O.$.$.$.$.$.$.$.$.$.$.$.$.$.$.$.$.O.$.$.$.$.$.$.$.$.O.$.$.$.$.$.$.$.$.$.$.$.$.$.$.$.$.$.O.O.O.O.O.+.< , , , , , , , , , , , , , < y n z z z f L z L z z z z n Q a.v.v.g.v.v.v.v.r.v.v.p.v.v.v.$.$.$.$.$.$.$.$.X.$.$.$.$.$.$.$.$.$.$.$.$.$.$.$.$.$.$.$.$.$.O.$.$.$.$.$.$.$.$.$.+.$.$.$.$.$.$.$.$.$.$.$.$.$.$.$.$.$.$.{ , , , , , , , , , , , , , , < L L z z z f L z z z z z z f ` r.j.v.v.v.v.v.g.v.v.v.g.V.V.9.$.$.$.$.$.$.$.$.$.$.$.$.$.$.$.$.$.$.$.$.$.$.| $.$.$.$.$.$.$.$.$.$.$.$.$.$.$.$.$.$.$.$.$.$.$.$.$.$.+.$.$.$.O.$.$.O.O.$.{ , , , , , , , , , $ , , , , , N L z z f L f L z L z z z z | n.v.v.v.v.v.v.v.p.v.v.v.v.v.6.X.$.$.$.$.$.$.$.$.$.$.$.$.$.$.$.$.$.$.$.$.$.$.$.$.$.$.$.$.$.$.$.$.$.$.$.$.$.$.$.$.$.$.$.%.$.$.$.$.$.$.$.$.$.$.$.$.$.$._ , , , , , , , , , , , , , , , ",
"L f f f z z z z z z L z z L z z L f z z z z z z L - R c L c z L z z L f z f z z z z L z L f L - f z z L f L f z z L f L f z z L f L f L f L f L z z z o   . . . . . . . . . . . . . _ $.$.$.$.$.$.$.$.$.$.$.$.$.$.$.$.$.$.$.$...$.$. .$.$.$.$.$.$.$. .$.$.$.$.$.$.$.$.$.$.$.$.$.$.O.$.$.$.O.$.O.#.$.$.$.$.+.< , , , , , , , , $ , , , , < f L z L f f f z z z z z z z R v.n.v.v.v.v.v.v.v.v.v.v.v.v.v.X.X.$.$.$.$.$.$.$.+.$.$.+.$.$.$.$.$.$.$.$.$.$.$.$.$.$.$.$.$...| $.$.| $.$.} | $.$.| $.$.+.$.$.$.#.$.$.$.$.$.#.$.$.$.$.} , , , , , , $ , , $ , , , , < z z z L f z z z z L L f z c ` j.n.v.v.v.v.v.v.v.v.v.v.v.V.r.$.$.$.$.$.$.$.$.$.$.$.$.$.$.O.$.$.$.$.$.$.$.$.$.$.$.$.$.$.$.$.$.$.$.$.$.$.$.+.$.$.$.$.$.$.O.$.$.O.O.O.O.$.+.+.+.O.O.#._ , , , , , , , $ , , , , , $ < L f z z L f L f z f z z z - o.V.v.m.m.v.V.V.V.v.n.v.v.v.m.7.$.$.$.$.$.$.$.$.$.$.$.$.$.$.$.X.$.$.$.$.$.$.$.$.$.$.$.$.$.$.$.$.$.$.$.$.$.$.$.$.$.$.$.$.$.$.$.$.$.$.$.$.$.$.$.$.$.$.$._ , , , , , , , , , , $ , , , , ",
"- - f f 4 4 4 f 4 f 4 4 4 4 4 4 4 f 4 f f 4 4 f * * - - : f f c f L z z z L f L f L f z z z c L L z z f z z L z z f z z L z z f z z z z z z z z f L 4 o . . . . . X . . . . . . . X _ $.$.$.$.$.$.$.$.$.$.$.$.$.$.$.$.$.$.$.$.$.$.$.$.$.$.$.$.$.$.$.$.$.$.$.$.$.$.$.$.$.$.$.$.$. . . ._  .O.{ _ { { {  .{ } < , < < < , % % < < , % < < < : f f - - f f 4 4 4 f f f f z 4.7.9.7.6.6.4.4.6.6.6.4.4.4.4.#.X.$.$.$.$.$.$.$.$.$.$.$.$.$.$.$.$.$.$. .$.$.$.$.$.$.$.$.$.$.&.$.$.&.$.%.%.#.$.%.%.%.#.%.{ { { } { { { { ' ] { { { } ) < , , < < , < , < < % < < < < z z z f L z L f z f z z z - Q 4.6.4.4.4.6.4.6.6.6.6.6.7.9.,.$.$.$.$.$.$.$.$.$.$.$.$.$.$.O.| $.$.$.$.$.$.$.$.$.$.$.$.$.$.$.$.$.$. .$.$.$.$.$.$.$.$.$.O. . . .+. . .{ +.+. . .+.{ +.( < , < , , < , < , , < < < % < z L z z f z z L z L z L f - | r.r.9.r.9.9.9.9.9.r.6.r.9.r.<.| $.$.$.$.$.$.$.$.$.$.$.$.$.$.$.$.+.$.$.$.$.$.$.$.$.$.| #.$.$.$.$.$.$.$.$.$.$.$.X.$.$.$.$.{ } } { ..{ { _  .{ {  . . .( , % < , < < , % < < < < , < < ",
"O # # # # # O # # # # # # # # # O # # # # # O O # # # # O O - L z f z f L z z z z z z f L f L z f L f L z z f z z L z z f L f L z L f z z L f z z f f o   . . . . . . . . . . . . . ( $.$.$.$.$.O.$.$.$.$.$.$.$.$...#...$.$.$.$.$.$.$.$.$.$.$.$.$.$.$.$.$.$.$.$.$.$.$.$.$.$.$., , , , , , , , , , , , , , , n n z z z z f z f L f z z L f O # # O # # # # # O # # # # # f f f f z - f f z f - f - z z o.$.$.$.$.$.$.$.$.$.$.$.$.$.$.$.$.$.$.$.$.+.$.$.$.$.$.$.$.%.v.v.v.g.v.n.v.p.v.v.r.g.g.v.r.$ O O # # # + + # # # # O # $ n 4 n n z L z z z f z f L f f n z z z z z f L z L L f L z z - f - f f f f f z z - z f z R $.$.$.$.$.$.$.$.$.$.$.$.$.$.O.$.$.$.$.$.$.$.$.$.$.$. .$.$.$.$.$.$.$.$.$.$.$.$.$.$.$.$.+.+., , < , , , , < , , < , < < < N N < N f f f f f f z z 4 n f z f L f L z z f z f z f L L L R R Q n R R Q W R R R R Q R ' $.$.$.$.$.$.$.$.$.$.$.$.$.$.$.$.$.$.$.$.$.$.$.$.$.$.$.$.$.X.$.$.$.$.$.$.$.$.$.$.$.$.$.$._ , , , , , , , , , , , , , , < n n W z z z z f z f L f z z z ",
"+ + # # # # # # # # # O # # # @ O # # # # # # # # # # # # O - L z L z L f z f L f L z L f z c z z z z z L f L z z f L f z z z z z f L z z f L z z L f o . . . . . . . . . . . . . . ( $.$.$.$.$.$.$.$.$.$.$.O.$.$.O.#...$.$.$.$.$.$.$.$.$.$.$.$.$.$.$.$.$.$.$.$.$.$.$.$.$.$.$., , , , , , , , , , , , , , , n n z z z z L z z z z z z z f # # # O + # # # # # # # # # $ f f n z z z L z z z f L z z L X.$.$.$.X.$.$.$.$.$.$.$.$.$.$.$.$.$.$.$.$.$.$.$.$.+.$.$.$.$.n.j.n.v.v.g.v.v.v.v.v.g.v.v.r.< O O + # O O $ # # # # O # $ y N y z z z z z z L z z z f f z z L f L f z z z f z z f z z L z L z z z z z z z z z z n R $.$.$.$.$.$.$.$.$.$.$.$.$.$.O.$.$.$.$.$.$.$.$.$.$.$.$.$.$.$.$.$.$.$.$.$.$.$.$.$.$.$.$.$.+., , , , , , , , , , , , , , < n n n n z z z f z z z z z n z f z z z z L f L z L z z z L f z z Q n L z z z f L z z z z ) $.$.$.$.$.$.$.$.$.$.$.$.$.$.$.$.$.$.$.$.$.$.$.$.$.$.$.X.#.$.$.$.$.$.$.X.$.$.$.$.$.$.$.$.{ , , , , , , , , , , , , , , < n n n L z z z L z z z y n z z ",
"# # # # # # # # # # # # # # # O # # # # # # # # # O # # # O : L L z L z z f z z z z L z z z c L z z z z f L f z z L f L z z z z z z z L f z z z z z z o   . . . . . . . . . . . . . ( $.$.$.$.$.$.$.#.O.O.O.$.$.$.$.$.$.$.$.$.$.$.$.$.$.$.$.$.$.$.$.$.$.$.$.$.$.$.$.$.$.$.$.O., , , , , , , , , , , , , , , n n L z f z z L f z z f z L z # # # # # # # # # # # # # # # z f L z L L z z z z L z z L Q X.$.$.$.$.$.$.$.$.$.$.$.$.$.$.$.$.$.$.$.$.$.$.$.$.$.$.$.$.#.a.v.v.v.v.a.v.v.v.v.v.v.v.n.r.< O # # # $ O O # # # # # # # z z f z f z z L f f z z z f L f L f L f L z z z L L f z f L z L z z z z z L L f z f z z R O.$.$.$.$.$.$.$.$.$.$.$.$.$.$.$.$.$.$.$. .$.$.$.$.$.$.$.$.$.$.$.$.$.$.$.+.+.+.$.$.$.$.$. ., , , , , , , , , , , , , , < n z z L z z z L z z L z L L - L z z z z f L f z f z z z f L f L z z z z z z L z z z f z Q $.$.$.$.$.$.$.$.$.$.| X.$.$.$.$.$.$.$.$.$.$.$.$.$.$.$.$.$.$.$.$.$.X.$.$.$.$.$.$.$.$.$.$._ $ , , , , , , , , , , , , , 1 f L z z f z z f z z z f L f L ",
"# # # # # # # # # # # # # # # # # # # # # # # # # # # # # O : L f z f z z L f L f L f z z f L z L f L f z z L z z f z z L f L f L f z f L z L f z z u o X   . . . . . . . . . . . . ( $.O.$.$.$.$.$.O.$.$.$.$.$.$.$.$.$.$.$.$.$.$.$.$.$. .$.$.$.$.$.$.$.$.$.$.$.$.$.$.$.$.$.$., , , , , , , , , , , , , , < q n L z L z z f L z z L z L z # # # # # # # # # # # # # # $ z L f z z z f L f L f z z z z X.$.$.$.$.$.$.$.$.$.$.$.$.$.$.$.+.$.$.$.$.$.$.$.$.$.$.+.$.&.v.j.j.g.v.v.v.v.r.p.v.g.g.v.a.$ O # # # O O $ # # # # # # $ L z L z L L z z z L z L f z z z z z z z z L f z f z z z L f z f z L f L f z z L z L z L R O.$.$.$.$.$.$.$.$.$.$.$.$.$.O.$.$.$.$.$.$.$.$.$.$.$.$.$.$.$.$. .$.$.$.$.+.#.$.$.$.O.$.$.{ , , , , , , , , , , , , , , < z z z L z L z f z z L z L * L z L f L f z z L z L z L f z z z z z z z z f L f z z z L z Q $.$.$.$.$.$.$.$.$.$.$.$.$.$.$.$.$.$.$.$.$.$.$.$.$.$.$.$.$.X.$.$.$.$.$.$.$.$.$.$.$.$.$.$.( , , , , , , , , , , , , , , < L f z z L f L L z L f z z z z ",
"# # # # # # # O # # # # # # # # # # # # # # # O # # # # # O - L z z L f L z z z z z z f L f f z f z z L z z f z z L z z f z z L f L z L f z L z L z z o   . . . . . . . . . . . . . ( $.$.$.$.$.$.$.$.$.$.$.$.$.$.$.$.$.$.$.$.$.$.$.$.$.$.$.$.$.$.$.$.$.$.$.$.$.$.$.$.$.$.$.$.< , , , , , , , , , , , , , < N N z z z L z z z z L z z L z # # # # # # # O # # # # # # # L c L f L z z z z z z f L z L X.$.$.$.$.$.$. .$.$.$.$.+.$.$.$.$.$.$.$.$.+.$.$.$.$.$.$.$.#.v.v.v.v.v.a.v.v.v.g.v.v.v.n.9.% O # # # # O # # # # # # # # L L f z z z f L f f z f L z L f z z L f z f L z L L f L z z z L f f z z L z z f z L z c R O.$.$.$.$.$.$.$.$.$.$.$.$.$.$.$.$.$.$.$.$.$.$.$.$.$.$.$.$.$.$.$.$.$.$.$.$.O.$.$.$.$.$.$.+., , , , , , , , , , , , , , < z z z z z z L L z z f z z L z z f z z L z z f z f z f L z L f z L z L z z z z f L L z z ) $.$.$.$.$.$.$.$.$.$.$.$.$.$.$.$.$.X.$.$.$.$.$.$.$.$.+.$.$.$.$.$.$.$.$.$.$.$.$.$.$.$.X.$.{ , , , , , , , , , , , , , , < f L f L z z z f z f L z L f z ",
"# # # # # # # # # # # # # # # # # # # # # # # # # # # O $ O - - f L z z f z f L f L z L z z L f L z z f L f L z z f L f L z z f z z z f L z z z L z 4 o . . . . . . . . . . . . . X ( #.$.$.$.$.$.$.$.$.$.$.$.$.$.$.$.$.$.$.$.$.$.$.$.$.$.$.$.$.$.$.$.$.$.$. .$.$.$.$.$.$.$.O., , , , , , , , , , , , , , , q N z L L - L f L f f z z L z # # # # # # # # # # # # # # # - L z z f z f L f L z L L z L X.$.$.$.$.$.$.$.$.$.$.$.$.$.$.$.$.$.$.$.$.$.$.$.$.$.$.$.$.%.a.j.v.v.r.v.v.g.v.v.v.g.v.n.a.$ O # # # # # # # # # O # # # f z z f L z L z z L z z z z f L z z f L z z z z f z z f z f L z z L z z f L f L z z n f n O.$.$.$.$.$.$.$.$.$.$.$.$. .$.$.$.$.$.$.$.$.$.$.$.$.$.$.$.$.$.$.$.$.$.$.$.$.$.$.$.$.O.O.{ , , , , , , , , , , , , , , < z z L z L z z z L f L z z c L f L z z f L f L z L z z z z f L z z z L z f L z L z z z L R $.$.$.$.$.$.$.$.$.$.$.$.$.$.$.$.$.$.$.$.$.$.$.$.$.X.$.$.$.$.$.$.$.$.$.$.$.$.$.$.$.$.$.$._ , , , , , , , , , , , , < $ < L z z f z f L L z z z z f L z ",
"# # O # # O # # # # # # # # # # # # # # # # + + @ O # # O + * R z f z z z L - L z z L f z f L f z L f L f z z L f L f z z L f L z L f z z z z L z L z o   . . . . . . . . . . . . . ( $.$.$.$.$.$.$.$.$.$.$.$.$.$.$.$.$.$.$.$.$.$.$. .$.$.$.$. .$.$.$.$.$.$.$.$.$.$.$.$.$.$.$., , , , , , , , , , , , , , , z z L z L z L z L z z z L L - # # # # # # # # # # # # # # $ L z z L z z L z L f z z - L L X.$.$.$.$.$.$.$.$.$.$.$.$.$.$.$.$.$.$.$.$.$.$.$.$.$.$.$.$.#.n.v.v.v.v.v.v.v.r.v.p.v.r.v.r.% O O # # # # # # + # # # # $ L L z L f z z L z L f z z L z L f L f z f z z L f z f z z L f z f f L f z z L f L f z z Q $.$.$.$.$.$.$.$.$.$.X.$.$.$.$.$.$.$.$.$.$.$.$.$.$.$.$.$.$.$.$.$.$.$.$.$.$.$.$.$.$.X.$.$. ., , , , , , , , , , , , , , < L z L z L z L z f L f z L c z f z z L f z f z z z z L z L f z z L z L f z z L z z z z L ) $.| $.$.$.$.X.$.$.$.$.$.$.$.$.$.$.$.$.$.$.$.$.$.$.$.$.$.$.$.$.$.$.$.$.X.$.$.$.$.$.$.$.$.{ , , , , , , , , , , , , , , < y n L z z f z z z z L f z z z ",
"# # # # # # # # # # # # # # # O # # # # # # $ O @ # # # $ O * - z L f L z L L z - L z z z L L z z f z z L z z f z z L z z f z z z f L z L f z f z L f o . . . . . . . . . . . . . . ( $.$.$.$.$.$.$.$.$.$.$.$. .$.$.$.$.$.$.$.$.$.$.$.$.$.$.$.$.$.$.$.$.$.$.$.$.$.$.$.$.$.$.$.< , , , , , , , , , , , , , < f z f z f z f z f z f L - L z # # # # # # # # # # # # # # # L L z f f L f z z z f L L z L X.$.$.$.$.$.$.$.$.$.$.$.$.+.$.$.$.$.$.$.$.$.$.$.$.$.+.$.$.$.n.v.j.a.v.a.v.v.v.v.v.v.v.m.r.& O O # + # # # # # # # # # $ c f z z z f L f z z z f L f z z z z z z L f L z z z L f L z z z L z z L z z f z z L z z R $.$.$.$.$.$.$.$.$.$.$.$.$.$.$.$.$.$.$.$.$.$. .$.$.$.$.$.$.$.$.$.$.$.X.$.$.$.$.$.$.$.$.$. ., , , , , , , , , , , , , , < f z f z f z f z z z L z z c z L f L z z z L f L f L f z z z f L f z z z f L f z L L z z Q $.$.$.$.$.$.$.$.$.$.$.$.$.$.$.$.$.$.$.$.$.$.$.$.$.$.$.$.$.$.$.| $.$.$.$.$.$.$.$.$.$.$.#._ , , , , , , , , , , , , , , 1 c z z z L L z L f z f L z L f ",
"# # # # # # # # # # # # # # # # # # # # # # # # # # # # # # - - L z z z L z z L L f z f L z f z z L z z f L f L z z f z z L z z z z z z f L z L z z z o   . . . . . . . . . . . . . _ $.$.$.$.$.$.$.$.$.$.$.$.$.$.$.$.$.$.$.$.$.$.$.$.$.$.$.$.$.$.$.$.$.$.+.$.$.O.$.$.$.$.$.$.< , , , , , , , , , , , , , < f n z z L f z z L f z f z L - $ # # # # # # # # # O # # # $ z c z L z z z f L z L z L z L X.$.$.$.$.$.$.$.$.} #.$.$.$.$.$.$.$.$.$.$.$.$.+.$.$.$.$.$.%.j.v.j.v.v.v.a.v.v.v.v.g.v.v.r.$ O # # # # # # # # # # # # # z z f L f z z z f L z L z z f L f L f L z z f z f L z z z L f L z z z f z z L z z f L f Q $.$.$.$.$.X.$.$.$.$.$.$.$.$.$.$.$.$.$.$.$.$.$.$.$.$.$.$.X.$.$.$.$.$.$.$.$.$.$.$.$.$.$.$. ., , , , , , , , , , , , , , < z z L f z z L f z z f z z L z f z f z f L z z z z z z f L z L z z f L f z z z f f z z z ) $.$.$.$.$.$.$.$.$.$.$.$.$.X.$.$.$.$.$.$.$.$.$.$.$.$.$.$.#.$.$.$.$.$.$.$.$.$.$.$.$.$.$.+.{ , , , , , , , , , , , , , , < f z z z z z z f L z L f z f L ",
"# # # # # # # # # # # # # # # # # # # O # # # # # # # # # O - R f z f L - L z z z L z L f f L z z f L f z z z z L f L z z f L f L f L f z z z f z z 4 o . . . . . . . . . . . . X X _ $.$.$.$.$.$.$.$.$.$.$.$.$.$.$.$.$.$.$.$.$.$.$.$.$.$.$.$.$.$.$.$.$.$.$.$.$.$.$.$.$.$. .$.< , , , , , , , , , , , , , , z z f L z z f L z z z L z L z # # # # # # # # # # # # # # # z L z f f L z L f z f z - z L X.$.$.$.$.X.$.$.$.$.X.$.$.$.$.$.$.$.$.+.$.$.$.$.$.$.$.$.$.$.a.v.v.a.v.v.v.v.p.v.r.v.v.m.r.% O # # # # # # # # # # # O $ c z L z z f L z L f z f z z L z z z z f z z L z L f z f L z z f z L f L z z f L f z z z L $.$.$.$.$.$.$.$.$.$.$.$.$.$.$.$.$.$.$.$.$.$.$.$.$.$.$.$.$.$.$.$.$.$.$.$.$.$.$.$.$.$.$.$. ., , , , , , , , , , , , , , < f L z z f L z z L f L z f L z L z L z L f z f L f L z L f z f z z L z z f L z L L z z n R $.$.$.$.$.$.$.$.$.$.$.+.$.$.$.X.$.$.$.$.$.$.$.$.$.$.$.$.$.$.$.$.$.$.$.$.$.$.$.$.$.$.$.+.( , , , , , , , , , , , , , , 1 c L f L f L f z z z f L z z z ",
"# # # # O # # # # # # # # # # # # # # # # # # O # # O # # + * - z z L z L z - L z L - L z f L f z L f L z z z z f z z L f z z L f L f L z z z L f z f o . . . . . . . . . . . . X   F $.$.$.$.$.$.$.$.$.$.$.$.$.$.$.$.$.$.$.$.$.$.$.$.$.$. .$.$.$.$.$.$.$.$.$.$.$.$.$.$.$.$.$.< , , , , , , , , , , , , , , f z z f z z L f z f - L L - z $ # # # # # O # # # # # # # # L f z z z z L z - L L z L z z X.o.o.X.$.$.$.$.+.$.$.$.$.$.$.$.$.$.$.$.$.$.$.$.$.$.$.$.$.&.v.j.v.v.j.j.v.v.p.g.v.v.v.v.6.% O O # # # # # # # # # # # $ L L f z z L f z z z f z f L z L f L f z f L z L z z z L f z z L f f z z L f z z L f L z ) $.| $.$.$.$.$.$.$.$.$.X.$.$.$.$.$.$.$.$.+.$.$.$.$.$.$.$.$.$.$.$.$.$.$.$.$.$.$.$.$.$.$.$.{ , , , , , , , , , , , , , , < z f z z L f z f f z z L f L z z L z L z z f z z z z L z z f z f L f z z L f z z f L f z ) $.$.$.$.$.$.$.$.$.X.$.$.$.$.$.$.$.$.$.$.$.$.$.$.$.$.$.$.$.$.$.$.$.$.$.$.$.$.$.$.$.$.$.+.{ , , , , , , , , , , , , , , < f z L f L f L z L f z z L f z ",
"# # # # # # # # # # # # # # # # # # # # # # # # # # # # $ O * ! f L - L L z L z z z L z z L L z z f z z L f L f L z z f L z z z z z z z L f z f L z f o   . . . . . . . . . . .     ~ $.$.$.$.$. .$.$.$.$.$.$.$.$.$.| $.$.$.$.$.$.$.$.$.$.$.$.$.$.$.$.$.$.$.$.$.$.$.$.$.$.$.$.< , , , , , , , , , , , , , < 4 z z L f L z z z L L z L Q - # # # # # # # # # # # # # # $ f L f L f L f z L z z z z L Q X.#.o.$.$.$.$.$.+.$.$.$.$.$.$.$.$.$.$.$.$.$.$.$.$.$.$.$.+.%.j.v.v.v.v.v.v.v.v.v.v.g.v.v.r.$ O + + # # # # O # # # # # # z z z f L z z f L z L z L f z z z z z z L f z f z f L z z f L z z L z z f L z z f z z z R $.$.$.$.$.$.$.$.$.$.$.#.$.$.$.$.$.$.$.$.$.$.$.$.$.$.$.$.$.$.$.$.$.$.$.$.$.$.$.$.$.$.$.$.} , , , , , , , , , , , , , , < z L f L z z z L L z z f z f f L f z f z z L f L f L f z z L z L z z f L z z f L z z L z Q $.$.$.$.$.$.$.$.$.#.X.$.$.X.$.$.$.$.$.$.$.$.$.$.$.$.$.$.$.$.$.$.$.$.$.$.$.$.$.$.$.$.$.O.{ , , , , , , , , , , , , , , 1 c z z z z z z z f L z z f L z ",
"# # # # # # # # # # + # # # # # # # # # # # # # # # # # + + * - z - L z - z L L L - L z L z f z z L z z f z z L f L f L f z L z z L z z z z z L f z * o . . . . . . . . . . . .   X ~ $.$.$.#.| $.$.$.$.$.$.$.$.$.$.#.$.$.$.$.$.$.$.$.$.$.$.$.$.$.$.$.$.$.$.$.$.$.$.$.$.$.$.$.< , , , , , , , , , , , , , , f z L z z z L f L z z L L - - $ # # # # # # # # # # # # # # z f z z z z L - z L z L z L L X.X.$.$.#.$.$.#.+.$.$.$.$.$.$.$.+.$.$.$.$.$.$.$.$.$.$.$.+.$.v.v.j.j.v.v.j.v.r.v.g.v.v.v.r.% O # # # # # # # # # # # # # L L z L z L z L z L f z z z f L f L f L z z z L f z f z f z f z f f L f L f L f L z L y R $.$.$.$.$.$.$.$.$.$.o.o.$.$.$.$.$.$.$.$.$.$.$.$.$.$.$.$.$.$.$.$.$.$.#.X.$.$.$.$.$.$.$.$.} , , , , , , , , , , , , , $ < L z z z L f L z f L f L z L f z z z L f L z z z z z z f L f z z L z L z L z L z z z f z ) $.$.$.$.$.$.$.$.$.$.X.$.$.$.+.$.$.$.$.$.$.$.$.$.$.$.$.$.$.$.$.$.$.$.$.$.$.$.$.$.$.$.$.+.( , , , , , , , , , , , , , , < f f L z L f z z z z z z z z z ",
"# # # # # # # # # # # # # # # # # # # # # # # # # # # # + + * - L L L z L L - L L L L - L f L z z f L f L z z f z z z z - f f f f f f f f f f - f f & o   . . . . . . . . . . . X X ( #.$.$.X.X.$.$.$.$.$.$.$.$.$.$.$.$.$.$.$.| $.$.$.$.$.$.$.$.$.$.$.$.$. .$.$.$.$.$.$.$.$.$.< , , , , , , , , , , , , , % f z f z f L z z f z z z z L z # # # # # # # + # # # # # # # z L f L f L z L z z z z L - L X.X.X.X.o.X.} o.X.$.} $.} +.+.$.#.$.$.$.$.$.$.$.$.#.$.$.#.&.v.v.v.v.v.v.v.v.v.v.v.v.v.m.p.% O # # # O # O # # # # # # $ L f z f z f z f z z z f L z L z z z z f z f L z z z L z L z L z L z z z z z z z z z f y R $.$.$.$.$.$.$.X.#.X.o.o.| $.$.$.$.$.$.$.$.$.$.$.$.$.+.$.$.$.$.$.X.$.o.X.$.$.$.$.$.$.$.X.} , , , , , $ < , , , , , , , 4 f z f L z z f z z z z z L c z z f L z z f z f L f L z L z z f L f z f z f z f z L f L z Q $.$.$.$.X.$.$.$.$.$.X.$.$.$.$.$.$.$.$.$.$.$.$.$.| $.$.$.$.$.$.$.$.$.$.$.X.$.$.$.$.$.$.+.} , , , , , , , , , , , , , , 1 L z z z f L z L f L f L f L f ",
"# # # # # # # # # # # # # # # # # # # # # # # # # # # # @ @ & * : : $ & : : $ & & & $ : : - - L z L f L f z z L L z z z ' ] ] ] ' ' | ' ' ] ] ' | ' ' o   . . . . X . . . . . . . . y | | ] | | } } | } { | | | | } | | } ] | } | | | | | | | | } } | | | | | } | } } } ' | | 4 < < < 1 < < < 1 , < < < < < f z L f z f z z L f L z L z L $ $ # $ # $ $ # $ $ # $ # % $ u 4 u : : - : u : : : z - - f %.#.&.&.&.*.%.%.%.%.%.%.%.%.%.) ) { ) _ { { ( { _ _ { _ _ { <.<.<.<.<.<.<.=.=.<.=.<.<.<.&.: # $ $ $ $ $ $ $ # $ # $ # $ f z f z f z f z f L f z z L z L f L f z f z z L f L z L z L z L z L z L z L z L z z L z R | | $.X.| X.X.| X.X.X.X.X.| | | X.| X.|  .} X.X.| X.X.| X.X.o.| | X.X.| X.X.X.X.| o.X.| | < < < < < % < < , 4 < < < < < f z z f z z L f z z z z z f L z z z L f z f z z z z L z L f z z z f z f z f z f f z z L R | | | | | | | | ] | | } ] } ] | ] | | | | | } | | | | } | ..' | ] | | | | | } | | | | | ) < < < < < % , , < < < < < < : z z z z L f z f L f L L z z L ",
"# # # # # # # O # O # # # # # # O # # # # # # # O # # # @ + . . . . . . . . . . . . . . . : ! - z f z z L z z f z z L L r.v.v.v.v.v.v.v.v.v.v.v.v.v.r.O . . . . . . . . . . . . . . % n L z z z f f L z f z z z z z c f z f L z z z z z z z z z f f z z z z z f f L f f f f z z f z f z z n y z z z L z f f z z z z z L f L z z - L L z * L z L L L L L z f L L L L L f # # # # # # # # # # # # O O # 4.v.v.j.r.x.g.v.g.g.v.v.a.v.g.$ # # # # # # # # # # # # # O $ O # O $ O # # O # # O # O $ - L L z L z z L L L L z L z L L z L z L z L z L z z f L f z z z z z z L f L z z f z f z f z f z f z f z f z f z z f z L z L z z f L z L L z z L L z z L L z L z n n z z f L z L z L L z f L z L z z z - z z L z z L z z f L z z z z z z z z L z L L z L f L z z L f L f z L z z f L z z z L f L f L f z z z f L z L z L z L z L L z z f z z z z z z z z z z z f z z z z f L z z z z z f z z z z f f n f f L z z z z z f z z z z z f f L z f f L W < z z z z z z L z L f z f L z z z z z - z L - ",
"# # # # # # # # # # # # # O # # @ @ O # # # # # # # @ @ @ + X . . . . . . . . . . . . . . - L L z L z z f L f L z L z z r.v.v.g.j.v.j.v.r.v.p.v.g.V.r.O   . . . . . . . . . . . . . % R f z f L f z z z f L z L L f L f z z z z z z L f z z L f f z z z L z z z z z z f z f z f n z f z z z f z z z z z f L z L L f L z z f z f L z - L c z f L z z f z z L z z L z f f # # # # # # # @ # # # # # # # 6.v.v.v.v.g.v.v.v.v.v.v.v.n.g.$ O # # # # # # # # # # # # O $ # # O O O O # # # # # # O $ - L z L - L z - L z L f L z z z L f z z L f z z L z L z z f L f L f L z z f z f z z L f z z L f z z L f z z L f z z z z L z L z z z z f - L z - z L L L z z L f L z z z z z z f L z - L z z z f L z L z L f L z z f z L z z z f z z L L z z z z L - z f z f z f f z z L L c L f z f z f L z z z z z z f L z L z L f z z L f z z f L f L z f z L L f L z L L f L z f z L z z z f L z z z L f L z z c z L z z z f L z z z L f L z L z n z z z z z < u z z L z L z f z f L z z z z z L - L L z z L ",
"# # # # # # # # # # # # # # # # + + $ # # # # # # # @ @ @ + X . . . . . . . . . . . . . . : Q - z f L f z z z z z z z z 9.v.v.g.v.v.j.v.v.v.v.v.v.V.r.O . . . . . . . . . . . . . . % z L z z z f z z z z z z f z z f L L f L f f L z z f L z z n z z z f z f L f L z L z L z L z z L z z L L z z z L f z z z f z z f z z L z L - z L z L z z z L f L z z f L f f z z f # # # # # # # # # # # # # # # 4.v.v.v.p.m.g.g.v.p.v.v.r.V.g.$ # # # # # # # # # # # # # O O # O O $ $ O # # O # # # O # - L z z L z z L f L z z L z f L z z f L z z f L f z f z z L z z z z f z z L z L f L z z f L z z f L z z f L z z L f L z f z L z f L z L L z z L z z - L z L z z z z L z f L z L z z L z f L z L - z L z z z f z z L z z f L z L z z z z L z L L c L z L z L z L L z z z f L z z z L z L f z f L f L z L f z f z z z f L z z f L z z z z z L z z z z f z z z z z z L z z f L z L f z f L z z f z L L z z f L z L f z f L z z f z L z z f L z f L W W z z - z L z L z z z L f L f z f L z z L z L ",
"O # # # # # # # # O # # # # # # # # # # # # O # # # # # @ + . . . . . . . . . . . . . . . : L z z L f L z z z z L z L z 9.m.m.v.v.j.v.v.a.v.v.v.v.v.y.O     . . . . . . . . . . . . & z z z f z f L f L z z z L f z L z L z L z z f z z L f z f L z L z z f z z z z L z z f z f z z L f f z z z f L f L z z z L L f z f L z L z L z L z L f f z f z z L f z z L z z z f # O # # # # # # # # # O # # # r.v.r.v.v.p.v.v.r.v.r.v.v.v.g.$ # # # # # # # # # # # # # $ $ O O # # # # # # # O # # # $ - L z z L z L z z f z z z z L z L z L f z z L z z f z f L z L f L f z f L z L z z f z z L f z f z f z z L f z f z z z L z f z z z z L z z f z f L L - L L f z f z L z z L f z z z L z z L f z z L z L z L z L f L f z z L f z z z z z z f L c z c z L z z z z z f L f z z L f f L z L z z f z z z z L z z f z f L z L f z z L z z f z f L z L f L f z f L z L z L f z z L f z z z z L f z z L f f L z z L f z z z z L f z z L f c z z z z z L z z f z f L z z L f z z z f L f L z z z L L z z z ",
"# # # # # # # # # # # # # # # # # # # # # # # # # # # # @ + X . . . . . . . . . . . . . o - L L z f z z L f L f - L L z 9.m.g.v.v.v.v.a.v.v.r.v.g.v.9.O   X . . . . . . . . . . . . & z z L L z z z z z L f z f L z c z f z f z z L f L z z z L f z f z z L f L f L f z z L z L L z z z L z L f z z z z L f z f z z z L f z f z z L - L L z L z L z z f L z z f f L z f # # # # # # @ # # # # # # # # 4.v.v.v.v.v.v.v.v.v.v.v.v.n.g.$ # # # # # # # # # # # # # O O # # # # # # # # # O # # # O - L z L f z f z z L f L f L f z f z z z f L f z z L z L f z z z z z z L f z f z z L f L z z z L z L f L z z z L L L z z z L f L f L f z z L z L z z f L z z z L z z f L z z f L L - f L z z f L z L - L L z z L z z f L z z f L L f L f z z L z L z - L L f L f z z L z z f z L f z f z z L f L f L f z z L z L f z z z f L f z z L z L f z z z z z z L f z f z z z f L z z f L f L z z f L z z z f f L z z f L f L z z f L z z L f f L f L f z z L z L z L L - L z L f z z z z L f z f z z L z ",
"# # # # # # # # # # # # # # # # # # # # # # # # # # # # @ + . . . . . . . . . . . . . . . : z z z L z z f z z L z z - L 9.m.v.v.a.v.a.v.r.v.v.v.v.v.9.O   . . . . . . . . . . . . . % L z L z z z L f z f L z L f z L z z z L f L z z z L f L z z z L f L z z z z z z f L f z z z f L f f z f L z L f z f L z L L f L z z z L f z L z z c L z z f L f L f L f L z f L f # # # # # # # # # # # # # # $ 7.v.v.v.v.v.v.v.v.v.v.p.v.g.g.$ O # # # # # # # # # # O O O $ # # # # # # # # O $ # # # $ - L L z z z L f L z z z z z z f z f L f z z z f L f z z z f L f L f L z z z L f L z z z L f L z L z z z L f L z - L L z L z z z z z z f L f z z L - z L L f L z L z L z L z L z z z L z L z L z z L z z - L z - L z L z L z L z f z z L z L * L f z z z f z z L z z f z z L L z z z L f L z z z z z z f L f z z z f L f z z z f L f z z z f L f L f L z z z L f L z L z L z L z z f z f z f z f z L f z L z L z z f z f z f z f z z n z z z z f L f z z L - z L f z f L z L f z f L z L z L z z ",
"# # # # # # # # # # # # # # # # # # # # # # # # # # # # @ + o . . . . . . . . . . . . . o : L L z f L f L z z f L f L z 6.v.v.p.v.v.v.v.v.v.p.v.v.v.p.O   . . . . . . . . . . . . . & z L - L f z f L z z z z f L z c z f L z z f z f L z z f z f L z z f z f L f L z L z z f L z L z z L z z z z f L z z z z f z z f z f L z z L - L z L - L f z z z z z z z z z L f f # # # # # # # # # # # # # # # 4.v.v.p.v.v.r.p.v.v.r.v.v.V.g.$ O # # # # # # # # # # # $ O O # # # # # # # # # # # # # O - L f z f L z z f z f L f L z L z L z z f L z L z z f L z L z z z z f z f L z z f z f L z z f z f z f L z L - z L z z z f z f L f L z L z z f L z L z c z z f z f z f z f z f z L z - L f z f z L - L z L z z L f z f z f z f z L z z f L - L L L f L f L z z f L f L z f L f z f L z z f z f L f L z L z z f L z L z z f L z L z z f L z L z z z z f z f L z z f z f z f z f z z L z L z L z L L c z z f z f z z L z L z L z L L f R z f L z L z z f L z L z z L z z z z f L z z z z f z z z z ",
"# # # # # # # # # # # # # # # # # # # O # # # O # # # # # O o . . . . . . . . . . . . . o : L z z L z L f L f z f z z z 6.n.v.v.v.p.v.v.v.v.v.v.v.v.9.O . . . . . . . . . . . . . . & L L z L z z L f z z z z L L f L z L f z z L z L f z L f L f z z L f L f z f z z z z L f z z z z L L f z f z z L f z f z z L f z f z z L f z f z f L f z f z f z f z f z f z z Q - # # # # # # # # # # # # # # $ 4.n.v.v.j.v.v.g.a.v.v.v.v.v.r.$ @ # # # # # # # # # # # # # # # O # # # # # # # # # # # # L L z z L z L z z z L z L f z z L f z z L z L f L z L z L f z z L z L f f z z z z L f z z z z L L f z f z z L f z f z z z L f L f z z L f L f z z z L f z z L f L z L z L z L z L z L z L z L z z f z f z f z f z f z f z f z f f z z L f L c z c z L z L f z z L z L f z L f f z z L f z f z z z z L z L f z z L z L f L f z f z z L f z f z z L f z f z z L f z z z z z z z z z z z z z z z z z f L z L z L z f L f L f L f L c z n z z z z L f z z z z L f z z z z L f z z z z L f z z z z L ",
"# # # # # # # # O # # # # # # # # # # # # # # # # # # # # O o . . . . . . . . . . . . . . - L z z z z f z z L z L z L f 6.n.j.v.v.v.v.r.r.v.p.v.v.v.r.O . . . . . . . . . . . . . . $ L f z f z z f L z L f z f z L f z z z f L f z z z z f z z L z z f z z L z L z L f z f L z L f z f z z z L f L z z z L f L z z z L f L z z z L z L f L z L z L z L z L z L z z - - # # # # # # # O # # # # # # # 4.n.v.v.v.g.v.v.v.r.v.v.r.p.v.% O # # # # # # # # # # # # # # # # # # # # # # # # # # # # z L L z - L L z f L f z z z f L z z f L f z z z - L f z z z f L f z z z L z L f z f L z L f z f z z z L f L z z z L z L z f z z L z z f z z L z f L f L f L z z f z f z f z f z f z f z f z f z z L z L z L z L z L z L z L z L L z z f z z L z L z - L z z f L f z z z z f z L f L z z z L f L f L f z z z f L f z z z z z z L f L z z z L f L z z z L f L z z L f L f L f L f L f L f L f L f z L f z f z f z z z z z z z z z L z n z z L z z L z L f z f L z L f z f L z L f z f L z L f z f ",
"# # # O # # # # # # # # # # # # # # # # # @ @ @ # # # # $ O . . . . . . . . . . . . . . . - L L L L f L z z f z f z f L r.m.v.v.v.r.v.v.v.v.r.v.g.v.r.O   . . . . . . . . . . . . . $ L z z L f z z z z f L z L L - * L L z L z z f L f z L z z f L f L z z f z f z f L z z z z f L z L L f L z z f z f L z z z L f L z z f z f L f z z L f z z L f z z L f z z z z W - # # # # # # # # # # # # # # $ 4.v.v.j.v.g.v.v.v.v.v.p.v.v.g.$ O # # # # # # # # # # # # # # # # # # # # # # # # # # # # - L z z L z - L z z z f L z L z L z L z z f L f z z - L L z L z z f L f f z L z z z z z f L z L L f L z z f z f z L z L z L z L f L f L z z f z z z z f z f z f z z L f z z L f z z L f z z L f L f z z L f z z L f z z L f z z f L f L z L * L c z L z L z L z z f L f z L L z z f z f L z z z z z z f L z L z z f L f L f L z z f z f L z z z L f L z z f z f f z z L f z z L f z z L f z z L L c L f z z L f z L f z z L f z c z z f z f L f f z f L z z z z f L z L - L L z z z z z f L z L ",
"# # # # # # # # # # # # # # # # # # # # # # @ @ # # # # O # . . . . . . . . . . . . . . . : z z z z z z L f L z L z z z r.m.v.j.v.v.v.p.v.v.v.v.v.v.4.O . . . . . . . . . . . . . . % L f L z z L f L f z z z f z L L z f z f z z L z z L - L L z z z z L f L z L z z z L f L f z z z f z z f L z L z L f z f L z z f L z L z L z z z f L z f L z z f L z z f L z L W W # # # # # # # # # # # # # # $ 4.v.v.j.v.v.v.g.g.v.v.v.v.v.v.$ O # # # # # # O # # # # # # # # # # # # # # # O # # # # # - L z L - z L z f L z L f z f z f z f z z L z z L z L z f z f z z L z z L z z z L f L f z z z f z z f z z L z L z z L - z f L - z z z z L f L z f L z L z L z L f L z z f L z z f L z z f L z z z z f L z z f L z z f L z z f L z z z z L - L L L z f z f z f z z L z z f L f z z L z L f z f L f L z L f z f z z L z z z z f z z L z L f z f L z z f z z L z L L z z f L z z f L z z f L z z f f L z z f L z z z f L z z f L z L f R f z L z z L z z z L f L f z z z f L z z L L f L f z z z f ",
"# # # # # # # # @ # # # # # # # # # # # # # @ @ # # # # # O o . . . . . . . . . . . . . . : L z L z L z f L f z L z z L 6.v.v.v.v.v.v.v.v.v.v.v.v.v.r.O   . . . . . . . . . . . . . : L L - L f L z L z z z z L z z L L f L - L L f z z L - L z z f z L f L f z f z z z z z z z z L z L f z L - L z L z z f z z z L z - L z z z L z L f c z L z L z L f z z L z z z L - # # # # # # # # # # # # # # # 9.v.v.v.j.m.g.v.v.v.v.g.n.v.g.$ # # # # # # # # # # # O # # # # # # # # # # # # # # # # # - L z z L z z L L z L z z z z L z L L z L z L f z L z z z L L z L f z L z z z L L z z z z z z L L - L f L z L z L - L z L z z L L z L z f L f z z z L f L z L z z f z z L f z f z f z z y n z L L z L f z z L z L z L f L z z z z L - L f L c z L f z f f L f L L f z L z L z L f L - L z f z z z z L z f L f L L f L f z z L f L z L z z f z z L - L f L z L z f L f z z L - L f L f z z L - L z c z z z L z f z z z L z L z z L z L z L z L f - L z z L z z n z L L f z z L - z L z z z z z L ",
"# # # # # # O # + # # # # # # @ # # @ + # # @ O # # # @ # O X . . . . . . . . . . . . . . - L L f L - L z z L z z L L - r.v.v.v.v.p.v.r.v.n.v.a.g.v.9.O . . . . . . . . . . . . . . : L z L z L f z f z L f z f L z * L z z L z z z L L z L - L z L z z z z L z L z L f L L z z z f z L L z z L f z f z z L f L L - z L z z L L f z z z L z f z f z z z L z f z L z L - # # # # # # # # # O # # # # $ 9.v.j.v.v.g.x.g.v.g.g.v.g.v.g.$ @ # # # # # # # # # # # # # # # # # # # + # # # O # # # # - - L L z L L - - L f z L L z z z z z z f z z z z L z L z z z z z z z L z L z L z z L z L f z f z z z L f L - L z L - L L z z z f L - L z z L z L - f L f z f z z L f L z z z L z L f L f f z z f z z z L z f z f z z z z z L z z z L z z z L z L z z L z z z z z z L - L * z L z z L z z L f L f L f z z z z z z z z z f L z f f z f L z L f L z z z L f L - z z z L z L L L z z z L z L L L z z L f L n f z L L f z f z n z L c z f z f z z z L z L f z z L y z f z z f L z z L - L L L f z f ",
"# # # # # # # # # # # # # # @ @ # # # @ # @ # @ # $ @ # + + X X . . . . . . . . .   . . . - L - L f * L c L c L L - - L r.V.n.n.V.V.v.V.V.V.V.V.V.V.p.O   . . . . . . . . . . . . . $ L * L L L L f L c L c L c L f L * L c L c L L c * L L c z c f c c c c - c c c c c - c f z z L z z f z z - z z f z L z z z z L z f z L z z z z L f f z L z z z L f z z y f L - L - # # # # # # # # # # # # # # # r.V.v.v.v.V.x.V.V.n.v.V.n.v.v.$ O # # # # # # # # # # # # O + + O # # O O # O O # # O O O - L - L L - z L z z L - - L z z L z z L z z L f z z z z L z n z L z L z z z z z z L z z - L L c L c L c L f * L L - L z - L L L L f * L c L c L c L - f L f L f L c L f L f c L z z f f f f f f c L c f c c f L z z L f z z z z L - L z L z * L z z z f z L f z L z z L L L f - z L - L L - z z z z z z z L z L L L c c L L f L L f L - z c L f L c L c L f L c - L c z L * * L c L c L L * * L L L z f c f f f f c f f f f f f c z z L z z L f z z z f z L R f z z z L z z L L z z - L L - z L ",
"@ @ # # # # # # @ @ @ @ @ @ + O O O O O O O O O O O o O O O O + o O O o O O O O O O O o O - z L z z L z z z L - L z L z *.1.=.=.1.<.<.=.<.<.=.,.,.=.*.O   . . . . . . . . . . . . . : L L z z - z z z z f L z z * L L L z z z f f z z L f z z L | | o.| | o.| | $.| | | o.| } ) ` R ` R ` R ` ` R ` ` ` R Q Q ` ` L ` ` ` R Q Q ` ` R ` Q Q ` R ` ` R ` R ) ~ R ` ` ` Q # # # # o # # # # # # # @ @ # <.9.9.6.4.9.9.9.9.9.9.9.9.7.4.$ # # # @ @ @ @ @ @ @ @ @ @ + $ & % $ % % % & & & $ & % & % ! ` ` L ` ` ` R ! Q ` ` ! ` Q W L L z W Q n n R z W Q n R L n n L z L z L L Q z z L R L L L z z z L - L z z L z z L L z L z - L z z L z z z L - L z L L z z z f f L z z f L z z z Q X.| $.| | } | | | | o.| | | | Q R ` ' Q Q Q ` ` L ` ! R ` ` ` R ` ` ` R ) R R ` ` R ` L Q ` ` R ` ! ` ` R ` ` R ` ` R R z z f z z L f z z z z z L L - L z z z L - L z z z f L L L - z L L z z z L - z L L z f z ` | | $.| $.| $.| | | $.| | | | Q R ` ` R ` ` R ` ` ` R R R ` Q ` R ` R ` L R ` ` L ` ` ` R ",
"# O # # O # # # # # # # # # # o . . . . . . . . . . . . . . & - L c L L f L L c L c c L z f f L L L c L c L - L c * L L L f z f f z z L f L f z z z - o . . . . . . . . . . . . . X % Q - L L L L L c L c L f L * f L c c L - L f L L c L z n R v.v.v.v.v.v.a.v.a.v.v.v.v.v.g.#.$.$.$.$.$.$.$.$.o.#.$.$.$.$.$.$.$.$.$.$.$.$.$.$.| #.$.$.$.$.$.$.$.$.$.$.$.$.$.$.X.X.$.} O + # # # # # # # # # # # # # # # # $ # $ $ # $ # $ $ $ # # # # # # # # # # # # # # # O % 9.g.g.a.g.r.r.r.j.p.r.p.g.g.9.X.X.$.$.$.$.$.$.$.$.$.$.$.X.$.X.X.X.o.o.X.X.X.$.$.| #.$.$.| $.$.| $.$.| X.X.X.$.X.o.$.$.| R n z L c L L c L L c - L L L f L f L L L c L c L - L c * L L L f L L z L c L f L c L f ' v.v.v.j.v.v.n.n.v.v.v.v.v.j.y.} $.$.$.$.$.$.| #.$.$.$.$.$.$.$.$.$.$.$.$.$.$.$.$.$.$.$.$.} $.X.X.$.$.$.$.$.$.$.$.$.$.$.{ f z L * c L f L L c L L c L f L f L c * L L L c L L L c L f z c L - L f L L f L L c L * o.j.m.v.v.v.v.v.g.a.v.v.v.a.n.4.$.$.$.$.$.$.$.$.$.$.$.$.$.$.$.$.$.$.$.$.$.$.o.o.$.$.$.$.$.$.",
"# # # # # # # # # # # # # # # o . . . . . . . . . . . . . . * - z f - L z f z z f L z z z f L L f z L - L z L z z L - L z z z L L z z f z z L z f L f o . . . . . . . . . . . . . . : - z L L - f z z f L z z z L L L z L z L z z z f L z z n R r.v.v.r.g.v.v.v.v.v.v.a.v.a.g.$.$.$.$.$.$.X.$.$.o.o.$.X.$.$.$.$.$.$.$.$.$.X.$.$.$.| $.$.$.$.$.$.$.$.$.$.$.$.$.$.o.o.#.{ + # # # # # O # # # # # # # # # # # # # # # # # # # # O # # # # # # # # # # # # # # # O 4 p.n.v.v.v.v.j.v.v.v.v.v.m.m.9.o.#.$.$.$.$.$.$.$.$.$.$.$.$.$.$.X.$.X.#.$.$.#.| $.$.$.$.$.$.$.$.#.$.$.$.$.$.$.$.$.#.$.$.| n z z z z - L L - z z L z z - z z z f f z L - L z L z z L L - f L f z z f L z z z L - f ' v.j.v.v.v.a.v.v.a.v.a.v.v.n.9.$.$.$.#.X.$.$.o.o.X.$.$.$.$.$.$.$.$.$.$.$.$.$.$.$.$.$.$.$.$.$.#.o.$.$.$.$.$.$.$.$.$.$.$.{ z n L L z z z L - L f z L - L z z z z L - L z z - L z z f L z L z L f L f z z f z z L c o.n.j.m.j.v.v.v.v.v.a.v.v.v.n.4.o.$.$.$.$.o.$.$.$.$.$.o.$.$.$.$.$.$.X.$.$.$.#.o.$.$.$.$.X.$.",
"# # # # # # # # # # # # # # # . . . . . . . . . . . . . . . * R z L z z z f z f z z f z z L L - f L z L f z f L L z L z L f L z f L f L z z f z z z z o . . . . . . . . . . . . . . : L L z L L f L z L f z f L z L * L f z f L z L z z z L z R j.v.v.v.v.v.a.v.p.v.v.r.v.v.r.$.$.$.$.$.$.$.$.$.$.$.$.$.$.$.$.$.$.$.$.$.$.$.$.$.$.$.$.$.$.$.$.$.$.$.$.$.$.$.$.$.#.$.#.} # # # # # # # # # # # # # # # # # # # # # # # # # # # # # # # # # # # # O # # # # # # @ < j.v.j.v.v.v.v.v.v.v.g.v.g.m.9.$.$.$.X.$.X.$.$.X.$.$.$.$.$.$.$.$.$.$.$.$.$.$.$.$.$.$.$.$.$.$.$.$.$.$.$.$.$.$.$.| $.$.$.| z L z L f L z z f z f L z z L L f z L f L z L f z f L z z L L z z z f z z z z f L z L f ) v.v.a.v.a.v.v.v.v.v.v.v.a.n.9.$.$.$.} $.$.$.$.$.$.$.$.$.$.$.$.$.$.$.$.$.$.$.$.$.$.$.$.$.$.$.| $.$.$.$.$.$.$.$.$.$.$.$. .y n z L f z z L z z f L z L f z f L L z L z L f L z L z L z z f L f z z z f z f z f z c o.j.p.v.v.v.v.r.v.v.v.a.v.a.n.4.$.$.$.$.$.$.$.$.$.$.$.$.$.$.$.$.$.$.$.$.$.$.X.$.$.$.$.$.$.$.",
"# # # # # # # # # # # # # # # o . . . . . . . . . . . . . . - L z f L f z L z L L z L z z f c L z z z f L z z z f z f L z z f z z z z z L f L z L z z o . . . . . . . . . . . . . . $ L - L z z z z z f L z z z z - L L L z z z z f f L z z z R r.v.v.v.v.a.v.v.v.v.v.v.v.a.p.#.X.$.$.$.$.$.$.$.$.$.$.$.$.X.$.$.$.$.X.$.$.$.$.$.$.$.$.$.$.$.$.$.$.$.$.$.$.$.$.$.X.$.$.} # # # # # # # # # # # # # # # # # # # # # # # # # # O # # # # # # # # # # # # # # # # O < r.v.v.v.j.j.v.j.v.v.g.v.v.m.y.$.$.$.$.$.$.$.$.$.$.$.$.$.$.$.$.$.$.$.$.$.$.$.$.$.$.$.$.$.$.$.$.$.$.$.$.$.$.$.$.$.$.$.$.$.L L z z z f z z L z L - L z L z z z f z z z f L z z z L L L * f L z L L f L f z z z f f ' v.a.v.v.v.v.a.v.a.v.v.a.v.n.9.$.+.$.$.$.$.$.$.$.$.$.$.$.$.$.$.$.$.$.$.$.$.$.$.$.$.$.$.$.$.$.$.$.$.$.$.$.$.$.$.$.$.$.$.{ f y L - L z z f f L z z z f L z z z f z f L z z f z - L f z z L z z f L z L z L z L L - o.c.v.v.v.p.v.v.p.v.v.v.v.v.n.4.$.$.$.$.$.$.$.$.$.$.$.$.$.$.$.$.$.$.$.$.$.$.$.$.$.$.$.$.$.$.",
"# # # O # # # # # # # # # # # o . . . . . . . . . . . . . X - L z L f L z z z z f L f z L f L z z L f z z L f z z z L f z z L f z z z z f L f z z L - o . . . . . . . . . . . . . . & L f L f L z L f z z L f z L f L f z L f z z z z L z z L R r.v.p.v.a.v.a.v.g.v.v.v.V.g.s.#.$.$.$.$.$.$.$.$.$.$.$.$.$.$.$.$.$.$.$.$.$.$.$.$.$.$.$.$.$.$.$.$.$.$.$.$.$.$.$.$.$.$.#.{ $ # # # # # # # # # # # # # # # # # # # # # # # # # # # # # # # # # # # # # # # # # # O % a.v.v.p.v.v.r.v.v.v.j.v.v.v.9.$.$.$.$.X.$.$.$.$.$.$.$.$.$.$.$.$.$.$.$.$.$.X.$.$.$.$.$.$.$.$.$.$.$.$.$.$.$.$.$.$.$.$.$.| n z z L f z f z L z z L f z z z L f L z L f z z L f z - L z L f z z z f L f L z z z L 4 ' v.v.v.v.v.v.v.v.v.v.a.v.a.v.9.#.+.$.$.$.$.$.$.$.X.$.$.$.$.$.$.$.$.$.$.$.$.$.$.$.$.$.$.$.$.$.$.$.$.$.$.$.$.$.$.$.$.$.$.] - z z z z L z z L z z L f z z L f z z z L f z z L f z f z f L z L f L z L z L z z L L - X.v.v.v.v.v.p.v.v.v.v.v.v.v.n.4.$.$.$.o.$.$.$.$.$.$.$.$.$.$.$.$.$.$.$.$.$.$.$.$.$.$.$.$.$.$.",
"# # # # # # # # # # # O # # # X . . . . . . . . . . . . . X - L z f z z L f L f z z L z z L f z z f L z z f L z f L z z f L z z L f L f z z L z z L - o . . . . . . . . . . . . . . & - z z z z z f L z z f L z z z L - z f L z L f z f L z f R r.v.v.v.v.v.v.v.v.v.p.v.g.g.s.$.$.$.$.$.$.$.$.$.$.$.X.$.$.$.$.$.$.$.$.$.$.X.$.$.$.$.$.$.$.$.$.$.$.$.$.$.$.$.$.$.$.$.$.} # # # # # # # # # # # # # # # # # # # # # # # # # # # # # # # # # # # O # # # # # # # O % v.v.v.v.v.v.v.v.j.v.v.g.v.v.9.$.$.$.$.$.$.$.$.$.$.$.$.$.$.$.$.$.$.$.$.$.$.$.$.$.$.$.$.$.| $.$.$.$.$.$.$.$.$.$.$.$.$.$.$.n L z z z z L L - L L z L z L z f z z z f L z z f L z L z f L z z f L z z z z L f z f f ' v.v.v.a.v.a.v.a.v.a.v.v.v.v.9.} +.+.X.$.$.$.$.$.$.$.$.$.#.$.$.$.$.$.| $.$.$.$.$.$.X.X.$.$.$.$.$.$.$.$.$.$.$.$.$.$.$.$.| c z L f z f f L f z z f L z z f L z f L z z f L z z z L z L f z z z - L f z - z L - L - o.j.v.p.v.r.v.v.v.r.v.p.v.v.n.4.$.$.$.$.$.$.$.$.$.$.$.$.$.$.$.X.$.$.$.$.$.$.$.$.$.$.$.$.$.$.",
"# # # # # # # # # + + # # # # o . . . . . . . . . . . . . . & L z L z z f z z L z z f z L - L L z z z z z z z z z f z f z f z f f z z L z z f z z z - o . . . . . . . . . . . . . . $ L z L f z z z z z z z z z L z L L z z z z f L z L L z z R p.v.v.v.v.p.r.v.v.g.v.g.v.v.p.#.$.$.$.$.$.$.$.$.$.$.$.$.$.$.$.$.$.$.$.$.$.$.$.$.$.$.$.$.$.$.$.$.$.$.$.$.$.$.$.$.$.$.$.} # # # + # # # O # # # # # # # # # # # # # # O # # # # # # # # # # @ # # # # # # # # # # < p.v.v.v.v.v.v.v.v.p.v.g.v.V.9.$.$.$.$.$.$.$.$.$.$.$.$.$.$.$.$.$.$.X.$.$.$.$.$.$.$.$.$.$.$.$.$.$.$.$.$.$.$.$.$.$.$.$.$.| L z z L f L z z z L z z L z L z L z L z z z z z z z z f L f c L z L z z L f z f L z L f ' v.p.r.v.v.v.a.v.v.v.j.v.j.v.9.#.$.$.$.$.$.$.$.$.$.$.$.$.#.$.$.$.$.$.$.$.$.$.$.$.$.$.$.$.$.$.$.$.$.$.$.$.$.$.$.$.$.$.$.} c L f L z L z z z f z z z z z z z z z f z f z f z f L f z z z f L f z z - L L z z L L - X.v.v.v.v.v.v.v.v.p.r.v.v.r.n.4.o.o.$.$.$.$.$.$.$.o.$.$.$.$.$.$.$.$.$.$.$.$.$.$.$.$.X.$.$.$.",
"# # # # # # # # O $ @ # # # # o . . . . . . . . . . . . . . : L z f L f L z z f L f L z z z c - L f L f L f L f z L z L z L z L L z z f L f L z z z z o . . . . . . . . . . . . . . : L z f L z L f L f L f L f f z c z L f L f z z z f z z z Q r.v.r.v.v.v.v.v.v.g.v.v.v.g.g.$.$.$.$.$.$.$.$.$.$.$.$.$.$.$.$.$.$.$.$.$.$.$.$.$.$.$.$.$.$.$.$.$.$.$.$.$.$.$.$.$.$.$.#.$.# # # # # # # # # # # # # # # # # # # # # # # # # # # # # # # # # # # # # # # # # # # O % r.v.v.v.r.p.v.v.r.v.v.m.g.m.p.$.$.$.$.$.$.$.$.$.$.$.$.X.$.$.$.$.$.$.$.$.$.$.$.$.$.$.$.$.$.$.$.$.$.$.$.$.$.$.$.$.$.$.$.| L z L z z f L - L - L z z L - z f L - L f L f L f L f z z z L f z f z z f L z z z z f f ' v.v.v.v.v.a.v.v.j.v.v.v.j.v.9.$.$.$.$.$.$.$.$.$.$.$.$.$.| $.$.$.$.$.$.$.$.$.$.$.$.$.$.$.+.$.$.$.$.$.$.$.$.$.$.$.$.$.$.{ - z z z z f f L z L L f L f L f L f z L z L z L z L z z f L z L z z L z L z z L L L L - X.v.r.v.p.v.r.v.v.v.v.v.v.v.n.4.o.o.$.$.$.$.$.$.$.$.$.$.$.$.$.$.$.$.$.X.$.$.$.$.$.$.$.$.$.$.",
"O # # # # # # # # # # # # # O o . . . . . . . . . . . . . . & L z L f L f z z L f L f z L z L L z z z z z z z z z f z f z f z f f L f z z z L z L f 4 o   X   . . . . . . . . . . . % - L z z L z z z z z z z z L z L f f L f L z z z L L f z R j.v.v.v.v.v.v.r.v.r.v.v.p.v.p.$.$.$.$.$.$.$.$.$.$.$.$.$.$.$.$.$.$.$.$.$.$.$.$.$.$.$.$.$.$.O.$.$.$.$.$.$.$.| $.$.O.O.#.{ $ # # # # # # # # # # # # # # + # # # + # # # # # # # # # # # # # # # # # # # # # # # O & g.v.v.v.g.v.v.v.v.v.v.v.g.m.9.$.X.$.$.$.$.$.$.$.$.$.$.$.$.$.$.$.$.$.$.$.$.$.$.$.$.$.$.$.$.$.$.$.$.$.$.$.$.$.$.$.$.$.$.} n z z L - L z z L f z z z z L L z L L f L f L f L f L L z f L f L f L z z z L L f z f f ' n.g.v.v.v.a.v.v.a.v.a.v.v.v.4.$.$.$.$.$.$.$.$.$.$.$.$.$.$.$.$.$.$.$.$.X.$.$.$.$.$.$.$.$.$.$.$.$.$.$.$.$.$.$.$.$.$.$.$.} z z z z z L z z L z f L f L f L f L f L f L f L f L L z L f z z L z L f z z L z L f z * o.c.c.j.v.v.j.j.v.v.v.a.v.a.v.4.$.$.$.$.$.$.$.$.$.$.#.X.$.$.$.$.$.$.$.$.$.$.$.X.$.$.$.$.$.$.",
"# # # # # # # # # # # # # # @ o . . . . . . . . . . . . . . : L z f z z L z z f z z L z - L c z L f L f L f L f z L z L z L z L z z L z f L f z z z f o X   . . . . . . . . . . . . % Q z L L - L f L f L f L f f z f L z z z z L f z f z z z R a.v.a.v.a.v.v.v.v.v.v.v.v.v.g.#.$.$.$.$.$.$.$.$.$.$.$.$.$.$.$.$.$.$.$.$.$.$.$.$.$.$.$.$.$.O.$.$.$.$.$.$.$.$.$.$.O.#.+.+.# # # # # # # # # # # # # # # # # # # # # # # # # # # # # # # # # # # # # # # # O # # @ < g.v.v.v.v.r.v.v.p.v.r.v.g.v.9.$.$.$.$.$.$.$.$.$.$.$.$.$.$.$.$.$.$.$.$.$.$.$.$.$.$.$.$.$.$.$.$.$.$.$.$.$.$.$.$.$.$.$.$.} f L z z z z L L - L z L f z z - L z z z z z z z z z z f z z c z z z z L f z f z z z L f ' n.j.v.g.v.v.v.a.v.v.v.v.j.v.7.$.$.$.$.$.$.$.$.$.$.$.$.| #.$.$.$.$.$.$.$.$.$.$.$.$.$.$.$.$.$.$.$.$.$.$.$.$.$.$.$.$.$.$.{ z n z z z z L z f z z z z z z z z z z z z z z z z z f z z z f L f z z z f L f z z z L L o.n.v.m.j.v.v.v.v.p.v.v.v.v.n.4.$.X.$.$.$.$.$.$.$.$.X.$.$.$.$.$.$.$.$.$.$.$.$.$.$.$.$.$.$.$.",
"# # # # # # # # # # # # # # @ o . . . . . . . . . . . . . X : L z L z z f L f L z z f z z z L z f z z L f z z L L f z z L f z z z z f z z z z f L z f o   . . . . . . . . . . . . . % - L - z L f z z L f z z L z z c z z L L z f L z L z L z ) a.v.v.v.r.v.v.v.v.p.v.j.r.v.r.#.$.$.$.$.$.$.$.$.$.$.$.$.$.$.$.$.$.$.$.$.$.$.$.$.$.$.$.$.$.O.$.$.$.$.$.$.$.$.$.$.O.O.O.O.# # # # # # # # O # # # # # # # # # # # + # # # + # # # # # # # # # # # # # # # # # # O % a.v.v.r.v.v.v.v.v.v.v.g.m.V.9.$.$.$.$.$.$.$.X.$.$.$.$.$.$.$.$.$.$.$.$.$.$.$.$.$.$.$.$.$.$.$.$.$.$.$.$.$.$.$.$.$.$.$.$.| z z z z L z L z z z z z z L - z z - L z L f z z L - L z z z L z L L z f L z L L f z z f ' v.v.v.a.v.a.v.v.j.v.r.v.v.v.9.$.$.$.$.$.$.$.$.$.$.$.$.$.$.$.$.$.$.$.$.$.$.$.$.X.$.$.$.$.$.$.$.$.$.$.$.$.$.$.$.$.$.$.$. .y n z f L f L z z z z L f z z L f z z L f z z L f z z f L f z z z L L z L z z f L f z - | v.j.j.v.v.p.v.v.v.v.a.v.j.n.4.$.$.$.$.$.$.$.$.$.$.$.$.$.$.$.$.$.X.$.$.$.$.$.$.$.$.$.$.X.$.",
"# # # @ # # # # # # # # O # @ o o . . . . . . . . . . . . X : L z f L L z z z z L f L z L L * L L z z f L z z L z z f L z z f L L f L z f L z L f z f o . . . . . . . . . . . . . . & Q z z L - L z z f L z z z f L L z z f z z z z z f z z z n a.v.v.j.v.v.v.p.v.j.v.v.v.v.p.$.$.$.$.$.$.$.$.$.$.$.$.$.$.$.$.$.$.$.$.$.$.$.$.$.$.$.| $.$.O.$.$.$.$.$.$.$.$.$.$.O.O.#.{ # # # # # # # # # # # # # # # # # # # # # # # # # # # # # # # # O # # # # # # # # # # O < p.v.g.v.v.p.v.r.v.p.v.x.g.m.y.$.$.$.$.$.$.$.$.$.$.$.$.$.X.$.$.$.$.$.$.$.$.$.$.$.$.$.$.$.$.$.$.$.$.$.$.$.$.$.$.$.$.$.$.$.R f L z L z z L f L f L L z L L z L z z f L z z f L z f L f L z f z z z z z f z z L L f ' v.j.v.v.v.v.j.v.v.v.v.v.p.v.9.$.$.$.$.X.$.$.$.$.$.$.$.$.$.$.X.$.$.$.$.$.$.$.$.$.$.$.$.$.+.$.$.$.$.$.$.$.$.$.$.$.$.$.$.{ f y z L z z z z L z z f L z z f L z z f L z z f L z z L z z f L z z f z f z z L z z L - X.v.v.v.v.j.v.v.v.p.v.j.v.v.n.4.$.$.$.$.$.$.$.$.$.$.$.$.$.$.$.$.$.$.$.$.$.$.$.$.$.$.$.$.$.$.",
"# # # # # @ # # # # # # # # # o . .   . . . . . . . .   . X % z z z L - z z z f f z z z L f * L f z z L z z L - L f z z z z z z f z z z L f z z z z u o   . . . . . . . . . . . . . : - - Q z L f z z L z z L f z f L f z L z z z L z z L z z R r.v.v.j.v.v.v.p.v.v.j.v.v.g.g.$.$.$.$.$.$.$.$.$.$.$.$.$.$.$.$.$.$.$.$.$.$.$.$.$.$.$.$.$.$.$.$.$.$.$.$.$.$.$.$.$.O.O.#.} # # # # # # # # # # # # # # # O # # # # # # # # # # # # # # # # # O @ # # # # O # # # @ < p.m.v.g.v.v.g.v.v.g.v.g.v.V.9.$.X.$.$.$.$.$.$.$.$.$.X.$.$.$.$.$.$.$.$.$.$.$.$.$.$.$.$.$.$.$.$.$.$.$.$.$.$.$.$.$.$.$.$.} n z z z z z z L z z z - L z L z z L L z z L - - L z z z z z L z L z z z L L z z L z z f ' v.v.v.a.v.v.j.v.v.j.g.v.a.v.9.$.$.$.$.$.$.$.$.$.$.$.$.$.$.$.$.$.$.$.$.$.$.$.$.$.$.$.$.$.$.$.$.$.$.$.$.$.$.$.$.$.$.$.$.} z z L f z z z z z z z z z L z L f z z z L f f z z z L f z z L z L z z z z z L z L f z f X.v.v.g.v.g.v.v.v.v.v.v.v.v.n.4.o.o.$.$.$.$.$.$.$.$.$.$.$.$.$.$.$.$.$.$.$.$.$.$.$.$.$.$.$.$.",
"# # # # # @ # # # # # # # # # o . .     .   .     .     . X & L f L c L L f L L c L f L z z L c L f L c f L c L c L c L f L L c c L f L f L f L L z z o X   . . . X . . . . . . . . : ! L - L L L f L c f L c L z f f f z z f f f f z z f f f R v.v.v.v.v.v.v.v.v.v.v.v.v.v.g.%.$.$.$.$.$.$.$.$.$.$.$.$.$.$.$.$.$.$.$.$.$.$.$.$.$.$.$.$.$.$.$.$.$.$.$.$.$.$.$.$.O.#.#.{ # # # # # # # # # # # # # # # # # # # # # # # # # # # # # # # O @ @ @ @ @ @ # O # @ @ O < g.V.m.v.v.v.m.v.v.v.v.v.v.V.9.X.#.$.$.$.$.$.$.$.$.X.#.$.$.$.$.$.$.$.$.$.$.$.$.$.$.$.$.$.$.$.$.$.$.$.$.$.$.$.$.$.$.$.$.| R z L Q z z L L z L z L L z z z L - L L c L L L c L c L c f f z z f f f - z z f f z z f ' v.v.v.v.v.v.v.v.v.v.v.n.n.n.r.$.$.$.$.$.$.$.$.$.#.$.X.$.#.X.$.$.#.$.$.$.$.$.$.$.$.$.| #.} $.$.$.$.$.$.$.$.$.$.$.$.$.$.] z W z L Q n z L Q z L L z L z z L f L c f L L c L c f L L L f - z z f f z z - f f f z z X.v.v.v.v.v.v.v.v.v.v.v.v.v.m.6.| #.$.$.X.$.X.$.$.$.$.$.$.$.$.$.$.$.#.o.$.$.$.$.$.$.$.$.$.$.",
"$ % $ $ % $ # % # % $ $ $ $ $ O O O O O O O o O O O O O O O f z L f L z f z L f z - L f L z L L z f - L L f L z L z z z L f L z z f z f z f z f z z f o       .     X   . . . . . . $ - L L L - z f f z L f L z z } | | | | | | | | | | | | $.| 4.4.4.4.4.4.4.4.4.4.4.4.4.4.,.$.$.$.+.+.$.$.$.} $.$.$.$. .$.$. .$.$.$.$. .$. .$.$.$.$.$.$.O.$.$.$.$.$.$.$.$.$.$.+.+.O.{ $ # $ $ , # , # # , # , $ # $ + # # + # # # # # # # # # # # % < < < < < < % % < % < < % W 9.a.g.r.g.p.p.r.p.r.g.r.g.g.9.$.$.$.$.+.+.+.+.+.$.$.$.$.$.X.X.$.$.$.$. .$.+.+.$.$.$.$.+. .+.+.$.$. .+.$.$.$.+.$.$.$.$.} u f 4 u 4 u u 4 u < < : u 4 u z z z z L z f z z L z z z z L | | | | | | | | | | | | | { #.4.4.4.4.4.4.4.4.4.4.4.4.4.4.=.$.$.+.$.$.$.+.$. .$.$.$.$.$.$.$.+.X.$.+.+.+.$.$.$.$.$.$.$.$.$.$.$.+.+.+.$.$.X.$.$.$.$.$.' , < f 4 u z z u 4 z 4 4 - f f f L z L z z z z L z z z f - L | | | | | | | X.X.| | | | | #.6.4.4.4.4.1.4.4.4.4.4.4.4.r.=.$.$.+.+.+.+.+.$.$.$.+.+.+.+.X.X.$.$.$.$.$.$.$.$.$.$.} $.$.$.",
"z n z z n z R z L z z L z z L z f f f z f f z z f : z z f L z f z z f z f L z z z L z L f c f z z L z z z z f z f z f L z z f z z L z L z L z L z L 4 o . . . . . .   . . . . . . . : - L - z L z L z z z z f z R v.V.n.v.n.n.v.v.v.n.n.n.n.n.v.%.| $.#.| $.$.| $.X.X.X.X.X.+.$.$.$.$.$.$.$.$.$.$.$.$.$.$.$.$.$.$.$.$.$.$.$.$.$.$.$.$.$.$.$.$.$.$.$.$.$.$.$.$.$.O.O.#.} < , , , , , , , , , , , , < < # + + + + + + + + + + + + O % r.a.g.r.r.g.a.a.g.a.a.g.r.g.9.$.$.$.$.$.$.#.$.$.$.#.$.$.$.$.$.$.$.$.$.$.$.$.$.$.$.$.$.$.$.+.$.$.$.$.$.$.$.$.$.$.$.$.$.$.+.$.$.$.$.$.$.$.$.$.$.$.$.$.} < , , , , , $ < $ , , % $ , < z L L z f z f L z f L L z z ] v.v.v.n.v.n.v.V.n.v.v.n.n.n.7.$.$.$.$.| | $.$.$.$.$.| $.$.$.$.$.$.$.$.$.$.$.$.$.$.$.$.$.$.$.$.$.$.$.$.$.$.$.$.$.$.$.$.$.$.$.$.$.$.$.$.$.$.$.$.$.$.$.) , , $ , , $ $ , , $ , , , $ 1 z f z f z f L z f L f z L z | n.n.V.n.n.n.v.v.n.v.n.n.m.V.9.X.X.X.$.$.| $.| $.| $.| $.| $.$.$.$.$.$.$.$.$.$.$.$.$.$.$.$.$.$.$.$.$.$.X.$.$.$.$.$.$.$.$.",
"z z L z L L - L f z z z z L f z f L f L f L f L f z z z L z L c L f z f z z L f L z L z L z L z L f z z L z L f L f z f z z L f L z L z L z L z z L z o X . . . . . . . . . . . . . : L z f z f L f z z L z L f ( g.v.v.g.v.v.p.v.v.v.v.p.v.v.r.#.$.$.$.$.$.$.$.$.$.$.$.$.$.$.$.$.$.$.$.$.$.$.$.$.$.$.$.$.$.$.$.$.$.$.$.$.$.$.$.$.$.$.$.$.O.$.$.$.$.$.$.$.$.$.$.$.$.$.} < , , , , , , , , , , , , , , O # # # # # # # # # # # # O % r.v.v.v.v.v.v.v.v.v.v.v.v.v.r.X.$.$.$.X.$.$.$.$.$.$.+.$.$.$.$.$.$.$.$.$.$.$.$.$.$.$.$.$.$.$.$.$.$.$.$.$.$.$.$.$.$.$.$.$.$.$.$.$.$.O.$.$.O.$.$.$.$.$. ., , , , , , , , $ , , , , , < L z L z z z L f z f z z z c ' n.v.v.a.v.v.v.r.v.v.p.v.v.v.r.$.$.$.$.$.$.$.$.$.$.$.$.$.$.$.$.$.$.$.$.$.| $.$.$.$.$.$.$.$.$.$.$.$.$.$.$.X.$.$.$.$.$.$.+.$.$.$.$.$.$.$.$.$.$.$.O.O.#._ , , , , , , , , , , , , , , < z z z z L f L f z z L z z f | v.v.v.v.v.v.v.p.v.r.v.v.v.m.,.+.$.$.$.$.$.$.$.X.$.$.$.$.#.$.$.$.$.$.$.$.$.$.$.$.$.$.X.$.$.$.$.$.$.$.$.$.$.$.$.$.$.$.$.$.",
"L z - L z z L z L z L f z f L z z z z z z z z z z z f L f z f L z z z L f L z z f z f z - z c L z z f L f z z z z z z L f L z z f z f z f z f z z f 4 o     . . . . . . . . . . . . $ L z L z L z z f L f z z z R g.v.v.g.v.v.v.r.v.p.v.v.v.v.v.$.$.$.$.$.$.$.$.$.$.$.$.$.$.$.$.$.$.$.$.$.$.$.$.$.$.$.$.$.$.$.$.$.$.$.$.$.$.$.$.$.$.$.$.$.O.$.$.$.$.$.$.$.$.$.$.$.$.$.X., , , , , , , , , , , , , , , $ # # # # # # # # # # O # O % p.v.v.r.v.v.v.v.v.v.a.v.v.v.r.#.$.$.$.$.$.$.$.$.$.$.$.$.$.$.X.$.$.$.$.$.$.$.$.$.$.} $.$.$.$.$.$.$.$.$.$.$.$.$.$.$.$.$.+.$.$.$.$.$.$.$.$.$.$.$.$.$.|  ., , , , , , , , , , , , , , < f z f z f L z z z L f L z f ' n.v.v.v.v.p.v.v.v.v.v.v.r.v.r.$.$.$.$.$.$.$.$.$.$.$.$.$.+.$.$.$.$.$.$.$.$.$.$.$. .$.$.$.$.$.X.$.$.$.$.$.$.$.$.$.$.$.$.+.$.X.$.$.$.$.$.$.$.$.$.#.O.O.{ , , , , , , , , , , , , , , < z z L z f z z L z z f z f f ] r.v.p.v.v.v.v.v.v.v.v.v.g.V.9.$.$.$.+.$.$.$.$.$.$.$.$.$.$.$.$.$.$.$.$.$.$.$.$.$.$.$.$.$.$.$.$.$.$.$.$.$.$.$.$.$.$.$.$.$.",
"z z z z z z f z f z f L z z z z z L f z z L f z L z L z f L z L L f L z z f z f z z L f L z L - L z L z z f L f L f L z z f z f z z L f z z L f z z f o . . . . . . . . . . . . . . $ L L f z z L z L z z f L f Q a.v.g.v.v.v.v.v.v.r.v.v.v.v.g.%.$.$.$.$.$.$.$.$.$.$.$.$.$.$.$.$.$.$.$.$. .$.$.$.$.$.$.$.$.$.$.$.$.$.$.$.$.$.$.$.$.$.$.$.O.$.$.$.$.$.$.$.$.$.$.$.$.$. ., , , , , , , , , , , , , , , # # O # # # # # O # # # # O % r.v.v.v.p.v.g.g.v.v.v.v.v.v.r.$.$.$.$.$.$.$.$.$.$.$.$.$.$.$.$.$.$.$.$.$.$.$.$.$.$.$.$.$.$.$.$.$.$.$.$.$. .$.$.$.+.$.$.$.$.$.$.$.$.$.$.$.$.$.$.$.$.$. ., , , , , , , , , , , , , , < z z L f z f z f L z z z z z ) n.v.v.v.v.v.v.p.v.v.r.v.v.v.r.$.$.$.$.$.$.$.$.$.$.$.$.$.$.$.$.$.$.$.$.$.$.$.$.$.$.$.$.$.$.$.$.$.$.$.$.$.$.$.$.$.X.$.$.+.$.$.$.$.$.$.$.$.$.$.$.$.$.+.{ , , , , , , , , , , , , , , 4 z z L z L z z f L f L z z f ] v.v.r.v.v.v.v.v.v.v.p.v.g.V.,.+.$.$.$.$.$.$.$.$.$.$.$.$.$.$.$.$.X.$.$.$.$.X.$.+.$.$.$.$.$.$.$.$.$.$.$.$.$.$.$.$.$.$.$.$.",
"z L L z L f L z L z z z L f L f z f L z z f L z f z f z z z z f z z f z z L z L f L z z f L c L f z f z z L z z z z f z z L z L f L z z f L z z L f f o   . . . . . . . . . . . . . & L z z f L f z f z z L z z R g.v.v.v.a.v.r.v.v.v.v.v.p.v.r.%.$. .$.$.$.$.$.$.$.$.$.$.+.$.$.$.$.$.$.$.$.$.$.$.$.$.$.$.$.$.$.$.$.$.$.$.$.$.$.$.$.$.$.$.O.$.$.$.$.$.$.$.$.$.$.$.$.$. ., , , , , , , , , , , , , , , # # # # # # # # # # # # # O % r.v.p.v.v.v.v.v.v.a.v.r.v.v.r.$.$.$.$.$.$.$.$.$.$.X.$.$.$.$.$.$.$.$.$.$.$.X.$.$.$.$.$.$.$.$.$.$.$.$.$.$.$.$.$.$.$.$.$.$.$.$.$.$.$.$.$.$.$.$.$.$.$.$. ., , , , , , , , , , , , , $ % f L z z z L z L f z f L n f ' g.v.a.v.a.r.v.v.v.v.v.v.p.v.r.$.$.$.$.$.$.$.$.$.$.$.$.$.$.$.$.$.$.$.$.$.$.$.$.$.$.$.$.$.$.$.$.$.$.$.$.$.$.$.$.$.$.$.$.$.$.$.$.$.$.$.$.$.X.$.$.$.$.+.{ , , , , , , , , , , , , , , < L z z z f L f z z z z f L - ' v.v.v.v.v.a.v.r.v.r.v.v.x.V.9.+.$.$.$.$.$.$.$.$.$.$.$.$.$.$.$.$.$.$.$.$.$.$.$.$.$.$.$.$.$.$.$.X.$.$.$.$.$.$.$.$.$.$.X.$.",
"z z z z f L f z f z z z f L f L z z z L f z z z f L f L z n z L L f z f L z L z z f z z L f L z z f z f L z L f L f z f L z L z z f z z L f z f z z u o X . . . . . . . . . . . . . : L z z L z z f z f L z L f Q a.n.v.v.v.r.v.p.v.r.v.v.g.v.v.%.$.+.$.$.$.$.$.$.$.$.$.$.+.$.$.$.$.$.$.$.$.$.$.$.$.$.$.$.$.$.$.$.$.$.$.| $.$.$.$.O.$.$.$.O.$.$.$.$.$.$.$.$.$.$.$.$.$. ., , , , , , , , , , , , , , , O # # # # # # # # # # O # O % r.g.v.v.v.v.v.v.v.v.v.v.v.v.p.X.$.$.$.$.$.$.$.$.$.$.$.$.$.$.$.$.$.$.$.$.$.$.$.$.$.$.$.$.$.$.$.$.$.+.$.$.$.$.$.$.$.$.$.$.$.$.$.$.O.$.$.$.$.$.$.$.$.$. ., , , , , , , , , , , , , $ , L f z f L z L z z f z z z f ' n.v.v.p.v.v.v.p.v.v.v.p.v.v.p.$.$.$.$.$.$.$.$.$.$.$.$.$.$.$.$.$.$.$.$.$.$.$.$.$.$.$.$.$.$.$.$.$.$.$.$.$.$.$.$.$.$.X.$.$.$.$.$.$.$.$.$.$.$.$.$.$.$.O.( , , , , , , , , , , , $ , , < z z z z L f L z z z z z f f ] v.v.v.v.v.v.v.v.v.v.v.r.v.m.,.+.$.$.$.$.$.$.$.$.$.$.$.$.X.#.$.X.$.$.$.$.$.$.$.$.$.$.$.$.$.+.$.$.X.$.$.$.$.$.$.$.$.$.$.$.",
"L f L f z z L z L z L f z z z z L f z f L z L f z z z z L f f L z z z L f z f z z L f L z z f z z L z L f z z z z z z L f z f z z L f L z z z L z z z o     . . . . . . . . . . . . & L f L f z z L z L f z z z R g.n.g.p.v.v.v.v.v.v.v.v.g.v.r.$.$.$.$.$.$.+.$. .$.$.$.$.$.$.$.$.$.$.$.$.$.$.$.$.$.$.$. .$.$.$.$.$.$.$.$.$.$.$.$.$.$.$.$.O.$.$.$.$.$.$.$.$.$.$.$.$.$.+., , , , , , , , , , , , , , , $ # # # # # # # # # # # # O % r.v.p.v.r.v.r.v.p.v.p.v.r.v.r.$.$.$.$.+.$.$.$.$.$.X.$.X.$.$.$.$.$.$.$.$.$.$.$.$.$.$.$.$.$.$.$.$.$.$.$.$.$.$.$.$.$.$.$.$.$.+.$.$.$.$.$.$.$.$.$.$.O.$. ., , , , , , , , , , , , , , < z z z L f z f z z L f L z f ' n.v.v.v.v.v.v.v.v.v.p.v.v.v.r.$.$.$.$.$.$.$.$.$. .$.$.$.$.$.$.$.$.$.$.$.$.$.$.$.$.$.$.$.$.$.$.$.$.$.$.$.$.$.$.$.$.$.$.$.$.$.$.$.$.$.$.$.$.$.$.O.$.$.( , , , , , , , , , , , , , , < z z L z f z z L f L f z L f | r.v.v.p.v.v.r.v.p.v.v.v.g.m.9.$.$.$.$.$.$.$.$.$.$.$.$.X.$.$.$.$.$.$.$.$.$.$.$.$.$.$.$.$.$.$.$.$.$.$.$.$.$.$.$.$.$.$.$.$.",
"f z z L z z f z f z f L z L f z f L z L f z f L z L L z z n z L L f L z z z L f L z z z L f L f L f z z z f L f L f L z z z L f L z z z L f L z L z 4 o . . . . . . . . . . . . . . $ Q z z z f L f z z z f L f Q a.v.v.v.v.p.v.v.r.v.p.v.v.g.g.%.$.$.$.$.$.$.$.$.$.$.$.$.$.$.$.$.$.$.$.$.$.$.$.$.$.$.$.$.$.$.$.$.$.$.$.$.$.$.$.$.$.$.$.$.$.$.$.$.$.$.$.$.$.$.$.$.$.+. ., , , , , , , , , , , , , , , O # # # # # # # # # # # # O $ a.v.v.v.v.v.v.v.r.v.p.v.v.v.p.X.$.$.$.$.$.$.$.$.$.$.$.$.$.$.$.$.$.$.$.$.$.$.$.$.$.$.$.$.} $.$.$.$.$.$.$.$.$.$.$.$.$.$.$.$.$.$.$.$.$.$.O.$.$.$.$.$.$. ., , , , , , , , , , , , , , , L f L z z z L f L z z z z f ' v.v.r.v.v.v.p.r.v.v.v.g.v.v.r.$.$.$.$.X.$.$.$.$.$.$.$.$.$.$.$.$.$.$.$.$.$.$.$.$.$.$.$.#.$.$.$.$.X.$.$.$.$.$.$.$.$.$.$.+.$.$.$.$.$.$.$.$.$.$.$.$.$.$.{ , , , , , , , , , , , , , , : z z L z L z z f z z L f f f ' v.v.v.v.p.v.v.p.r.v.v.v.g.V.,.+.$.$.$.$.} #.$.$.$.$.$.$.$.$.$.$.$.$.$.$.$.$.$.$.$.$.$.$.$.$.X.$.$.$.$.$.$.$.X.$.$.$.$.$.",
"L z z f L f L z L z z z z f L z z z z f L z z z z f z z L n z f z z f z f L z z f z f L z z f L z z f L z L z z z z f z f L z z f z f L z z f z L z f o   . . . . . . . . . . . . . % L f L z L z z f L z L z z Q r.v.v.r.v.v.v.v.v.v.v.g.v.v.a.%.+.$.$.$.$.$.$.$.$.$.$.$.$.$.$.$.$.$.+.$.$.$.$. .$.$.$.$.$.$.$.$.$.$.$.$.$.$.$.$.$.$.$.$.$.$.$.$.$.$.$.$.$.| $.$.+.$. ., , , , , , , , , , , , , , , $ # # # # # # # # # # # # O % r.v.v.r.v.p.v.v.v.v.v.v.v.v.r.$.$.$.$.X.$.$.$.$.$.$.$.$.$.$.$.$.X.$.$.$.$.$.$.$.$.$.$.$.$.$.$.$.$.$.$.$.$.$.$.$.+.$.$.$.$.$.$.$.$.$.$.$.$.$.$.$.$.$. ., , , , , , , , , , , , , , < z z f z f L z z f z f L f f ' v.v.v.r.v.v.v.v.v.g.v.v.v.m.r.$.$.$.$.$.$.$.$.$.$.$.$. .$.$.$.$.$.$.$.$.$.$.$.$.$.$.$.$.$.$.$.$.$.$.$.$.$.$.$.$.X.$.$.+.$.$.$.X.$.$.$.$.$.$.$.$.O.O.{ $ , , , , , , , , , , , , % < L z z z f L f L z z z z f f } p.v.v.r.v.v.v.v.v.v.v.p.x.V.9.+.$.$.$.$.$.X.$.$.$.$.$.$.$.$.$.$.$.$.$.$.$.$.$.$.X.$.$.$.$.$.$.$.+.$.$.$.$.$.$.$.$.$.$.$.",
"f L f z z z L z L f z z L z L f f z z z z L f z z z z L z R z f z z L f z f z z z L f L f z c z z z z L z z L z L f z z L z L f z z L z L f z z L z f o . . . . . . . . . . . . . . : Q - L L z L L - L z L f L R r.v.g.v.v.v.g.v.v.r.v.v.p.v.r.#.$.$.$.$.$.$.$.$.$.$.$.$.$.$.$.$.$.$.$.$.$.$.$.$.$.$.$.$.$.$.$.$.$.$.+.$.$.$.$.$.+.$.$.+.$.$.$.$.$.$.$.$.$.$.$.$.$.$.O., , , , , , , , , , , , , , , $ O O # # # O # # O # # # O < a.v.v.v.v.a.v.v.p.v.r.v.v.v.r.X.X.#.$.$.$.$.$.$.X.$.$.$.$.$.$.$.$.$.$.$.$.$.$.$.$.$.$.$.$.$.$.$.+.$.$.$.$.$.$.+.$.$.+.$.$.$.$.$.$.+.$.$.$.+.$.$.$.$.{ < , , , , , , , , , , , , , < f f L f z f z z L f z f z f ' n.n.v.g.v.v.p.v.p.v.v.v.v.v.r.X.X.$.$.$.$.$.$.$.$.$.$.$.$.$.$.$.$.$.$.$.$.$.$.$.$.$.$.$.$.X.$.$.$.$.$.$.$.$.$.$.$.$.$.+.$.$.$.$.$.$.$.$.$.$.$.$.$.$.{ , , , , , , , , , , , , , , < f z L f L f z z L f L f z f } j.j.v.v.r.v.v.p.v.v.v.v.v.v.4.X.$.$.$.$.$.$.$.$.$.$.$.$.$.$.$.$.$.$.$.$.$.$.$.$.$.$.X.$.$.$.$.$.$.$.$.$.$.$.$.$.$.$.$.$.",
"z z L z f L f z z z f L f z z z L z L f z f L z L f z f z n z L f L z z z L f L z f z z L z L z L f z f f L f z z z f L f z z z f L f z z z f L f z f o   . . . . . . . . . . . . . : - z L - L z z L z z f z z R v.v.v.v.g.v.v.v.a.v.v.v.v.v.p.%.$.$.$.$.$.$.$.$.$.$.$.X.$.$.$.$.$.$.$.X.$.$.$.$.$.$.$.$.$.$.$.$.$.$.$.$.$.$.$.$.$.$.$.$.$.$.$.+.$.$.$.$.$.$.$.$.$.$.O., , , , , , , , , , , , , , , # # # # # # # # # # # # # O < r.j.v.g.v.v.j.v.v.v.v.v.v.v.r.X.$.X.$.$.$.$.$.$.$.$.$.$.$.$.$.$.$.$.$.$.$.X.$.$.$.$.$.$.$.$.$.$.$.$.$.$.$.$.$.$.$.$.$.$.$.$.$.$.$.$.$.$.$.$.$.$.$.$.} , , , , , , , , , , , , , , , n f z z z L f L z z z L z f ) n.v.g.g.v.v.v.v.v.p.v.v.v.v.6.$.$.$.$.$.$.$.$.$.$.$.$.+.$.$.$.$.$.$.$.$.$.$.$.$.$.$.$.#.X.$.$.$.$.$.$.X.$.$.+.$.$.$.$.+.$.$.$.$.$.$.$.$.$.$.$.$.$.$._ , , , , , , , , , , , , , , < z z L z z L z z f z z L z f ' v.v.v.j.v.v.v.v.r.v.v.r.p.v.4.X.$.$.$.$.$.$.$.$.$.$.$.+.X.#.$.$.$.$.$.$.$.$.$.$.$.$.#.} $.+.$.$.$.+.$.$.$.$.$.$.$.$.$.$.",
"z z f z z z z L L z L z z f L f L z z z z z z z f L z L f n f L z f z f L z z z z L z z f L c z f L z L z z L z L z L z z f L f z z z f L z L z z z f o . . . . . . . . . . . . . . : L z L z z z z f z z L z z R g.n.v.v.v.a.v.v.v.j.v.v.v.v.v.#.$.$.$.$.$.$.$.$.$.$.$.$.$.$.$.$.$.$.$.$.$.$.$.$. .$.$.$.$.$.$.$.$.$.$.$.$.$.$.$.$.$.$.$.$.$.$.$.$.+.+.$.$.O.$.$.$.$.+.< , , , , , , , , , , , , , < # # # # # # # # # # # # # O % r.v.v.r.v.a.j.v.v.v.v.v.v.v.r.#.$.$.$.X.$.$.$.$.$.$.$.$.$.$.$.$.$.$.$.$.$.$.$.$.$.$.$.$.$.$.$.$.$.$.$.$.$.+.$.$.$.$.$.$.$.$.$.$.$.+.$.$.$.$.+.$.$.$.} < , , , , , , , , , , , , , < z z z L L z z z L f L z L f ' n.v.v.v.v.v.p.v.j.v.p.v.r.m.r.$.$.$.$.$.$.$.$.$.$.$.$.$.$.$.$.$.$.$.$.$.$.X.$.$.$.$.$.#.$.$.$.$.$.$.$.$.$.$.$.$.$.$.$.$.$.$.$.$.$.$.$.$.$.$.$.$.$.$._ , , , , , , , , , , , , , , < z z z z z f z z L z z f L f | v.v.v.j.v.j.v.v.v.v.p.v.v.V.4.+.$.$.$.$.$.+.$.$.$.$.$.$.$.$.$.$.$.$.X.$.$.$.$.$.$.$.$.$.$.$.$.$.$.$.$.$.} $.$.$.$.$.$.$.",
"L f L z f L z z f z f z z L z z z z L z L f L f z z z f L z z z z L z L f z f L z f L f z z L f z z z f L z z z f z f z z L z z f L z L f z f z z z u o . . . . . . . . . . . . . . $ L L - L z L f L z z f L f Q a.v.g.v.r.v.v.j.v.v.v.r.v.v.r.%.$.$.$.$.$.$.$.$.$.$.X.$.$.$.$.$.$.$.+.$.$.$.$.$.$.$.$.$.$.$.$.$.$.$.$.$.$.$.$.$.$.$.$. .$.$.$.$.$.$.+.$.$.$.$.$.+.$.+., , , , , , , , , , , , , , , # # # # # # # # # # # # # O % a.v.v.v.v.v.v.v.j.v.p.v.r.v.r.$.$.$.$.$.$.$.$.$.$.$.$.$.$.$.$.$.$.$.+.$.$.$.$.$.$.$.$.$.$.$.$.$.$.$.$.$.$.$.$.$.$.$. .$.$.$.$.$.$.+.$.$.$.$.$.$.$.$.} , , , , , , , , , , , , , , $ z z z z f z f L z z f z f f ' n.v.v.v.a.v.j.v.v.v.v.v.v.m.r.$.$.$.$.$.$.$.$.$.$.$.$.$.$.$.$.$.$.$.X.$.$.$.$.$.+.$.$.X.$.$.$.$.$.$.$.$.$.$.$.$.$.$.$.$.$.$.$.$.$.$.$.$.$.O.$.$.$.$.( , , , , , , , , , , , , , , < z L z L f L z z f L f z z f ' v.a.v.v.v.j.v.v.v.v.v.v.g.V.,.+.$.$.$.$.$.$.$.$.$.$.$.X.X.#.$.$.$.$.$.$.X.$.$.$.$.$.$.$.$.$.$.$.$.$.$.$.$.$.$.$.$.$.$.$.",
"c L z L L z z z z z R n L L L f z z L z z z z z L c z L L z z L z z z R L L z L L L c L c c - L L c L L z L z L z L L z L z z z z z L z z f z f L z f o   . . . . . . . . . X   . . $ L L z L z f z z L f z z L R j.n.v.v.v.v.v.v.v.v.v.v.v.v.v.%.} $.$.$.$.$.$.$.$.$.$.$.$.$.$.$.$.$.$.$.$.$.$.$.$.$.$.$.+.$.$.$.$.$.$.$.$.$.$.$.$.$.$.$.$.$.$.O.O.$.+.$.+.O.O.$.$.$.+.< , , , , , , , , , , , , , , # # # # # # # # O # # # # O % j.n.v.v.v.v.v.v.v.n.v.n.n.n.r.$.$.X.#.X.$.$.$.$.$.$.$.$.$.X.$.$.$.$.$.$.$.$.$.$.$.$.$.$.$.$.$.$.$.$.$.$.$.$.$.$.$.$.$.$.$.$.#.$.#.+.$.$.$.+.#.+.#.+.} , , , , , , < , , , , , , , < z z z z z z L f z z L f f f ' v.v.v.v.v.v.v.v.m.v.v.v.v.V.r.$.$.$.$.$.$.$.$.+.$.$.$.$.X.$.$.+.X.$.$.$.$.$.$.$.$.$.$.$.$.$.$.$.$.$.$.$.$.+.+.+.$.+.+.+.+.$.$.$.$.#.$.$.$.#.O.O.O.&.( , , , , , < , , , , , , , , 4 z z z f z z L f z z L z L - | v.n.v.v.v.v.v.n.v.n.v.v.v.V.9.$.$.$.$.$.$.$.$.$.$.$.$.$.$.$.$.$.$.$.X.$.$.$.$.$.$.$.$.$.$.$.$.$.$.$.$.$.$.$.$.$.$.$.$.$.",
": & : 4 : : 4 f 4 % 4 f & : : : 4 4 4 : : : : % : : 4 4 : 4 4 f : 4 4 4 & : : & : - : : : - - - : : : 4 : : 4 4 : : & f f f f L f L f z z L z L L z z o   . . . . . . . . . . . . . & - f z f z L z z f L z z f R =.1.1.=.=.,.=.=.1.=.1.=.1.=.=.$.$.$.$.$.$.$.$.$.$.$.+.$.X.$.$.$.+.$.$.$.$.$.$.$.+.$.$.$.$.$.$.$.$.$.$. .$.$.$.$.$.$.$.$._ _ { _ ( { { { _ { ( _ { { ( < < < < < < < 4 , < < < < < < # # # # # # # # # # # # # O % *.1.=.=.,.=.1.1.=.=.=.,.=.=.=.$.$.$.$.$.$.$.$.$.$.$.$.$.$.X.X.$.$.$.$.$.$.$.X.$.$.$.+.$.$.$.$.$.$.$.$.$.$.$.$.$.$.$.$. .} } { { { { } { { ( { { { } { < < < < $ < < , , < , % % < < z f L f f L z z f L z z f f ' 4.4.4.4.,.1.4.4.1.1.4.4.4.9.=.$.$.$.$.$.$.$.$.$.$.$.$.$.$.$.$.$.$.$.$.X.$.$.$.$.$.$.$.$.X.$.$.$.$.$.$.$.$.#.+.+.$.+.+.} ( { { ( ( { { ( ( { { _ ( { ( < , < < < < , < < < < < < < 4 f L f L z z f L z z f z z z ` =.=.<.=.1.1.=.=.=.=.=.1.=.,.*.$.$.$.$.$.$.$.$.$.$.$.$.$.$.$.X.$.$.$.$.$.$.$.$.$.$.$.$.$.$.$.$.$.+.$.$.$.$.$.$.$.$.$.$.$.",
"O O O # O O O O O O + O O O O O # O O O # # # # O O # O O # # O O O # O O O O O + + # O O O O O O O # O O O # O O O O + - z z z z z z f L f z z z f - o . . . . . . . . . . . . . . % z z z L f f L f L f L f L z f - - - - z z - z f - f f f z $.$.$.$.$.$.$.$.$.$.$.$.$.$.$.$.$.$.$.$.$.$.X.$.$.$.$.$.$.$.$.$.+.$.$.$.$.$.$.$.$.$.$.$. ., , , , , , , , , , , , , , , N n n z z z z z z z N n z z f $ # # O # # # # # # # # # O # - - - - z z - - z - z z - f z X.$.$.$.$.$.$.$.$.$.$.$.$.$.X.$.+.$.$.$.$.$.$.$.$.$.$.$.$.$.X. .$.$.$.$.$.$.$.$.$.$.$.$._ $ , , < , , , , , , , , , , , z z z f y z z z z f f - L L z z L z L z f z f z f z f z z L L L L z L L L z L z L L z n Q $.$.$.$.$.$.$.X.$.$.$.$.$.$.$.$.$.$.$.$.$.$.$.$.$.$.X.$.$.$.$.$.$.$.X.$.$.$.O.O.+.+.#.+._ , , , , , , , , , , , , , , < N N z z L z z z W q L f z z z z z L f L f L f L f L L - z L z z f 4 - - - - z z - - z z Q $.$.$.$.$.$.$.$.$.$.$.$.$.$.$.$.$.$.$.$.$.$.$.$.$.$.$.$.$.$.$.$.$.X.$.$.$.$.$.$.$.$.$.$.$.",
"@ @ # # # # # # # # # # # # # # # # # # # # # # # O # # O # # # # # # # # # # # # # # # # # # # O # # # O # # # # # + + : z f L f L z L z z f L z L f o   . . . . . . . . . . . . . & L f L z z z z z z z z z z z z L z L z z z z z z z z z z z } $.$.$.$.$.$.$.$.$.$.$.$.$.$.$.X.$.$.$.$.$.$.$.$.$.$.$.$.$.$.$.$.$.$.$.$.$.$.$.$.$.$.$. .< , , , , , , , , , , , , , , n n z z z z L z z z z z z n y $ # # # # # # # # # # # # # # z z L z z z z z L z z z L z Q X.$.$.$.$.$.$.$.X.$.$.$.$.$.$.$.$.$.$.$.$.$.$.$.$.$.$.$.$.$.$.$.$.$.$.$.$.$.$.$.$.$.$.$.} , , , , , , , , , , , , , , , z z z z n L z z z n y L z z z z f z f z L z L z L z L z z z L z z z z z L z L z z f L z Q $.$.$.$.$.$.$.$.$.$.$.$.$.$.$.$.$.$.$.$.$.$.$.$.$.$.$.$.$.$.$.$.$.$.$.$.$.$.O.#.+.+.O.#._ , , , , , , , , , , , , , , < N N z z z z z n n n z z L z z z z f z z z z z z z z z L z z z z z z z z L L z z f L z z Q $.$.$.$.$.$.$.$.X.$.$.$.$.$.$.$.$.$.$.$.$.$.$.$.$.$.X.$.$.$.$.$.$.$.$.$.$.$.$.$.$.$.$.$.$.",
"# # # # # # # # # # # # # # # # # # # # # # # # # # # # # # # # # # # # # # # # # # # # # # # # # # # # # # # # # # # # - L f z z z L z L f z z z z z o . . . . . . . . . . . . . . % c L f z f L z L z L z L z z z f z z z z L z L f L f z L L } $.$.$.$.$.$.$.$.$.$.$.$.$.$.$.$.$.$.$.$.$.$.$.$. .$.$.$.$.$.$.$.$.$.$.$.$.$.$.$.$.$.$. ., , , , , , , , , , , , , , < z f L z z z L f z f z z L z z $ O # # # O # # # + # # # # # L L f z z z z z z L f z z z Q X.$.$.$.X.$.$.$.$.$.$.$.$.$.X.$.$.$.$.$.$.$.$.$.$.$.$.$.$.$.$.$.$.$.$.$.$.$.$.$.$.$.$.$.' , , , , , , , , , , , , , , < z L z z z L z z L f L f L f z z L f L L z L z L z L z z L z L f f z z z z L z L f z z z R $.$.$.$.$.$.$.$.$.$.$.$.$.$.+.$.$.$.$.$.$.$.$.$.$.$.$.$.$.$.$.$.$.$.$.$.$.$.$.$.$.$.$.#._ , , , , , , , , , , , , , , < z L z z z L f L f z z L f L f z z L z z z z z z z z L z L f z z L z L z L f z z L z z z Q $.$.$.$.$.$.$.$.$.$.$.$.$.#.$.$.X.$.$.$.$.$.$.$.$.$.$.$.$.+.$.$.$.$.$.$.$.$.$.$.$.} $.$.$.",
"# # # # # # # # # # # O # # # # # # # # # # # # # # # @ # # # # # # # # # # # # # # # # # # # # # # # O # # # # # # # # - z L z f L f z z z f L z z z o   . . . . . . . . . . . . . % L z z z L f z f z f z f z z z L f L f z f z f z z L z z z | $.$.$.$.$.$.$.$.$.$.$.$.$.$.$.$.$.$.$.$.$.$.X.$.$.$.$.$.$.$.$.$.$.$.$.$.$.$.$.$.$.$.$.O.< , , , , , , , , , , , , , , z L f z L z z z z L f L z z f # # # # # # # # # # # # # # $ z z L z L f L f z f L z L f Q X.$.$.$.$.$.$.$.$.$.$.$.$.$.$.$.$.$.$.$.$.$.$.$.$.$.$.$.$.$.$.$.| $.$.$.$.$.$.$.$.$.$.$.} , , , , , , , , , , , , , , < z f z z z L z z f z z z z L z z f z z f z f z f z f z z f z f z L f L f L f z z z f L z n $.$.$.$.$.$.$.$.$.$.$.$.$.$.$.X.$.$.$.$.$.$.$.$.$.$.$.$.$.$.$.$.$.$.$.$.$.$.+.$.$.$.O.O._ , , , , , , , , , , , , , , 1 z z L z z f z z L z z f z z L z z f L f L f L f L f f z z z f L f z f z z z f L f z z n Q $.$.$.$.$.$.$.$.$.$.$.$.$.$.$.$.$.$.$.$.$.$.$.$.$.$.$.$.$.$.$.$.X.$.$.$.$.$.$.$.$.$.$.$.$.",
"# # # # # # # # # # # # # # # # # # # # @ # # # # # # # # # # # # # # # # # # O # + # # # # # # # # # # # # # # # + # # : z f z z z z f L z L z z L 4 o . . . . . . . . . . . . . . % c L f L z z z L f z z L f L z L L f L z L z L z z f L f L $.$.$.$.$.$.$.$.$.$.$.$.$.X.$.$.$.$.$.$.$.$.$.$.$.$.$.$.$.$.$.$.$.$.$.$.$.$.$.$.$.$.$.$.O., , , , , , , , , , , , , , < L c L f z f z f L z z z z z f $ # # # # # # # # # # # # # # f z f z f L f L z L f z f L Q X.$.$.$.$.$.$.$.$.$.$.$.$.$.$.$.$.$.$.$.$.$.$.$.$.$.$.$.$.$.$.$.$.$.$.$.$.$.$.$.$.$.$.$.} , , , , , , , , , , , , , , < f z L z z f z z L z z z L z z z L z z z z L f z z L f z z z L L z z z z z z f L z L z z R $.$.$.$.$.$.$.$.$.$.$.$.$.$.$.$.$.$.$.$.$.$.$.$.X.$.$.$.#.X.$.$.$.$.$.$.$.$.$.$.$.$.$.O.{ , , , , $ , , , , , , , , , < z z f L f L z z f z z L z z f L f L f z z L f z z L z f L f z z z f z f L f z z z f L z Q $.$.$.$.$.+.$.X.$.$.$.$.$.$.$.$.$.$.$.$.$.| $.$.$.$.$.$.$.$.$.$.$.$.$.$.$.$.$.$.$.$.$.$.$.",
"# + # # # + # # # # # # # # # # # # # @ # # # # # # # # # # # @ # # # # # # # # # # # # # # # # # # # # # # # # # # # # - f L z f L z L f z f z z z z o   . . . . . . . . . . . . . % L z z f z f L z z f L z z f z c z z z z f z f L f z z z L  .$.$.$.$.$.$.$.$.$.$.$.$.$.$.$.$.$.$.$.$.$.$.$.$.$.$.$.$.$.$.$.$.$.$.$.$.$.$.$.$.$.$.$.O.< , , , , , , , , , , , , , < f L z z z L z L f z f L z n y # # # # # # # # # # # # # # # f z L z z z z z z f L z z z Q X.$.$.$.$.$.$.$.$.$.$.$.$.$.$.$.$.$.$.$.$. .$.$.$.$.$.$.| $.$.$.$.$.$.$.$.$.$.$.$.$.$.$._ , , , , , , , , , , , , , , < 4 z z L f L z z f L f z z z L L - L L f L z z f L z z L f L c f z f L f L z L f z f z n n $.$.$.$.$.$.$.$.$.$.$.$.$.$.$.$.$.$.$.$.$.X.$.$.$.$.$.$.$.$.X.$.$.$.$.X.$.$.$.$.$.$.$.#._ , , , , , , , , , , , , , , < z z z z z z L f L z z f L f z z z z L z z f L z z f z L z z f L z L z L z z f L z L L z Q +.$.$.$.$.$.$.$.$.X.$.$.$.$.$.$.$.$.$.$.$.$.$.$.$.$.$.$.$.$.$.$.$.$.X.$.$.$.$.X.$.$.$.$.$.",
"# # # # # # # # # # # # # # # # # # # # # # # # # # # # # # # # # # # # # # # # # # # # # # # # # # # # # # # # # # # # : L f z z z L z z f z f L L - o   . . . . . . . . . . . . . $ L L z L f z f z z L f z f L z L f z z z L z L f L L z z n $.$.$.$.$.$.$.$.$.$.$.X.$.$.$.$.$.$.$.$.$.$.$.$.$.$.$.$.$.$.$.$.$.$.$.$.$.$.$.$.$.$.$.#. .< , , , , , , , , , , , , , , z L f f L z L z z f z z f z f $ # # # O # # # # + # # # # $ f z z z f z z L f z z L f z Q X.X.o.$.$.$.$.$.$.$.$.$.$.$.$.$.$. .$.$.$.$.$.$.$.$.$.$.$.$.$.$.$.$.$.$.$.$.$.$.$.$.$.$.{ , , , , , , , , , , , , , , , f n z f z z L f z z L L z L - L z L z z f z z L f z f L z f L z f z z z z L z L z z z n W $.$.$.$.$.$.$.$.$.$.$.$.$.$.$.$.$.$.$.$.+.$.$.$.$.$.$.$.$.$.$.$.$.$.$.$.$.$.O.$.$.$.+.#.( , , , , , , , , , , , , , , < f z z z z z f L f z z L f L z z z z f L f z z L f L L f z z L f z z L f z z L f z z z z ` X.$.$.$.$.$.$.$.$.$.$.$.$.$.$.$.$.$.$.$.$.$.$.$.$.$.$.$.$.$.$.$.$.$.$.$.$.$.$.$.$.$.$.$.$.",
"# # # # # # # # # # # # # # # # # # # # # # # # # # # # # # # # # # # # # # # # # # + # # # O # # # # # # O # # # # # # - z L z f L f z z L z L z z z o . . . . . . . . . . . . . . & L L z z z z L f L z z z L f z f L L f z f z f z z z z z R  .$.$.$.$.$.$.$.$.+.$.$.$.$.$.$.$.$.$.$.$.$.$.+.$.$.$.$.$.$.$.$.$.$.$.$.$.$.$.$.$.$.$.$.O.< , , , , , , , , , , , , , < z f z L f z f z z L f L L z f # # # # # # # # # # # # # # # f z z L L z z f L z z f L z z X.#.o.$.$.$.$.$.$.$.$.$.$.$.$.$.$.$.$.$.$.$.$.$.$.$.$.$.$.$.$.$.$.$.$.$.$.$.$.$.$.$.$.$.{ , , , , , , , , , , , , , , < f z z L z z f L z z f L z z z z L - L z L f L z z z L f z z f z L f L f L f z z z L L n Q $.$.$.$.$.$.$.$.$.$.$.$.$.$.$.$.$.$.$.$.$.$.$.$.$.$.X.$.$.$.$.$.$.$.$.$.$.$.$.$.$.$.+.+.{ , , , , , , , , , , , , , , < y n L f L f z z L z z f z z L f L f z z L z z f z z z z f L z z f L z z f L z z f L z L ` X.$.$.$.X.$.$.X.$.$.$.$.$.$.$.$.$.$.$.$.$.$.$.$.$.$.$.$.$.$.$.X.$.$.$.+.$.$.$.$.$.X.$.$.$.",
"+ # # # # # # # # # # # # # O # # # # # @ # # # # # @ # # # # @ # # # # # # # # # # # # # # # # # # # # # # # # # # # # : z f z z z z f L f z z z L - o . . . . . . . . . . . . . . % z z - L f L z z z L f L z z z c z f L z L z L z z z L z n $.$.$.$.$.$.$.$.$.$.$.$.X.$.$.$.$.$.$.$.X.$.$.$.$.$.$.$.| $.$.$.$.$.$.$.$.$.$.$.$.$.$.$. ., , , , , , , , , , , , , , , z L L z z z L f L z z z L z L $ # # # # # # # # # # # # # # L L z z z z z z z z z z z z Q X.X.$.$.$.X.$.$.$.$.$.$.$.$.$.$.$.$.$.$.$.$.$.$.$.$.$.$.$.$.$.$.$.$.$.$.$.$.$.$.$.$.$.$.} , , , , , , , , , , , , , , < f z L f L f L f L f L f L f L z L z z L z z z L f L z z z z L L z z z z z z f z L z z z n $.$.$.$.$.$.} $.$.$.$.$.$.$.$.$.X.$.$.$.$.$.$.$.$.X.$.$.$.$.$.$.X.$.$.$.$.$.$.$.$.$.+.$._ , , , , , , , , , , , , , $ < z z f z z L z z f z z L z z f z z L z z f z z L z z L z L z L z L z L z L z L z L z L L ` X.$.$.$.$.$.$.+.$.$.$.$.$.$.$.$.$.$.$.$.$.$.$.$.$.$.$.$.$.$.$.$.$.$.$.$.$.$.$.$.+.$.$.$.$.",
"# # # # # # O # # # # # # # # # # # # # # # # # # # # # # # # @ # O # # # # # # # # # # # # # # + # # # # # # # # # O O f f L z f L z L z z f L z z z o . . . . . . . . . . . . . . & f z L z L f z f L z z f z f L L z z z z f z f L L z z z n  .$.$.$.$.$.$.$.$.$.$.$.$.+.$.$.$.$.$.$.$.$.$.$.$.$.$.$.$.$.$.$.$.$.$.$.$.$.$.$.$.$.$.#. .< , , , , , , , , , , , , , < f L f z f L z z f z f L z z f # # # # # # # # # # # # # # $ z z L f L f L f L f L f L f Q X.$.$.$.$.$.$.$.$.$.$.$.X.$.$.$.$.$.$.$.$.$.$.$.$.$.$.$.$.$.$.$.$.$.$.$.$.$.$.$.$.$.$.$.{ , , , , , , , , , , , , , , < z z z z z z z z z z z z z z z L - L z f z f L z z f z f L f L f z f L f L z L z z L z z Q $.$.$.$.$.$.$.$.$.$.$.$.$.$.$.$.$.$.$.$.$.$.$.$.$.$.$.$.$.$.$.$.$.$.$.$.$.$.$.$.$.$.$.$.( , , , , , , , , , , , , , < < L f L z z f L f L z z f L f L z z f L f L z z f L f f z f z f z f z f z f z f z f z z - ` X.$.$.$.$.$.$.$.$.$.$.$.$.$.$.$.$.$.$.$.$.$.$.$.$.$.$.$.$.$.$.$.$.$.$.$.$.$.$.$.$.$.$.$.$.",
"# # + # # # # # # # # O # # # # # # # # # # # # # # # # # # @ @ + $ # # # # # # # # # # $ @ # # # # # # # + # # # # # # - L z z - R - L - L L z L L - o . . . . . . . . . . . . . . $ L z z z z z z L f z f z z L f L z L f z z L f z z L z L L $.$.$.$.$.$.$.$.$.$.$.$.$.$.$.$.$.$.$.$.$.$.$.$.$.$.$.$.$.$.$.$.$.$.$.$.$.$.$.$.$.$.$.$.} < , , , , $ , , , , , , , , , z L f f z z L f z f z z L z z # # # # # # # # # + # # # # # - z f L f L f L f L f L f L Q X.$.$.$.$.$.$.$.$.$.$.$.$.$.$.$.$.$.$.$.$.$.$.$.$.$.$.$.$.$.$.$.$.$.$.$.$.$.$.$.$.$.$.#.{ , , , , , , , , , , , , , , , z L z z z z z z z z z z L - L L z L z z f z z L f z f z z z L f L f z z z L z L f z z L R $.$.$.$.$.$.$.$.$.$.$.$.$.$.$.$.$.$.$.$.| $.$.$.$.$.X.$.$.$.$.$.$.$.$.$.$.$.$.$.$.$.$.$._ , , , , , , , , , , , , , , < f f z L f L f z z L f z z L f L f z z L f L f z z L z f z f z f z f z f z f z f z f z L ` X.$.$.$.$.$.$.$.$.$.$.$.$.$.$.$.$.$.$.$.$.$.$.$.$.$.$.$.$.$.$.$.$.$.| $.$.| $.$.$.$.$.$.$.",
"# # # # # # # # # # # # # # # # # # # # # # # # # # # @ # # @ @ + O # # # # # # # @ # # + @ O # # # # # # # # # # # # # - z f L R - L L z L - L z z z o . . . . . . . . . . . . . . : L L f L f f L z z z L f L z z f z z z f L z z f L f z z z | $.$.$.$.$.$.$.$.$.$.$.$.$.$.$.$.$.$.$.$.$.$.$.$.$.$.$.$.$.$.$.$.$.$.$.$.$.$.$.$.$.$.$.} < , , , , , , , , , , , , , , z c z L f L z z z L f L z z z # # # # # # # # # # # # # # # c z z z z z z z z z z z z z Q X.$.X.$.$.$.$.$.$.$.$.$.| $.$.$.$.$.$.$.$.$.$.$.$.$.$.$.$.$.$.$.$.$. .$.$.$.$.$.$.$.$.$.{ , , , , , , , , , , , , , , < z z z L f L f L f L f z z L z f z f z z L f L z z z L f L f L z z L z f L f z z z f L f R $.$.$.$.$.$.$.$.$.$.$.$.$.$.$.$.$.$.$.$.$.$.$.$.$.$.$.$.$.$.$.$.$.$.$.$.$.$.$.$.$.$.$.$.) , , , , , , , , , , , , , , , n y z f z z L z z f L z z f z z L z z f z z L z z f z L z L z L z L z L z L z L z L L - ` X.$.$.$.$.$.$.$.$.$.$.$.$.$.$.$.$.$.$.$.$.$.$.$.$.$.$.$.$.$.$.$.$.$.$.$.$.$.$.$.$.$.$.$.$.",
"# # # # O # # # # # # # # # # # # # # # # # # # # # # # # @ @ @ @ @ # # # # # # # # # # + @ # # # # # # # # # # # # # O : z z z - ! - - L z L z L z - o . . . . . . . . . . . . . . & L f z z L z f z f L z z z L f L f L z L z L z L z z f L L $.$.$.$.$.$.$.$.$.$.$.X.$.$.$.$.$.$.$.$.$.$.$.$.$.$.$.$.$.$.$.$.$.$.$.$.| $.$.$.$.$.$.$.} < , , , , , , , , , , , , , < z L L z z f z f L z z z z z y # # # # # # # # # # # # # # $ c L z L f z z L f z z L f z L X.o.#.$.$.$.$.$.$.$.$.$.$.$.$.$.$.$.$.$.$.$.$.$.$.$.$.$.$.$.$.$.$.$.$.$.$.$.$.$.$.$.$.$.{ < , , , , , , , , , , , , , , u n z f z z L f z z L L - L z z z L f L z z z L f L z z f z c z z f z z z z f L z L z n n $.$.$.$.$.$.$.$.$.$.$.$.$.$.$.$.$.$.$.$.$.$.$.$.$.$.$.$.#.X.$.$.$.$.$.$.$.$.$.$.$.$.$.$._ , , , , , , , , , , , , , , < z z z L z z f L f L f L f L z z f z z L z z f L f L L f z z L f z z L f z z L f z z z L ! X.$.$.$.#.$.$.$.$.$.$.$.$.$.$.$.$.$.$.$.$.$.$.$.$.$.$.$.$.$.$.$.$.$.$.$.$.$.$.$.$.$.$.$.$.",
"# # # # # # # # # # # # # # # # # # # O # # # # # # # # # $ @ @ O # # # # # # # # # @ @ + @ # # + # # # # # # # # # # # - L L L ! ! - - L z L z L L z o . . . . . . . . . . . . . . $ L L z z f z L z L f z f L z z f L f z f z f z f z z L z z $.$.$.$.$.$.$.$.$.$.$.$.$.$.$.$.$.$.$.$.$.$.$.$.$.$.$.$.$.$.$.$.$.$.$.$.$.$.$.$.$.$.$.$. .< , , , , , , , , , , , , , , f L z z z L z L f z f L n n y $ # # # # # # # # # # # # # # - z z f L z z f L z z f L z Q X.o.o.$.$.X.$.$.$.$.$.$.$.$.$.$.$.$.$.$.$.$.$.$.$.$.$.$.$.$.$.$.$.$.$.$.$.$.$.$.$.$.$.$.{ , , , , , , , , , , , , , , < f z z L z z f L z z f z L z z f L z z f z f L z z f z z L z L L f L z f L z L f z f z n n $.$.$.$.$.$.$.$.$.$.$.$.$.$.$.$.$.$.$.$.$.$.$.$.$.$.$.$.$.$.$.$.$.$.$.$.$.$.$.$.$.$.$.$.{ , , , , , , , , , , , , , , < z z z f L f z z z z z z z z L f L z z f L f z z z z z z f L z z f L z z f L z z f L z z ` o.$.$.$.| $.$.$.$.$.$.$.$.#.$.$.$.$.$.$.$.$.$.$.X.$.$.$.$.$.$.$.$.$.$.$.$.$.$.$.$.$.$.$.$.",
"+ # # # # # # # # # # # # # # # # # # # # # # O # # # # # # # # # # # # # # # # # # # # + @ # # # # # O # # # # # # # # $ $ $ $ $ @ & $ $ $ & $ $ $ # o . . . . . . . . . . . . . . & L z L f L L z L z z f z z L z z z z z z z L z L z L z L L { { ] ' ] ' ] ] ] ' ] ] { ] ] } } ' ' ' ] { } ' } ' } ' ' } ' ' ] } ' } } ' } ' { } { | ` 4 < 4 < < < < : 4 < < < < 1 1 y n z L L z L z z f z z z L f $ # # # # # # # # # # # # # % f z f z z z z z z L f z z z R ' } ] ] ] ] } ] } ' } ] ' ] ] ' } ' } { } ' ' } ' ' | ' } ' } ' } ' } { } ' { | ' } ' } ) 4 < < < < 4 , < < < 1 < < 4 : z z z f L f z z L - L L L - L z L z f z z L f z z L f L z L z f L f z z z L z z f z f W Q ] ] ] ] ] ] ' } ' { } ' ' | { | { } ' } ' } ' } ' } ] ] } ' ' ] } ' ] ' ] ] } ' } ] } } ) % 4 < < < 4 < < 4 < 4 < 4 < 4 z z z L f L z z z z z z z z f L f z z L f L z z z z L z L f z z L z L z L f z z L z L - R ] ] ] ] } ' } ' } ' { { } ' } ' | } ' } ' ] ] ' } ' ' } ' { } ' ' { } ' } { { } ' } ' { } ",
"# # # # # # # # # # # # # # # # # # # # # # # # # # # # # # # # # # # # # # O # O # # # # @ # # # # # # # # # # # # # # o . . . . . . . . . . . . . . . . . . . . . . . . . . . . . $ L L - z z f z f z z L f L z L L f L f L f f z f z f z z f f L z L z L z z z L z L z z z z f L y R z f f L f f f L f n z n f L f f f f f L n n z f L z z z n z z z z z z z y y L z z z z L f z f z z L f L z L f # # # # # # # # # # # # # # # f z L z L f L f z f L z L f z f f f z L f f f L f f z L z z f f f z f z n f z f c z f f f f f f f f z z f f z z f f f z z f z z z L f y z n L z z z z f L f z z L z z L L z z z L z z f z L f L z z f L z z f L - c z z L z f L f z z L z L z z L z z z f L f n z z z f c z f z f f L z f f f f f f z z c f L z f f z L z z f f f z u z z f f L z z z z z z z z z z z z z z z f z z L f L f L f L f z z L z z f z z L f L f f z z z f L f z f z z z f L f z L L L - z z z f f f f z f f f f L z f y f f f L z z L z z c f L f n f R L z f f z L f f f L f f ",
"# # # # # # # # # # # # # # # # # # # # # # # # # # # # # # # # # # # # # # # # # # # # # @ # # # # # # # # # # # # # # . . . . . . . . . . . . . . . . . . . . . . . . . . . . . . : L z L L - z z L f L z z z L - L z f z z L z z L f L z z z z z z f L f L f L f L - z z z z z z z f L f z z f f z z z L z z z z z L f f z z f L z L L z L z z z z L L f L z n L z z z z z z z z L f L z z z z z f $ # # # # # # # # # # # # # # f z f z f L f L z L f z f L L z z L z z z z z z z f L f f z f n L f L z z z z L z z f n z L f n z L z z n z L f L z f z z L z L z z L z z z f z f L z L z L z z f z L z z L - L z z z L z z z f z f z f z f z z z L z z f z z z z f L f z z z L z z L z L z z f L f z L z z z z f z f z f L f n z L z z L f L f z f L f L f f f L f f L z z z z z L z z L f z z f z L z L z z L z z f z z L f z z L z z f z z L z z f z z L z f L f z z z f z f L f z z z f z * L L L L f L f n L f z z f n L f z L f f z z z z z z L z L z L z f n f z f L f L z L z z z f ",
"# # # # # # # # # # O # # # # # # # # # # # # # # # # # # # # # # # # # # # # # # # # # # # # # # # # # # # # # # # # # o . . . . . . . . . . . . . . . . . . . . . . . . . . . . . % L z L z L f L z z f z f L z z c f L z z f f L z z f z f L f L z L z z z z z z z z L L z z f L z L z z f L z n f L z z z z f L z z z n f L z z z f L z z z L L z z z z f z z z z L z L L z f L z z f z f L z n q $ # # # # # # # # # # # + # # f z L z z z z z z f L z z z L z z f L f L z f L z L z z L z z z z z f z L z z f L L z z z f z z z f L L z z z z f z z z z f z z L z z z L z L z z z z f z f L f L z - L z z L z z L L - L L z L z L z L z L f L z c L f L z f L z L z z f L z z z L f z f z z L z z z f L f L f L z L z z z z z z f L f L z c L z L z z z z z z z z z c L z f L z z z z z z z z L z z z L z z f L f L z z f L z z f L f L z z f L f L z z f z L z z f L z L z L z z f L z L z L L z z z z z L z z z L z z z L z n z z n f L z L L f f z f z z z z z L z z z z z z f f L z L ",
"# # # # # # # # # # # # # # # # # # # # O $ O # # # # # # $ # # # # # # # # # # # # # # # @ # # # # # # # # # # # # # # o . . . . . . . . . . . . . . . . . . . . . . . . . . . . . $ L z z z z z f z z L f z f z f L f z L f L z f z z L f z f z f z z L f z f L z L f z z L z L z L f z z L z z z L f z z L z L z L f z z L z z L f z L z L f L f z f z z L f z L - L z L z z z z L f z f z z z L f # O # O # # # # + # # # # # $ f z z L z z f z z z z L f z L L z z f z z z z z z L f z z z L L f z z L f L f L f z z L f L L L f z z L f L f L f z z L f L L L f z z L f L f L f z z L f L f z z L f L f z z L z - L z L z z z z z z z z z z z L L f L f z z z L z L f z z z f z f z f z f L f z z L z L f f z z z z L f z L L f z z z L L c z z z L f z f L z L f z L f f z f z z L f z f L L f z z L f L f L f z z L f L f L f z z L f L f L f z z L f L L f z z L z L f z z L z L f z z z f L z L z L z z z L f z f z z z z L z L f z z f L f L f L f L z L f z z z z L z z L z L f z z ",
"# # # # # # # # O # # # # O # # O # # # # # O # # # # # # # # # # # # # # # # # # # # # # @ # # # # # # # # # # # # # # o . . . . . . . . . . . . . . . . . . . . . . . . . . . . . & L - L L z z L f L z z z L z L L z z f z z z L f L z z z L z L f L z z z L f z z z f L f z f z z z f L f z L z z z f L f z f z z z f L f z z f L z c z z z z z z L f L z z z z L z L - L L f L z z z L f L z z f $ # # # # # # # # # # # # # # f L z z f L L z L f z f L z z z z L L z L f L f z f L z L f z z L z z f z z z z L z z f z z z z L z z f z z z z L z z f z z z z L z z f z z z z L z z f z z L z z f z z L z L - z L z L - L L f L f L f L f f L - L z z L z f L f z z z f L z L z L z L z L z z f L f z z z L z L f z f L z z z L z f L c z L f f L z z z L f z z z z f z L z L f L z z z L z z L z z f z z z z L z z f z z z z L z z f z z z z L z z f z z z z f L f z z z f L f z z z f L z L f z f z f z f L z z z L f L L L f z z z f L z z z z z z z z z f L z L f z f f L f z z z f L ",
"# # # # # # # # # # # # # # # # # # # # # # # # # # # # # # # # # # # O # # # # # # # # # @ # # # # O # # # # # # # # # o . . . . . . . . . . . . . . . . . . . . . . . . . . . . . % L L z z L L z z z L f L z L z f z z L z z L z z z L f L z L z z z L f L z z f L f z z z f z f L f z z z f z f L f z z z f z f L f z z z f z z z z L f L f L f L z z f z f L - L z z z L z z f z f L z z z z z f $ # # # # # # # # # # # # # # z z L z z z f z f L z z z z L L z L f z f L f L z L f z f L z z f z z L z z z z f z z L z z z z f z z L z z z z f z z L z z z z f z z L z z z z f z z L z z f L f L z z f z z L L - z L z z f z z L f z z L z f z c z z f z z z z f L z L z L f z z L f z z L z L z z f L f f z f L z z z z z z f z z z c L L z z z L f L z z f L f z L L z L z z z L f L z z z f z z L z z z z f z z L z z z z f z z L z z z z f z z L z z L z L z z f L f z z z f L z L z L c L f z z L f z f z f L z z z z z n z L z L z z L f z z L f z z z z z f L z L z z z f L z L z ",
"# # # O # # # # # # # # # # # # # # # # # # # # # # # # # # # # # # # # # # # # # # # # # @ O # # # # # # # # # # # # O . . . . . . . . . . . . . . . . . . . . . . . . . . . . . . & L z L L - f z f L z z f z f f L z z f L f f z f L z z f z f z f L z z f z z L z z f L z L z L z z f L z L z L z z f L z L z L z z f L z L L f L f f L z z z z f z z L z L z L z L - L - L z L z L f z f L z n y $ # # # # # # # # # # # # # $ z L f z f L L z z z L f L f z z z f L z z z z z z f L z z z L f L z z f L f L f L z z f L f L f L z z f L f L f L z z f L f L f L z z f L f L f L z z f L f z z z z L f L z z L z L L - L z L z z f L z z f z L z L L f L z f L z L f z f z z z f L z z f L f z f z z L z z L z z z L f L f L f L z z f L z c z f L z z f z z L z z f L f z f z f L z z f z L f L z z f L f L f L z z f L f L f L z z f L f L f L z z f L f f z f z z L z z f L z L f z f z f L z z f L z z z L z L f z f L L z n n f z f z z f L z z f L z L f L f z z z f f L z L f z f z ",
"# # # # # # # # # # # # # # # # # # O O # # # # # # # # # # # # # # # # # # # # # O # # # @ # # # # # # # # # # # # # # o . . . . . . . . . . . . . . . . . . . . . . . . . . . . . % L L z L z z z L f z z L f z z L - L z z L z z L f z z L f z z L f z z L f L f z z L f z z L f z z L f z z L f z z L f z z L f z z L f z z L z L z L z L f L f z f L z L z L L - L - L z z L z L z z f z z z L f # # # # + # # # + # # # # # # f z z f z z f z z z f L - L L - z L z z f z z L f z z L f z f z z L f z z L f z z L f z z L f z z L f z z L f z z L f z z L f z z L f z z L f z z L f z z L z z z z f L f z - L z z z z z z f L f z z L f L z L L L f L f z z z L z z f z f L z L f z z L z z f z f L z L f f z z z f L f L f z z L f z c z L - L f z z L f L f z z L c L f z z L f z z L f f z z L f z z L f z z L f z z L f z z L f z z L f z z L f z z L z f z f L z L f z z L z z f z f z c z z L f z f L z L z z f z z f z z f f L f L z z z L f z z z f L f L z z z L z z L z z f z f ",
"# # # # # # # # # # # O # # # # # # $ O # # # # # # # # # # # # # # # # # # $ O # # # # # @ # # # # # # # # # # # # # # o . . . . . . . . . . . . . . . . . . . . . . . . . . . . . $ L f z f z f L z z f L z z f L c L L z z f f L z z f L z z f L z z f L z z z z f L z z f L z z f L z z f L z z f L z z f L z z f L z z f L f z f z f z z z z z z L f z f z z z L z L z L z f z f z z L f L z L f # # # # # # # # # # # # # # # f z z L f L L z L f z z L z L L L - - L L z z f L z z f L z L z z f L z z f L z z f L z z f L z z f L z z f L z z f L z z f L z z f L z z f L z z f L z z f L f L f z z L z L z L z L f L f z z L z z f z z L - L * z z L z f L f z z L z L f z z z f L f z z L z L f z z z L z L f z z z z L z z f L z L z L L z z f L z z z z f L f L z z f L z z f L z z L z z f L z z f L z z f L z z f L z z f L z z f L z z f L z z f z L z L f z z z f L f z z L z L z L f L z z z L f z f z z L f L L z R f z z z z L f z f L z L f z z z z L f z f f L f z z L z L ",
"# # # # # # # # # # # # # # # # # # # # # # # # # O $ # # # # # # # # # O # + + # # # # # @ # # # O # # O # # # # # # # o . . . . . . . . . . . . . . . . . . . . . . . . . . . . . % z z z L f z f z f z f z f z f L z f L f L z f z f z f z f z f z f z f z f L z L z L z L z L z L z L z L z L z L z L z L z L z L z L z L z z z L f L f L f L f L z z z L f L z z z L z L z z z L f L z z z z z R # # # # # # # # # # # # # # $ f z L z z z f z f L z L L z L z L L L z z L z z z z z z z z f L f L f L f L f L f L f L f L f L f L f L f L f L f L f L f L f L f L f L f L f L f L f L f L f z z L z z f z L z L z f z z L z z f z z L z z f z z L z z f z z z z f L f z z z f L f z z z f L f z z z f L f f z f L z L f z f L f L f L c z c L z f z f z f L z L z z c z f z f z f z f z f f L f L f L f L f L f L f L f L f L f L f L f L f L f L f L f L L f z z z f L f z z z f L f z z z f z z L f L z z z L f L z z z L f f L z L f z f L z L f z f L z L f z f L z L z z z f L f z z ",
"# # # # O # # # # # # # # # # # # # # # # # # # # # O O # # # # # # # # # # @ @ # # # # # @ # # # # # # # # # # # # # O o . . . . . . . . . . . . . . . . . . . . . . . . . . . . . & R f L z z z L z L z L z L z L f z z z z z z L z L z L z L z L z L z L z L f z f z f z f z f z f z f z f z f z f z f z f z f z f z f z f z f L z z f L z z z z f z f L z z f L - L z z f z f L z z f z f L L z z # # # # # # # # # # # # # # # f z f z f L L z z z z f z L - L z z z L L - L f L f L f L f z z z z z z z z z z z z z z z z z z z z z z z z z z z z z z z z z z z z z z z z z z z z z z z z L z z f L f L z z L - z L z z f L f L z z f L f L z z c L f L z f L z L z z f L z L z z f L z L z z f L z L z z L z z z z f L z z z z z z z L f L - z L z L z L f z f z z L z L z L z L z L z L z z z z z z z z z z z z z z z z z z z z z z z z z z z z z z z z z z f L z L z z f L z L z z f L z L f L z z f z f L z z f z f L L z n z z f L z z z z f L z z z z f L z z z z f f L z L z z f L ",
"# # # # # # O # # # # # # # # # @ # # # # # @ # # # # # # @ # # # # # # # # # # # # # # # # @ @ # # # # # # # # # O O # O . . . . . . . . . . . . . . . . . . . . .   . . . . . . . & c f f z z f L L z L z z z f L L L z z z z z L z z L z z z z z z z z z z z z z z z z z z z z z z z z z z z z z z z z z z z z z z z z z z z z z L f L z L f z z L z L f L f z f z z z L z z z L z L f z L f L z z # # # # # # # # # O O # # # $ z z z z L z z L z z z L L - L f z z L z L z L z L z z f z f z f z f z f z f z f z f z f z f f L f L f L f L f L f L L z z f f L z z z z z z f L z f z z z z f z z z L L z z z L z z z L z L f L f z z z L L z z L L z L z z z z z z L z z z z z L f f z z z z L f z z z z L f z z z z L f z L z L z L z L z c L f L f L f L z z z z z L z z z z z z L z z z z f z z L z z z z f z z L z z z L z z z f L z z z z z z z L z z L f L z z z z L z z L L z z z z L c z z z L f L f z z L f L f z f z z f z z z z L z L f z z L z L f z z L z L f z z L z L f z z ",
"# # # # # # # # # # # # # # # # # # # # # # # # # # # # # # # @ # # # # # # # # # # # # # # + + # # # # # # # # # # # # . . . . . . . . . . X X . . . . . . . . . . X . . . . . . . & f y y z z z z z z f z L z z z z z L L z z z z z z z z L z L f L f L f L f L f L f L f L f L f L f L f L f L f L f L f L f L f L f L f L f f L z z f z z z z z f z z z z z z L f L z z z L z z z z z z z z z z f # # # O $ # # O # $ + # # O $ u n z z L z z z z L z z z z z L z z f z f z f z f z z L z L z L z L z L z L z L z L z L z L z z z z z z z z z z z z f z z f z z z f L f L z z z z f L L z z L z z z z z z L z z z L z z z z z z L z z z z z f L z z z z z L z z L z L z z z L z z z L z L f z f L z L f z f L z L f z f L z f z f z - z c z L z z z z z z z L f L f z L z z L f L z f z z f z L z z z z L z z L z z z z L z z z z z z z z z L L z z z z z z z z z z L f z f z z z z f L z z z L f L z f z z L z z f z z L z L L R f z z f L f z z z f L f z z z f L f z z z f L f z z z f L ",
"# # # # # # # # # # # # # # # # # # # # # # # # # # # # # # @ @ # # # # # # # # # # # # # + @ + O O # # O O O O # O # O .   . . . .     . X . X . X . . . . . . . . . . . . . . . . 2 n R n z z z L z z z z z z z L n z z z n z L z n z z L z z f z z L f z z L f z z L f z z L f z z L f z z L f z z L f z z L f z z L f z z L z f z f f f f f f f f z f f f f f f f f n z z z L z z z z z L f z z n # # # O O O O O # O O O O O O n N L z z z z z z z L L z L L z f z z z z z z z z z L f c c L f z z L f z z L f z z L f z z z L f z z L f z z L f z z z f f f f f f f f f f f f f f f z z z f z z n n n z L n z z z L z z z z z f z n z z n z n n n z n z L n z z z f n n z z z L f f z f L z z z z f L z L f z f L z z z z z z L f L z L f f z f z z L f z f z z L z L f 4 f f f f f f f f f f f f f f z z L f z z z L z z z L n n z L z z z z n z L z y n L z z z z n z L z z z z z n n z z z z z z L z z f L f L z z f z L z f L L z L z z f L f z z z f L z L z z f L f z z z f L z L z ",
"# # # # # # # # # # # # O # # # # # # # # # # # # @ # # # # $ # # # O # # # # # # # # # + O O O O O O O O O O O O O O O O O o O O o o O o o o o o o o X . . . . . . . . . . . . . . 2 _ R ~ R ) R R R ) R R ) n Q R ~ ~ Q R Q n R R ~ ~ R R R ) L z z f L z z f L z z f L z z f L z z f L z z f L z z f L z z f L z z f L z z f z L z L L ' } | ] | ] ] | | ' ' ' ..' } ~ ~ Q Q R Q R ) R ) R R W ) Q n n n N q q W q N N q N 4 q W 4 4 : - : - - 4 : < : : - : : f 4 f f f f f f f 4 f f - c * z z f L z z f L z z f L z z f L z f L z z f L z z f L z z R ' } ' } | ' | ' ' ' ' } ' } | R Q Q R R Q R Q R R R R ) R R Q R R ) R ) R R Q F Q R R R Q Q Q R R R ~ ~ Q n R R Q ) R R z z L z z z L f L f z z z f L z z z L f L f f L z z f L f L L z L z z f L z L z z f L z R } ..{ ' | ] ] ' ' ' | ] | ] ' Q W R R ) R R R ) n Q R ~ ~ R R ) R R R R ) R R ~ ~ R R R ) Q ~ R R R ) Q n R R Q ) R R L L z f L f z z z z L f L z z n z z f z f z z L z z f L z L f z f z z L z z f L z L f z f z ",
"# # # # # # # # # # # # # # # # # # # # # # # # # # # # # # # # # # # # # # # O # # # # # X . . . . . . . . . . . . . . $ - L L z L f L z z z z n n z o   X . . . . . . . . . . . . ( $.$.$.$.$.$.$.$.$.$.$.$.$.$.$.$.$.$.$.$.$.$.$.$.$.$.$.$.| L z z L z L f L f L f z z L f L f L f z z L f L f L f z z L f L f L f z z L f L L z z z R a.v.v.v.p.v.r.v.p.v.v.v.j.v.a.#.$.$.$.$.$.$.$.$.$.$.$.$.$.$.r.v.v.v.v.n.g.v.v.g.v.v.v.v.7.# # O # # # # # # # O # # # O # # # + # # # O # # # O # # $ L z L f z z L z L z L f z z L z z z z L f z z z z z z L f { v.a.v.v.j.v.v.v.v.v.v.v.j.v.a.$.$.$.$.$.$.$.$.$.$.$.$.$.$.$.$.$.$.$.$.$.$.$.$.$.$.$.$.$.$.$.$.$.$.$.$.$.$.$.$.$.$.$.$.| L z z L f z f L f L z z z L f z z z f L f L z f z z L f L z c L z z f z z z f L f z z f } n.j.j.v.v.v.v.p.v.v.j.v.v.V.6.} $.$.$.$.$.$.$.+.$.$.$.$.$.$.$.$.$.$.$.$.$.$.$.$.$.$.$.$.$.$.$.$.$.$.$.$.$.$.$.$.$.$.#.{ f z z z L z z z z f L f z c z z z z f z f L f z z L f z z z f z f L z L f z z L z z f z f ",
"O # # # # # # # # # # # # # # # # # # # # # # # # # # # # # # # # # # # # # # # # # # # # X . . . . . . . . . . . . . . & * - L z f z z L f L f n n u o   X . . . . . . . . . . . . ( $.$.$.$.$.$.$.$.$.$.$.$.$.$.$.$.$.$.$.$.$.$.$.$.$.$.$.$.$.L z z f z f z z z z L z z f z z z z L z z f z z z z L z z f z z z z L z z f z z z z L L Q r.v.v.v.v.v.v.v.v.v.r.v.v.v.g.$.$.$.$.$.$.$.$.$.$.$.$.$.$.$.g.v.v.r.v.g.n.g.n.g.v.v.a.v.7.% # # # # # # # # # # # # # # # # # # # # # O # # # O $ # $ f z z z f L f z f z z z f L f z L f z f L z L f L f z f f ' v.v.j.v.j.v.a.v.a.v.j.v.j.v.a.#.$.$.+.$.$.$.$.$.$.$.$.$.$.$.$.$.$.$.$.$.$.$.$.$.$.$.$.$.$.$.$.$.$.$.$.$.$.$.$.$.$.$.$.| z z z f L z z z z z L f z f L z L f z z z z z L f L z L f z L - f L L z L f z z L z f f | n.v.v.v.j.v.v.v.v.v.v.v.j.V.9.$.$.$.$.$.$.$.$.$.$.$.$.$.$.$.$.$.$.$.$.$.$.$.$.| $.$.$.$.$.$.$.$.$.$.$.$.$.$.$.+.$.$.$.} z L z z f L f L f z z L z L z L f z L z L z z f L z z f L z L z L f z z z f L f z z L z L ",
"# # # # # # # # # # # # # # # # @ # # # # # @ # # # # # @ # # # # # # # # # # # # # # # # . . . . . . . . . . . . . . . & L L L z L z z f z z L c R f o   . . . . . . . . . . . . . _ $.$.$.$.$.$.$.$.$.$.$.$.$.$.$.$.$.$.$.$.$.$.$.$.$.$.$.#.X.L L z L z L z z z z f z z L z z z z f z z L z z z z f z z L z z z z f z z L z z z L z z Q r.v.v.r.v.p.v.v.r.v.v.j.a.n.a.$.$.$.$.$.$.$.$.$.$.$.$.$.$.X.r.p.v.v.p.n.g.n.g.v.v.v.v.v.9.% O # # # # # # # # # # # # # # # # # # # # # # # # O O O $ z f L f z z z f z f L f z z z f f L z L f z f L f L z L 4 ' v.j.v.j.v.v.v.v.v.a.v.a.v.v.r.$.$.$.$.$.$.$.$.$.$.$.$.$.$.$.$.$.$.$.$.$.$.$.$.$.$.$.$.$.$.$.$.$.$.$.$.$.$.$.$.$.$.$.$.$.z L z z z z z L f z f L z L f z f L z L f z L z z z L - * L L z z z f z f L z z f z f f } v.v.v.v.j.v.r.v.v.v.v.v.j.n.,.$.$.$.$.$.$.$.$.$.$.$.$.$.$.$.$.$.$.$.$.$.$.$.$.$.$.$.$.$.$.$.$.$.$.X.$.$.$.$.$.$.$.$.#.} n f L f L f z z L z z f z L z n f L f z z L z L z L z L z L f z z z f L f z z z f L f z z ",
"# # # # # # # # # # # O # # O # # # # # # # # # # # # # # # # # # # # # # # # # # # # # # . . . . . . . . . . . . . . . & L - L z f L f L z z f f y 4 o   . . . . . . . . . . . . X ( $.$.$.$.$.$.$.$.$.$.$.$.$.$.$.$.$.$.$.$.$.$.$.$.$.$.$.| | z z z f z f L f L f L z z f L f L f L z z f L f L f L z z f L f L f L z z f L f L - z z Q r.v.v.v.v.v.v.v.v.v.p.v.v.v.a.$.$.$.$.$.$.$.$.$.$.$.$.$.X.#.r.v.v.v.v.g.n.g.n.v.g.g.v.v.9.# # # # # + # # # # # # # # # # # # # # # # # # # + $ O O $ z L z z f L z L z L z z f L z L z z z f L z z z z z z f f ' v.v.v.v.v.j.a.v.v.v.v.v.v.j.g.$.$.$.$.$.$.$.$.$.$.$.$.$.$.$.$.$.$.$.$.$.$.$.$.$.$.$.$.$.$.$.$.$.$.$.$.$.$.$.$.$.$.$.$.| z z L f L f z f L z z z z f L z z z z f L z f z f L z L L z c z f L L z z z L f L z f f | v.v.a.v.v.v.v.p.v.v.a.v.v.n.9. .$.$.$.$.$.$.$.$.$.$.$.$.$.$.$.$.$.$.$.$.$.$.$.$.$.$.$.$.$.$.$.$.$.$.$.$.$.$.$.$.$.$.$.{ y z z z z L z z f L f L z L z n L z z f L f z f z f z f z z z f L z L z z f L z L z z f L ",
"# # # # # # # # # # # # # # # # # # # # # # # # # # # # # # # # O + @ @ # # # $ + @ # # # . . . . . . . . . . . . . . . $ Q - L z L f L f z z L z z z o . . . . . . . . . . . . . . F $.$.$.$.$.$.$.$.$.$.$.$.$.$.+.$.$.$.$.$.$.$.$.$.$.$.$.$.$.z z L L f z z L f z z L f L f z z L f L f z z L f z z L f L f z z L f L f z z L z z z L Q r.m.v.g.g.v.v.v.r.v.v.v.v.v.g.$.$.$.$.$.$.$.$.$.$.$.$.$.$.$.a.v.v.r.v.p.v.v.r.v.v.v.v.v.9.# # # # # # # # # # # # # # # # # # # # # # # # # # # # O $ L f z z L z L f z z L z L f z z z L f z z z z L f z z z f ' j.v.a.v.v.v.a.v.a.v.v.v.p.v.r.X.$.$.$.$.$.$.$.$.$.$.$.$.$.$.$.$.$.$.$.$.$.$.$.$.$.$.$.$.$.$.$.$.$.$.$.$.$.$.$.$.} $.$.| z z z z z z z z z L f z z z z z z L f z z z z z L f z f L f f z z z z L f z f z z L f f | n.v.v.r.v.v.p.r.v.a.v.v.v.v.4.| X.$.$.$. .$.$.$.$.$.$.$.$.$.$.$.$.$.$.$.$.$.$.$.$.$.$.$.$.$.$.+.$.$.$.$.$.$.$.$.$.$.$.} y z z z z f z z L f L f z f z z f z z z z z z z z z z z z L z L f z z L z L z L f z z L z ",
"# # O # # # # # # O # # # # # # # # # # # @ # O # @ # # # @ # # $ + # # # # # O + @ # O # X . . . . . . . . . . . . . . : - L - z f z z L z z f z n 4 o   . . . . . . . . . . . . . ~ $.$.$.$.$.$.$.$.$.$.$.$.$.$.$.$.$.$.$.$.$.$.$.$.$.$.$.$. .L L z z L z z f L z z f z z L z z f z z L z z f L z z f z z L z z f z z L z z f L f z f Q p.m.v.v.v.v.p.v.v.v.v.g.g.v.a.$.$.$.$.$.$.$.$.$.$.$.$.$.$.$.g.v.g.v.v.v.v.v.v.v.p.v.v.v.9.$ # # O # # # # # # # # # # # # # # # # # # # # # # # # O $ z z f L f z z z f L f z z z f L z f L z L f z f L z L f f ' v.v.v.v.v.a.v.v.v.v.v.v.v.v.r.$.$.$.$.$.$.$.$.+.$.$.$.$.$.X.$.$.$.$.$.$.$.$.$.$.$.$.$.$.$.$.$.$.$.$.$.$.$.$.$.$.$.$.$.| L f L f L f L f z f L z L f L f z f L z L f f L z z z L L z L z L f z f L z L z z f z f | v.v.p.v.v.v.v.v.v.v.v.v.r.v.4.X.$.$.$.$.$.$.$.$.$.$.$.$.$.$.$.$.$.$.$.$.$.$.$.$.$.$.$.$.$.$.$.$.$.$.$.$.$.$.+.$.$.$.#.{ f L f L f L z z f z z L z L z R f z z f L L f L f L f L f f z z z f L f z f z z z f L f z ",
"# # # # # # # # # # # # # # # # # # # # # # # # # # # # # # # # # # O # # # # # # # # # # . . . . . . . . . . . . . . . % L L L z L z z f L f L z L 4 o . . . . . . . . . . . . . X _ $.$.$.$.$.$.$.$.$.$.$.$.$.$.$.$.$.$.$.$.$.$.$.$.$.$.$.$.$.z z z z f L f L f L f L z z f z z L z z f L f L f L f L z z f z z L z z f L f L f L z L Q r.v.v.r.v.v.v.v.p.r.v.v.v.v.g.$.$.$.$.$.$.$.$.$.$.$.$.$.$.$.r.v.v.g.g.v.v.v.v.r.v.v.r.V.9.$ # # # # # # # # # # # # # # # # # # # # # # # # # # # # $ L z L z z f L f z z z f L z L z z z z z f L z L f z f L f { v.j.a.v.a.v.v.p.r.v.v.r.v.v.p.$.$.$.$.$.$.$.$.$.$.$.$.$.$.$.$.$.$.$.$.$.$.$.$.$.$. .$.$. .$.$.$.$.$.$.$.$.$.$.$.$.$.$.| z L f z z L f L z L f z f L f L z L f z f L z f z f L z f z L f z f z z z z f L f L z z | n.v.v.v.v.v.v.v.v.a.v.a.v.m.6.X.$.$.$.$.$.$.$.$.$.$.$.$.$.$.$.$.$.$.$.$.$.$.$.$.$.$.$.$.$.$.$.$.$.$.$.$.$.$.$.$.$.$.$.{ f f z z L f L f L z z f z L f z f L z L z f z z L f z z L z f L f z z z f z f L f z z z f ",
"# # # # # # # # # # # # # # # # # # # # # # # # # # # # # # # # # # # # # # # # # # # # # X . . . . . . . . . . . . . . & L L - z f L f z z z z z z f o   . . . . . . . . . X . . X _ $.$.$.$.$.$.$.$.$.$.$.$.$.$.$.$.$.$.$.$.$.$.$.$.$.$.$.$. .L f L f z z z z z z z z L f L z z f L f z z z z z z z z L f L z z f L f z z z z z z z f Q r.v.j.v.v.v.p.v.v.v.v.v.g.n.a.%.$.$.$.$.$.$.$.$.$.$.$.$.$.#.p.g.v.v.v.v.r.p.v.v.v.v.v.V.,.$ # # # # # # # # # # # # # # # O # # # # # # # # # O # # $ f z f z z L z z f L z L f z f z L f L f z z z f L z z z f ' v.v.v.v.v.v.v.v.v.v.v.v.p.v.r.#.$.$.$.$.$.+.$.$.$.$.$.$.$.$.$.$.$.$.$.$.$.$.$.$.$.$.$.$.$.$.$.$.$.$.$.$.$.$.$.$.$.$.$.| z f L z z f z z z f L z z z z z z f L z z z z L z L f f L z c L z L L f L f z z z z z z | n.v.p.v.v.r.v.v.p.v.v.v.v.v.6.X.$.$.$.$.$.$.$.$.$.$.$.$.$.$.$.$.$.$.$.$.$.$.$.$.$. .$.$.$.$.$.$.$.$.$.+.$.$.$.$.$.$.#.} f L z z f z z z z L f L z c L z L f z f z L z z f L z z f z L z z f L z L z L z z f L z L ",
"# # # # # # # # # # # # # # # # # # # # # # # # # # # # # # # # # # # # # # # # # # # # # . . . . . . . . . . . . . . . $ - ! - z L f L z z z z L L z o   . . . . . . . . . . . . . ( $.$.$.$.$.$.$.$.$.$.$.$.$.$.+.$.$.$.$.$.$.$.$.$.$.$.$.$. .z z L L z L L z z z z z f L f z z L f L z z z z z z z z f L f z z L f L z L - L z L f z Q r.v.v.v.v.v.v.r.v.p.v.v.v.v.r.$.$.$.$.$.$.$.$.$. .$.$.$.$.$.r.v.r.v.p.v.p.v.v.v.p.v.p.x.,.$ O # # # # # # # # # # # O # # # # # # # O O # # # # # O # z f z f L z L f z z L z z f z L f L f L z z z L f z z z f ' v.r.v.v.v.v.v.v.v.v.p.v.v.v.g.$.$.$.$.$.$.$.$.$.$.$.$.$.| $.$.$.$.$. .$.$.$.$.$.$.$.$.$.$.$.$.$.$.$.$.$.$.$.$.$.$.$.$.$.z z z L f L z L f z z L f z z L f z z L f z L z L z z f L f c z L z L z L z L z L z L f | n.v.p.v.r.v.g.g.v.g.v.v.v.v.6.X.$.$.$.$.+.$.$.$.$.$.$.$.$.$.$.$.$.$.$.$.$.$.$.$.$.$.$.$.$.$.$.$.$.$.$.$.$.$.$.$.$.$.$.{ y z L f L z z z z f L f z c z L z z z z z f L f z z L f L L f z z L f z z L f z z L f z z ",
"# # # # # # # # # # # # # # # # # # # # # # # # # # # # # # # # # # # # O # # # # # # # # X . . . . . . . . . . . . . . : - - Q z f z z L f L L z z f o   . . . . . . . . . . . . . _ $.$.$.$.$.$.$.$.$.$.$.$.$.$.+.$.$.$.$.$.$.$.$.$.$.$.$.$.$.L L z z z z z z L f L f z z L z z f z z L f L f L f L f z z L z z f z z z z L z z f L z Q j.v.v.p.v.v.p.v.v.v.v.g.v.v.r.$.$.$.$.$.$.$.$.$.$.$.$.$.$.$.g.v.v.v.v.v.v.r.v.v.v.v.v.V.u.$ # # # # # # # # # # # # # # # # # # # # # # # # # # # # $ z L z L f z z z f L f z z L z z z z z z L f z f L z L f f ' v.v.v.p.v.v.r.v.v.p.v.v.v.r.g.$.$.$.$.$.$.$.$.$.$.$.$.$.#.X.$.$.$.$.$.$.$.$.$.$.$.$.$.$.O.$.$.$.$. .$.$.$.$.$.$.$.$.$.| z z z f z z z f L z z f L z z f L z z f L z f z f z z L L z L z f z f z f z f z f z z f | n.v.v.v.v.v.v.v.v.v.v.g.g.v.6.X.$.$.$.$.$.$.$.$.$.$.$.$.$.$.$.$.$.$.$.$.$.$.$.$.$.$.$.$.$.$.$.+.$.$.$.$.$.$.$.$.$.$.$.} n z f z z L f L f z z L z L z f z L f L f z z L z z f z z z z f L z z f L z z f L z z f L ",
"# # # # # # O # # # # # # O # # # # # # # # # # # # # # # # # # # # # # # # # # # # # # # . . . . . . . . . . . . . . . : - L L z L z z f z z z z z f o   X . . . . . . . . . . . . F $.$.$.$.$.$.$. .$.$.$.$.$.$.+.$.$.$.$. .$.$.$.$.$.$.$.$. .z z z L L z z L f z z L z z f z z L z z f z z L f z z L z z f z z L z z L - L z z z z z Q r.m.v.v.r.v.v.v.v.v.v.p.v.v.p.$.$.$.+.$.$.$.$.$.$.$.$.$.$.$.r.v.v.v.v.v.v.v.v.v.p.v.j.x.u.$ # # # # # O # # # # # # # # # # # # # # # # # # # # # # $ L f z z z f L f z z z f L f L z z L f z f L z L f z z z f ' v.v.r.v.v.r.v.v.v.v.v.g.v.v.r.$.$.$.$.$.$.$.$.$.$.$.$.$.$.$.$.$.$.$.$.$.$.$.$.$.$.$.$.$.$.$.$.$.$.$.$.$.$.$.$.$.$.$.#.| z L z L z z z z z z z z z z z z z z z z z z z z L f L z f z c z L z z z L f z z z L z f $.n.r.v.a.v.g.v.v.g.v.p.v.v.v.6.X.$.$.$.$.$.$.$.$.$.$.$.$. .$.$.$.$.$.$.$.$.$.$.$.$.$.$.$.$.$.$.$.$.$.$.$.$.$.$.$.$.$.#.{ n z L z z f z z L z z f z f z z z f z z L z z f z z L z z L z L z L z L z L z L z L z L z ",
"# # # # # # # # # # # # # # # # # # O # # # # # # # # # # # # # # # # # # # # # # # # # # . . . . . . . . . . . . . . . : Q L - z f L f L z L z z z u o . . . . . . . . . . . . . . ( $.$.$.$.$.$.$.$.$.$.$.$.$.$.$.$.$.$.$.$.$.$.$.$.$.$.$.$.$.L f L - L z z z L z z f L f L z z f L f L z z f L z z f L f L z L - L L z L L - L f L f Q r.m.v.v.v.v.v.p.v.r.v.v.v.v.v.$.$.$.$.$.$.$.$.$.$.$.$.$.$.#.r.v.p.v.r.v.p.v.v.v.j.v.v.V.,.$ # # # # # # # # # # # # # # # # # # # # # # # # # # # # # z z f L z L z z f L z L z z z z z f L z z z z f L z z z f ' p.v.v.v.v.v.p.v.v.r.v.g.v.v.g.$.$.$.$.$.+.$.$.$.+.$.$.$.$.$.$.$.$.$.$.$.$.$.$.$.$.$.$.$.$.$.$.$.$.$.$.$.$.$.$.$.$.$.$.| z z z f L z L f L f L f L f L f L f L f L f f L z z f f L z L z f z f L z z f L z z z z | v.v.v.v.v.g.v.v.g.v.v.g.v.v.6.X.$.$.$.$.+.$.$.$.$.$.$.$.$.$.$.$.$.$.$.$.$.$.$.$.$.$.$.$.$.$.$.$.$.$.$.$. .$.$.$.$.$.$.} n z f L f L z z f L f L z L f L f L z z f L f L z z f L L f z f z f z f z f z f z f z f z ",
"# # O # # # # # # # # # # # # # # # # # # # # # # # # # # # # # # + # # # # # # # # # # O . . . . . . . . . . . . . . . : - Q - f z z z z L z L - f - o   . . . . . . . . . . . . . _ $.$.O.$.$.$.$.$.$.$.$.$.$.$.$.$.$.$.$.$.$.$.$.$.$.$.$.$.| R z L z z z z z f z L - z z L z L z f z L f z z z z L - L z - L L L - L L L z L L z z z Q 9.V.n.v.g.g.x.n.g.n.g.v.v.v.r.$.$.$.$.X.$.X.#.X.$.$.$.$.$.$.a.g.v.v.v.g.v.v.v.v.v.v.v.V.9.$ # # # # # # # # # # # # # O # # # + + + # # # # # # # # $ L z z z z L z z z z z L z z z z z z L f L L - L L z L L - | j.v.g.n.g.g.n.g.x.g.V.n.g.v.a.$.$.$.O...O.O.$.O.$.$.$.$.$.$.$.O.$.$.$.$.$.$.$.$.$.$.$.$...$.$.$.$.$.$.$.$.$.$.$.$.$.$.{ y n z z z f L z z z z f z z z f f L z f f L z z z L z L c L L f L - L z z L L z z z z f | n.v.v.v.v.x.g.x.g.v.r.v.v.V.6.} $.$.$.$.$.$.$.$.$.$.$.$.X.$.$.$.$.$.$.$.$.$.$.$.$.$.$.$.$.$.$.$.$.$.$.$.$.$.O.#.O.$.$.{ f z z z z z z z z z z z L z z L z z L z z L f z z z z L - L L - L - L z L L L - L L L z L ",
"# # # # # + # + # # O O # # # # # + + # # # O O # # # # # + # # # # # + # # # O # # # # O . . . . . . . . . . . . . . . & - - L L c L c L c c L L L z o . . . . . . . . . . . . . . ( #.$.$.$.$.$.$.$.$.$.$.$.$.$.| $.$.$.$.$.#.$.$.$.$.$.$.$.$.n z L L z n Q z L z L L z z z L z L L z f L c L f L c L L z L - - L f f - - - L - L - z Q g.V.V.n.V.V.V.V.x.n.V.v.v.v.p.#.$.$.$.$.$.X.X.$.$.$.$.$.$.$.v.V.V.m.m.v.m.v.v.m.m.v.v.V.9.$ # # # # # # @ # # # # # # # + # # O O + # # # # # # # # # z L L L z L L L L L z L R z L z c f f f - - L - c - L - - | v.v.n.n.n.n.n.n.V.B.V.g.v.V.g.#.$.$.#.#.O.#.#...#.$.#...#.$.$...#.$.$.$.$.$.$.$.$.$.$.$.$.o.$.$.$.$.$.$.$.$.$.$.#.$.$.$.f R z n L L L z L z L L L z L L z z L L z z L c L * c L L - z z z z z L L - z z L f z f | n.v.v.v.v.x.x.m.m.v.v.v.v.V.9.$.$.$.$.$.$.#.| $.#.$.$.$.$.$.$.| #.$.#.$.$.$.$.$.$.$.#.$.$.$.$.$.$.$.$.$.$.$.$.O.$.$.#.} n Q z z L L L z z L L z L L z z L f L f L c L c L f L c L L - L - L L - - - - L - - - z - ",
"$ % % # $ $ $ $ % $ $ % $ $ % # $ $ $ $ % $ $ % $ $ % $ $ $ $ $ % # $ $ $ % $ $ $ $ $ $ $ O O O O O O O O O O O O O O O - - ! - z L z z f z L z L z f o   . . . . . . . . . . . . . ( $.$.$.$.$.$.$.$.$.$.$.$.$.$.$.$.$.$.$.$.$.$.$.$.$.$.$.$.$.u u 4 u u u u < u 4 : z u u u z L L z f f L z L L f L z f f | X.o.o.X.o.o.o.X.X.o.o.X.X.$.4.7.,.,.9.,.9.,.9.,.9.4.4.4.4.*.*.&.&.*.&.&.*.&.&.*.*.*.*.*.%.&.&.&.&.%.&.&.&.&.&.&.&.*.#.4 < < : < : 4 < < < 4 < < < < $ # $ + , , + # , # # + , , # : : : : : : 4 : : 4 : : : : f X.X.| X.X.o.o.X.| o.o.o.o.X.#.4.4.,.7.<.7.,.,.9.,.9.,.,.9.,.$.$.$.O.O.$.$...O.$.$.....$.$.$.$.$.$.$.$.$.$.$.$.$.$.$.$.O.o.$.$.$.$.$.$.$.$.$.$.$.$.$. .f N n N y q z z u n f u 4 u f f L f f z L f L z L z z z z R ` R ` ! Q ` ` ! Q Q Q Q ` L o.v.p.p.r.r.s.s.y.y.p.p.r.p.g.,.$.$.$.$.$.$.$.$.$.$.$.$.$.$.$.$.$.$.$.$.$.$.$.$.$.$.$.$.$.$.$.$.$.$.$.$.$.$.$.$.O.O.$.$.) 4 < u u < : u u u u 4 u u u u L z z f z f L z z z L f z z Q o.X.o.X.o.X.X.o.o.o.o.o.o.| X.",
"f z L z z f R z f f n n n z z R z f R z f f n n n n f f z c L f L L f L z f z f z L L z z L f L - L - - z L - z - - - L L L L L z f L f z z f z f z f o     X . . . . . . . . . . . ( $.$.$.$.$.$.$.$.$.$.$.$.$.$.$.$.$.$.$.$.$.$.$.$.$.$.$.$.| , , , , , , , , , , < $ , , , z z z z L z z L - z z f z z f 4.n.j.v.j.v.v.v.j.v.j.n.v.m.p.$.$.$.+.+.+.+.+.+.+.+.$.X.X.#.p.v.v.v.v.v.v.j.j.v.v.v.v.g.g.% O @ @ @ @ @ @ O @ @ @ # # $ } $.$.$.$.$.$.X.$.$.$.$.$.$. .< , < , , , , , , , , , , , , # # # # # O # # # # # # O O < v.v.v.v.v.v.v.v.v.n.j.c.j.v.6.X.X.$.$.$.$.$.$.$.+.$.+.+.+.$.$.$.+.$.O.$.$.$.$.$.$.$.$.$.$.$.$.$.$.$.$.$.$.$.$.$.$.$.$.O.$.$.$.$.$.$.$.$.$.$.$.$.$.$.{ , , , , , , , , , , , , , , < z z z f L z z f L - L L z c | v.j.j.j.j.j.j.j.j.j.v.r.j.v.4.o.$.$.#.X.+.#.+.#.#.$.$.$.$.$.$.+.$.$.$.$.$.$.$.$.$.$.$.$.$.$.$.$.$.$.$.$.| $.$.$.$.$.$.$.$.$.$.$.$.$.$.$.$.$.#.+.$.#.) , , , , , < $ , , , , < $ , 4 L z z L z L f L - L z z L f X.m.m.j.n.j.v.p.c.m.n.j.c.n.v.v.",
"f z f z z L f z z f z f z z L f f z z z f L f L n z z z L f z L z f z z z L f L L L - L L f z z L L z L - L - L z z z z z L z L z L f L z z z z z z z o   . . . . . . . . . . . . . ( $.$.$.$.$.$.$.$.$.$.$.$.$.$.$.#.$.$.$.$.$.$.$.$.$.$.$.+.+., , , , , , , , , , , , , , < z f L f L z z z L L f z f z f 6.v.m.j.v.v.j.v.v.p.v.v.j.m.g.$.$.$.$.$.$.$.$.+.$.$.$.$.+.#.g.g.v.g.v.r.v.p.v.v.v.p.v.v.r.< O # # # @ @ # @ # # # # # $ +.+.$.$.$.$.$.$.$.$.$.$.$.%.$.< , , , , , , , , , , , , , , # # # # # # # # # # # # # O % v.v.v.p.v.v.v.v.p.p.v.v.r.v.r.X.X.$.$.$.$.$.$.$.O.$.$.$.$.$.+.$.$.$.O.#...$.$.$.$.$.$.#.O.$.$.$.$.$.$.$.$.$.$.$.$...$...$.$.$.$.$.$.$.$.$.$.$.$.$.$.{ , , , , , , , , , , , , , , < n z z L f z f z z L f z z c | v.v.v.v.j.j.v.v.v.v.a.v.j.v.4.$.$.$.$.$.$.$.$.$.$.$.$.$.$.+.$.$.$.$.$.$.$.$.$.$.$.$.+.$.$.$.$.$.$.$.$.$.$.$.$.$.$.$.$.$.$.$.$.$.$.$.$.$.$.O.#.O.$.$.{ , , , , , , , , , , , , , , < z L z L - L z z L f z z L - X.m.v.v.v.v.p.v.c.m.v.j.p.v.v.v.",
"z z L z z f L z z L z L L z z z L z L f z z z z z z L z z z f L z L f L z f z z z z L z z z L f L - z L L z L z L f L f L - z z z f z z L f L f f L 4 o . . . . . . . . . . . . . . ( #.$.$.$.$.$.$.$.$.$.$.$.$.$.$.$.$.$.$.$.$.$.$.+.$.$.$.$. ., , , , , , , , , , , , , , , z z z z z L f z f z L z L z z 6.v.v.m.j.v.p.v.v.v.j.m.v.m.g.#.$.$.$.$.$.$.$.$.$.$.$.$.+.#.g.V.v.g.v.v.v.v.v.j.v.v.g.v.g.$ O # # # @ @ # # # # # O # $  .+.$.$.$.$.$.$.$.$.$.$.$.$. .< , , , , , , , , , , , , , , # + # # # + # # # # # # # O < v.v.j.v.v.v.p.v.v.v.v.v.v.v.r.#.X.$.$.$.$.$.$.$.$.$.$.$.$.$.$.$.$.$.$.O.$.$.$.$.$.$.$.O.O.$.$.$.$.$.$.$.$.$.$.$.$.$...#.$.$.$.$.$.$.$.$.$.$.$.$.$.$. ., , , , , , , $ , , , , , , < f z z z z z L f L z z f L L o.g.v.p.v.v.v.v.j.v.a.v.v.v.v.4.#.$.$.$.$.$.$.$.$.$.+.$.$.$.$.$.$.$.$.$.$.$.$.$.$.$.$.$.$.$.$.$.$.$.$.$.$.$.$.$.$.$.$.$.$.$.$.$.$.$.$.$.$.$.$.O.O.$.$._ , , , , , , , , , , , , , , < z z z z L z f L z z f L z f o.m.v.j.v.p.v.v.c.j.v.m.v.v.v.r.",
"z z z z z z z z L f z z z f L f f z f L z L f z L L z z L n z f L z z z z L z z z z f z L f L - z z L z z - L z f z z L z L L z z L z z f z z L z f f o   . . . . . . . . . . . . . ( #.$.$.$.$.$.$.$.$.$.$.$.$.$. .$.$.$.$.$.$.$.$.$.$.$.$.$.+., , , , , , , , , , , , , , , u z L f z f L z L L - z z z f 6.v.j.j.v.v.v.p.v.p.j.v.v.v.g.$.$.$.$.$.$.$.$.$.$.$.$.$.$.#.g.n.v.v.v.v.v.v.v.p.v.p.g.v.a.% O # # # # # # # # # # # O $  .+.$.$.$.$.$.$.$.$.$.$.$.$. .< , , , , , , , , , , , , , + # # # # # # # # # # # # # O 4 v.v.v.j.j.v.v.v.v.v.v.g.v.v.r.X.$.$.$.$.$.$.$.$.$.$.$.$.$.$.$.$.$.$.$.$.$.$.$.$.$.O.O.#...$.O.$.$.$.$.$.$.$.$.$.$.$.$.$.$.$.$.$.$.$.$.$. .$.$.O.$.$. ., , , , , , , , , , , , , , < z L z L f L z z f z f z f - | v.v.v.p.v.v.v.j.v.v.j.v.v.v.4.| $.$.$.$.$.$.$.$.$.$.$.$.$.$.$.$.$.$.$.$.$.$.$.$.$.$.$.$.$.+.$.$.$.$.$.$.$.$.$.$.$.$.$.$.$.$.$.$.$.$.$.$.$.$.$.$.$.%.) , , , , , , , , , , , , , , < z f L - L z z f z f z f z c X.m.v.j.v.v.v.j.j.v.j.v.v.v.v.p.",
"L f L f L f L f z z f L z L z z L z z z z f L z z z z L f z L L f z f L z f L f L f L z z f L L L z - L z L z L L z z f L - L z z f L f L z z f z L f o . . . . . . . . . . . . . X _ O.$.$.$.$.$.$.$.$.$.$.$.$.$.$.$.$.$.$.$.| $.$.$.$.$.+.$. .< , , , , , , , , , , , , , , u z f L z z z z f z z L z z f 6.v.v.v.v.j.v.v.v.v.v.v.j.v.g.#.$.$.$.$.$.$.$.$.$.$.$.$.$.#.g.V.g.v.v.p.p.v.v.v.v.v.v.g.g.< # # # # # # # # # # # # $ $  .+.$.$.$.X.$.$.$.$.$.$.$.$.$.< , , , , , , , , , , , , , , # # # # # # # # # # # # # @ < v.j.v.v.v.v.p.v.r.v.r.v.v.v.r.$.$.$.$.$.$.$.$.$.$.$.$.$.$.$.$.$.$.$.$.$.$.$.$.$.$.$.O.#.O.$.$.$.$.$.$.$.$.$.$.$.$.$.$...$.$.$.$.$.$.$.$.$.$.$.$.$.$.{ , , , , , , , , , , , , , < < f L z z z f z z L z L z L c | v.g.v.v.p.j.v.v.j.v.v.v.j.v.4.$.$.$.$.$.$.$.X.$.$.$.$.$.$.$.$.$.$.$.$.$.$.$.$.$.$.$.$.$.$.$.$.$.$.$.$.$.$.$.$.$.$.$.$.$.$.$.$.$.$.$.$.$.$.$.$.$.$.$._ , , , , , , , , , , , , , , 4 z L z L z L z L z L z L z - X.v.v.v.v.p.v.v.v.v.j.v.r.v.v.v.",
"z f z f z f z f L f z z L z L f f z z z z L f z f L f L z n f L z z L f z f z z z L f L f z c z z z z z z z z z f z z L f L f z z L f L f z z L c n q O . . . . . . . . . . . . . . ( $.$.$.$.$.$.$.$.$.$.$.$.$.$. .$.$.$.$.$.$.$.$.$.$.$.$.$.+., , , , , , , , , , , , , , < z z L f z z z z L z z L z L - 6.v.v.v.r.v.v.p.v.v.v.p.v.v.r.#.$.$.$.$.$.$.$.$.$.$.$.$.$.#.r.v.v.v.v.v.v.v.p.v.r.v.g.v.r.$ # # # # # # # # # # # O O $ O.O.$.$.$.$.$.$.$.$.$.$.$.$.O., , , , , , , , , , , , , , , # # # # # # # # # # # # # O % v.v.v.v.v.v.r.v.p.v.v.v.v.j.r.X.X.$.$.$.$.$.$.$.$.$.$.$.$.$.$.$.$.$.$.$.$.$.$.$.$.$.$.#.$.$.$.$.$.$.$.$.$.$.$.$.$.$.$.O.#.O.$.$.$.$.$.$.$.$.$.$.$.$.{ , , , , , , , , , , , , , , < z z f z z L f f L f L L z c | v.g.a.v.v.v.v.v.v.p.v.r.v.v.4.$.$.$.$.$.$.$.$.$.$.$.$.$.$.$.$.$.$.$.$.$.$.$.$.$.$.$.$. .$.$.$.$.$.$.$.$.$.$.$.$.$.$.$.$.$.$.$.$.$.$.O.$.$.$.$.$.O.O.{ , , , , , , , , , , , , , $ < W z z z L - z f z f z L z f o.m.j.v.v.v.v.p.r.v.v.p.v.v.v.v.",
"z L z L z L z L z z f L f z z z L z L f z f L z z z z z L z z c f L z z z L f L z f z z L z L z L f L f L f L f L z z f z z L z z f z z L z z f c n q o . . . . . . . . . . . . . . ( $.$.$.$.$.$.$.$.$.$.$.$.$.$.$.$.$.$.$.$.$.$.$.$.$.$.$.$. ., , , , , , , , , , , , , , $ z z f L z L f z f f L f z z f 6.v.p.v.v.v.v.v.v.r.v.v.v.v.p.#.$.$.$.$.+.$.$.$.$.+.$.+.$.#.v.v.v.v.v.r.v.v.v.v.v.v.v.v.p.% O # # # # # # # # # # O O $  .$.$.$.$.$.$.$.$.$.$.$.$.$.O., , , , , , , , , , , , , , + # # O # # # # # # # # # # O < v.r.v.p.v.v.v.v.v.p.v.v.p.v.7.$.$.$.$.$.$.$.$.$.$.$.$.$.$.$.$.$.$.$.$.$.$.$.$.$.$.$.$...O.$.$.$.$.$.$.$.$.$.$.$.$.$.$.O.$.O.O.$.$.$.$.$.$.O.$.$.$.$.( , , , , , , , , , , , , , , < f z L f L z z z z z z z n f $.v.v.v.v.v.a.v.r.v.v.v.v.v.v.4.$.$.$.$.$.$.$.$.$.$.$. .$.$.+.$.$.$.$.$.$.$.$.$.$.$.$.$.$.$.$.$.$.$.$.$.+.$.$.$.+.$.$.$.$.$.$.$.$.$.$.$.$.$.$.$.$.O.+.{ , , , , , , , , , , , , , < < z z z L z z z L z L z z z f X.m.v.v.p.v.v.v.v.v.v.v.r.v.v.r.",
"L f z z L f z z L z L z z f L f f z f L z z z z z L z z z z z L z f z f L z z z z L z z f L f z f z z L f z z L f L f L z z f z z L z z f L f L c f q o . . . . . . . . . . . . . . _ $.$.$.$.$.$.$.$.$.$.$. .$.$.+.$.$.$.$.$.$.$.+.$.$.$.$.$.} , , , , , , , , , , , , , , , z z z z z f L z L z z z f L f 4.v.v.v.p.v.v.r.v.v.v.v.v.v.a.$.$.$.$.$.$.$.$.$.$.$.$.$.$.#.p.v.v.r.v.p.v.r.v.r.v.p.v.g.g., # # # # # # # # # # O $ O $  .O.$.O.$.$.$.$.$.$.$.$.$.$.O., , , , , , , , , , , , , , , # # # # # # # # # # # # # O < v.v.v.r.v.v.v.v.v.v.r.v.v.v.9.$.$.$.$.$.$.$.$.$.$.$.$.$.$.$.$.$.$.$.$.$.$.$.$.$...O.$.$.$.$.$.$.$.$.$.$.$.$.$.$.$.$.$.O...$.$.$.$.$.$.$.$.$.$.$.$.$. ., , , $ , , , , , , , , , , < f z L z f z f z L f z z L f | a.g.v.v.v.v.v.v.r.v.p.v.v.v.1.| $.+.$.$.$.$.$.$.$.$.$.$.$.$.$.$.$.$.$.$.$.$.$.$.$.$.$.$.$.$.$.$.$.$.$.$.$.$.$.$.$.$.$.$.$.$.$.$.$.$.$.$.$.$.$.O.+.+._ , , , , , , , , , , , , , , < Q z z z L L L f z z L f z f o.m.v.j.v.r.v.p.p.v.v.r.v.v.p.v.",
"z z f L z z f L f z f z z L z z L z z z L f L f z f z f f R f L z L z L f z f L z f L f z z L f L z z f L z z f z z z z L f L z z f L f z z z z n y q . . . . . . . . . . . . . X X _ $.$.$.$.$.+.$.$.$.$.$.$.$.$.+.$.$.$.$.$.$.$.$.$.$.$.+.$.} , , , , , , , , , , , , , , , z L f L f z z z f f L z L f f 4.v.r.v.v.v.v.v.v.p.p.v.p.v.v.#.$.$.$.$.$.$.$.$.$.$.$.$.| #.v.v.v.v.v.v.v.v.v.v.v.v.v.g.g.% O # # # O # # # # # # # $ $  . .$.$.$.$.$.$.$.$.$.$.$.$.O.q + , , , , , , , , , , , , , # # # # # # # # # # # # # @ < v.v.v.v.v.v.p.v.r.v.v.v.v.v.r.$.$.$.$.O.$.$.$.$.$.$.$.$.$.$...$.$.$.$.$.$.$.$.$.$.O.O.#.$.$.$.$.$.$.$.$.$.$.$.O.$.$.$.O.#.$.$.$.$.$.O.$.$.$.$.$.$.$.{ , , , , , , , , , , , , , , < L z z z L z L z f L z z f f $.n.v.v.a.r.v.p.v.v.v.v.v.v.v.4.| $.$.$.$.$.$.$.$.$.$.$.$.$.$.$.$.| $.$.$.$.$.$.$.$.$.$.+.$.$.$.$.$.$.$.$.$.$.$.$.$.$.$.$.$.$.$.$.$.$.$.$.$.$.$.$.O.#.( , , , , , , , , , , , , , , < z L L z z z z z f L z z z f | m.v.v.v.v.v.v.v.v.v.v.v.v.v.v.",
"L z L f z z L z z f z f L z L f f z z z f L f L z z z L f n z z L z L z z f z z z L f L z z f L f L f z z L f L z z z z f L f z z L f L z z z L L z f o . . . . . . . . . X . .     ~ $.$.$.$.$.$.$.$.$.$.$.$.$.$.$.$.$.$.$.$.$.$.$.$.$.+.+.+.+., , , , , , , , , , , , , , , z f L f L z z z L z z L z z z 4.v.v.v.p.v.v.r.v.v.v.g.g.v.a.#.$.$.$.$.$.$.$.$.$.$.$.$.$.#.v.v.v.p.v.v.v.v.v.v.v.v.v.g.g.< O # # # $ # # # # # # # + $  .$.$.$.$.$.$.$.$.$.$.O.$.$.O.< , , , , , , , , , , , , , + # # # # # # # # # # # # # O 4 v.p.v.r.v.v.v.p.v.p.v.v.r.v.r.$.X.$.$.$.$.$.$.$.$.$.$.$.$.$.$.$.$.$.$.$.$.$.$.$.$.$.$.$.O.$.$.$.$.$.$...$.$.$.$.$.$.$.O.$.$.$.$.$.$.$.$.$.$.$.$.$.$. ., , , , , , , , , , , , , , < f n z f L f L z z z L z L f | a.v.p.v.v.v.p.v.v.v.v.v.v.v.7.$.$.$.$.$.$.$.$.$.$.$.$.$.$.$.$.$.$.$.$.$.$.$.$.$.$.$.$.$.$.$.$.$.$. .$.$.$.$.$.$.$.$.$.$.$.$.$.$.$.$.$.$.$.$.$.$.+.+.{ , , , , , , , , , , , , , , < z z z f z f L z L f L z L f | v.v.v.v.v.v.v.v.v.v.v.v.v.v.j.",
"f z z z f L f z z L z L f z z z L z L f z z z z L f z f f R z L f z f z z L f L z f z z L f L z z z L z z f z z L f L f z z L z z f z z L L z z f z f o . . . . . . . . . . . . X   ( $.$.$.$.$.$.$.$.$.$.$.$.$.$.$.$.$.$.$.$.$.$.$.$.$.$.+.+.+.< , , , , , , , , , , , , , , z z z z z L f z f f L f z z - 4.v.v.v.v.v.v.v.v.v.v.v.v.v.a.#.$.$.$.$.$.+.$.$.$.$.$.$.+.#.r.v.v.v.v.r.v.p.v.p.v.r.v.g.g.$ O # # # O O # # # # # # + $ O.$.$.$.$.$.$.$.$.$.$.$.$.$.O.< , , , , , , , , , , , , , , # # # # # # # # # @ # O # O < n.v.v.v.v.v.v.v.v.v.v.v.v.v.7.$.$.$.$.$.$.$.$.$.$.$.$.$.$.$.$.$.$.$.$.$.$.$.$.$.$.O.$.#...$.$.$.$.$.$.$.$.$.$.$.$.$.$.$.$.$.$.$.$.$.$.$.$.$.$.$.$.$. ., , , , , , , , , , , , , , < z z z z z z z L f z f z L f | v.v.v.v.v.v.v.v.a.v.r.v.g.v.4.$.$.$.$.$.$.$.$.$.$.$.$.$.$.+.$.$.$.$.$.$.$.$.$.$.$.$.$.$.$.$.$.$.$.$.$.$.$.$.$.$.$.$.$.$.$.$.$.$.$.$.O.$.$.$.$.$.+.#.{ , , , , , , , , , , , , , , < n z z L z L f z z z - L f - | v.v.p.v.p.v.r.v.r.p.v.v.a.v.v.",
"z f L f z z z f L f z z z f L f f z f L z L f z f L z L z z z f z z L f L z z z z L z z f z L f z z f z z L z z f z z L z z f z z L z z f z L z z z f o . . . . . . . . . . . .   X ) $.$.$.$.$.$.$.$.$.$.$.$.$.$.$.$.$.$.$.$.$.$.+.$.$.$.$.+.+.< , , , , , , , , , , , , , % z z L f z f L z L L z z L z - 4.v.v.p.r.v.v.a.v.v.g.v.v.n.a.$.$.$.$.$.$.$.$.$.$.$.$.$.+.#.v.v.v.r.v.p.v.v.v.v.v.v.g.v.g.< O # # # # # # # # # + + $ $  .$.$.O.$.$.$.$.$.$.$.$.O.O.O.< , , , , , , , , , , , , , , # # O # # # # # # # # # # O < v.v.r.v.p.v.r.v.v.v.v.g.v.v.r.$.$.$.$.$.$.$.$.$.$.$.$.$.$.$.$.$.$.$.$.$.$.$.$.$.$.$.$.$.$.$.$.$.$.$.$.$.$.$.$.O.$.$.$.$.$.$.$...$.$.$.$.$.$.$.$.$.$. ., , , , , , , , , , , , , , < f f L z L f z f L z L z z f | v.v.v.v.v.p.r.v.g.v.v.v.v.v.,.$.$.$.$.$.$.$.$.$.$.$.$.$.$.$.$.$.$.$.$.$.$.$.$.$.$.$.$.+.$.$.$.$.$.$.$.$.$.$.$.$.$.$.$.$.$.$. .$.$.$.$.$.$.$.+.$.+.+.{ , , , , # , , , , , , , , , < z f L f z z z f L f z z z z X.V.v.v.v.v.v.v.v.v.v.v.a.v.j.v.",
"z L z z f L z L z z f L z L z z L z z z z f L z z z z f f L z L f L z z f z f L z f L f L z z f L f L z z f L f L z z f L f L z z f L f L z z z z n u o . . . . . . . . . . . . X X F $.$. .$.$.+.$.$.$.$.$.$.$.$.$.$.$.$.$.$.$.$.$.$.$.$.$.+.+., , , , , , , , , , , , , , % z z f L z z z z f - L z z L z 4.v.v.v.v.v.v.v.a.v.a.v.n.n.a.#.$.$.$.$.$.$.$.+.$.$.O.O.O.#.p.v.v.v.v.v.v.v.r.v.p.v.n.g.u., # # # # # # # # O O $ O O $  .$.$.$.$.$.$.$.$.$.$.$.O.&.O.< , , , , , , , , , , , , , $ # # # # # # # # # # # # O O 1 v.v.v.v.v.v.v.p.v.v.r.v.v.v.r.$.$.$.$.$.$.$.$.$.$.$.$.$.$.$.$.$.$.$.$.$.$.$.$.$.$.$...#.$.$.$.$.$.$.$.$.$.O...#.$.$.$.O.$.$.$.$.$.$.O.$.$.$.$.$.$.$._ , , , , , , , , , , , , , , 1 z z z z f L z z z z f z n f | v.a.r.v.v.v.v.v.v.v.g.g.v.v.7.$.$.+.$.$.$.$.$.$.$.$.$.$.$.$.$.$.$.$.$.$.$.$. .$.$.$.$.$.$.$.$.$.$.$.$.$.+.$.$.$.$.$.$.$.$.$.$.$.$.$.$.$.$.+.+.+.+.+._ , , , , , , , , , , , , , , 4 z L z z f L z L z z L z z z X.V.v.v.r.v.p.v.v.a.v.a.v.v.v.v.",
"R z L L L L L z z L z Q z L z L z L z L z L f L c L c L f L f L L c L L f L z L c L c L f z L L c L z L c L c L L f L L f f f f f f f f f f f f z z 4 o X X . . . . . . . . . . .   ) #.$.X.$.#.$.$.$.$.$.$.$.$.$.$.$.$.+.#.O.O.+.+.+.+.%.+.+.+., , , , , , , , , , , , , , < z L c L L c L L c L L c L L f r.V.m.V.n.n.V.V.V.V.n.n.V.V.v.#.$.$.$.$.#.$.$.$.$.$.$.$.#.#.v.V.m.V.V.V.V.V.V.V.m.V.V.V.v.% O O O O + O + # O # # # # $ $.$.#.$.$.O.O.+.+.+.*.+.+.+.$.< , , , , , , , , , , , , < $ O # # # # # # # # # # O O O % n.v.v.n.V.V.V.V.n.n.n.V.V.V.a.$.$.$.$.$.$.+.$.$.$.$.$.$.$.$.$.$.$.$.$.$.$.$.$.$.$.$.$.$.#.$.$.$.$.$.$.$.$.$.$.#.$.$.$.$.$.$.$.+.+.$.$.O.O.+.+.+.+.$. ., , , , , , , , , , $ , , , < n L z L L L c L c L L f L c | n.V.n.V.n.n.V.V.V.n.n.V.V.V.7.$.$.$.$.$.$.$.$.$.$.$.$.$.$.$.#.$.O.#.O.#.+.$.$.$.$.$.$.$.$.$.$.$.$.$.$.$.$.X.$.$.$.$.$.$.$.$.+.+.+.+.+.+.O.+.+.+.+.+.( , , , , , , , , , , , , , , < z L L L L z L L L L f L z f X.V.V.V.n.n.V.V.V.V.n.V.V.n.V.V.",
": : - - & : : : : % : : : : : z z L z z f f z z z f L z z z z c z f f z z f z f z z z f L f c z z f z f z z z f f L f z ' X.| | $.| | | | $.$.| | | } o   . . . . . . . . X X   X . ( $.$.$.$.X.$.$.$.$.#.$.$.$.$._ _ { _ ( { { { { ( ( { ( { { < 4 < < < < < 4 < < < 4 < < < z z z f z z f z z f z z f z z &.=.=.=.=.=.=.=.<.=.=.=.=.=.=.$.$.$.$.$.$.$.$.$.$.$.$.$.$.X.%.&.%.&.%.&.%.%.%.%.%.%.%.%.%.q % < < 4 < < < < < < < 4 < < ) { ( ( { { { { ( ( ( { { } _ 4 < < < < < < < < < < < 4 < % # % $ % % # $ % $ $ $ & & $ f =.=.=.=.=.=.=.<.<.=.=.=.=.=.=.$.$.#.$.$.$.#.$.$.$.} #.+.#.X.$.#.$.$.$.$.$.$.$.$.$.$.$.$.#.$.#.$.$.#.$.$.$.#.| $.$.$.$.O._ { } ( _ _ } } ( } ( _ } { ) < < < < < < < < < < < 4 < < 4 z L z z z z z z f f z z f z ' <.<.=.<.=.=.=.=.=.=.=.=.<.<.&.$.$.$.$.$.#.$.$.$.$.$.$.$.$.X.$.$.O.#.+.+.#.$.$.$.#.+.#.$.+.$.$.$.$.$.$.#.$.#.#.$.$.$.$.$._ } _ _ { { _ } ( W ( } } } ( < < < < < < 4 < < < < < 4 < u z z z z L z z z f z z f z f ] 1.=.=.=.=.=.<.<.=.<.=.=.<.<.=.",
"O O O # O # O O O @ @ O @ O # 4 z z L z z R z z n z n z n f z L z L z z z f n R f R z L z L c L z f n R f R z L z z z f 4.m.v.v.v.v.v.v.v.v.n.n.v.m.p.O   . . . . . . . . . . .   . W #.$.$.$.$.$.$.$.$.$.$.$.$. ., , , , , , , , , , , , , , , z z L z Q z z z u n W z Q z Q u L f L z z f z f R z z n n z z f z f f f f z f f f f f - L $.$.$.$.$.$.$.$.$.$.$.$.$.#.} @ O O O O O O O O O O O O O O } #.$.$.$.$.&.$.$.$.#.$.$.$. ., , , , , , , , , , , , , , , z n n n W Q z Q z Q Q z z z L n R n n n n z R z L z L L z L z z f f f f f z f f f f f f n $.$.$.$.$.$.$.$.$.$.$.$.$.$.$.$.X.$.$.$.$.$.$.$.$.$.$.$.$.$.$.$.$.$.$.$.$.$.$.$.$.$.$.$._ , , , , , , , , , , , , , , $ z n n u n u z Q W Q L z z z W z z z z f L f z L z z z f R n z f z f f f f f z z f f f f Q $.$.$.$.$.$.$.$.$.$.$.$.$.$.$.$.$.$.O.$.$.+.+.$.$.$.$.+.+.+.$.$.$.$.$.$.$.$.$.X.$.$.$.$._ , , , , , , , , , , , , , , , N W n W W L z z z z Q z z n z n z f L z z n n n f z f n R f f z f f f f f z f f f f f z f ",
"# + # # # # # # # # # # @ # # 4 L f L z z f L f z L z L z L z c z f L f z L z z f z z f z f L z z L z z f z z f f L z L 4.v.v.v.v.v.g.v.v.v.a.v.v.m.r.O . . . . . . . . . . . . . . Q $.$.$.$.$.$.$.$.$.$.$.$.$. ., , , , , , , , , , , , , , , f z z z z z z z z z z z z z z z z z f z z L z L f z L z f L z z z L z z z z z n z z L L L | #.$.$.$.$.$.$.$.$.$.$.X.$.} # @ @ O # # # # # # @ # @ # # } $.$.$.$.$.$.$.$.$.$.$.$.$.} , , , , , , , , , , , , , , < z z z n n u u u z z u f L z z z z z z z z z f z L z z f z z z z z z z z z z z z z z f f R $.$.$.$.$.$.$.$.$.$.$.$.$.$.X.$.$.$.$.$.$.$.$.$.$.$.$.$.$.$.$.$.$.$.$.$.$.$.$.$.$.$.O.$.{ , , , , , , , , , , , , , , < z n n Q Q u z z z - z z L L z z z L z L z z z f L f z L f f L z L z L z z z z z z z z n Q $.$.$.O.$.$.$.$.$.$.$.$.$.$.$.$.$.$.$.$.$.+.+.$.$.$.$.$.$.$.$.$.$.$.$.$.$.$.$.$.$.$.$.$.{ , , , , , , , , , , , , , , , W z z z u z z L f z z z z z z n Q z z z L L z z L z L z z z L z z z z z z z z z z z L z z ",
"O # # # # # # # # # @ # # # # 4 f z z L f z z L f L f L z n z L z L f L z z z z n z z z L f f z z f z f n z z L L z L z =.v.v.a.r.v.p.v.v.v.v.a.j.v.r.O . . . . . . . . . . . .   X F #.$.$.$.$.$.$.$.$.$.$.$.$.O., , , , , , , , , , , , , , , f z z L L z L z L z L z z z z L L f z f L z L z f z f z z L f z L z L z z L z z z L z - Q $.$.$.$.$.$.$.$.$.$.$.$.$.#.{ # # # # # # O # # # # # + O O  .$.$.$.$.$.$.$.$.$.$.$.$.$. ., , , , , , , , , , , , , , , f y z L z L z z z z L - L - L f L f L z z L z f z z z f L f L z f z f z z L f z L f L z Q $.$.$.$.$.$.$.$.$.$.$.$.X.$.$.$.$.$.$.$.$.$.$.$.$.$.$.$.$.$.$.$.$.$.$.$.$.$.$.$.$.$.$.$.O., , , , , , , , , , , , , , < f f z z z z z z L - L z L z z f z f L z L f z L f L z L L z c z f z z L f z z z z z z z Q $.$.$.$.$.$.$.$.O.$.$.$.$.$.$.X.$.$.$.$.$.$.$.$.$.$.$.$.$.$.$.$.$.$.$.$.$.$.$.$.$.$.$.$._ , , , , , , , , , , , , , , < z z z L z z L f L z z z z c L f L z z z L z z L z z f z f z z L f z z L f z z z z z L f z ",
"# # # # # # # # # # # # # # # 4 L z z f L z z f z z z z L z f L z f z z L f L f z z f L z z L f z L z L z z z z - L f z 4.v.v.v.v.v.v.v.a.v.v.v.v.v.r.O   . . . . . . . . . . .   X F $.$.$.$.$.$.$.$.$.$.$.$.$.O., , , , , , , , , , , , , , , f z z z f z f z f L - z z z z z z z z L f z f z z z L z z f L z f z f z z z f L z L z L z $.$.$.$.$.$.$.$.$.$.$.$.$.$.} # # # # # # # # # # # # $ O $ { $.$.$.$.$.$.+.$.$.$.$.$.+. ., , , , , , , , , , , , , , , f n z f z f z z z z L L z L z z z z z L z L z L z L f z z z z z L z L L z z z z f z z z W $.$.$.$.$.$.$.$.$.$.$.$.$.$.$.$.$.$.$.$.$.$.$.$.$.$.$.$.$.$.$.$.$.$.$.$.$.$.$.$.$.$.$.$.} , , , , , , , , , , , , , , , f f L f L f z z z z z L - L z L z L f z z z z f z z L L * L L z L z z f L z L f L L z z ) $.$.$.$.$.$.$.$.$.X.$.$.$.$.$.$.$.$.O.$.$.$.O.$.$.$.$.$.$.$.$.$.$.$.$.+.$.$.$.X.$.$.$.$.} , , , , , , , , , , , , , , 4 z z z L z z f z z L f L f L z z z L f z f f L f z z L z L f L z z f L z z L f L f z z L z ",
"# # # # # # # # # # # # # # # 4 f L f L f L f L z L f z f L z L z L z z f z z L z z L z L z L L L f z z z f L f z z z z ,.v.g.v.v.v.v.v.v.a.v.a.v.v.7.O . . . . . . . . . . . . X   ( #.$.$.$.$.$.$.$.$.$.$.$.$.O., , , , , , , , , , , , , , , f z L z z z L f z z z L z z L - L f L z z z L f z z z z z z z z z z L f L z z z z z L z Q X.$.$.$.$.$.$.$.$.$.$.$.$.#.} # # # # # # # # # # # # O O # } $.$.$.$.$.$.$.$.$.$.$.$.$. ., , , , , , , , , , , , , , , f L z z z L f z z L z z - L z z L f z f L z z f z f L z L f z L f z z z f L f z L z z z R $.$.$.$.$.$.$.$.$.$.$.$.$.$.$.$.$.$.$.$.$.$.$.$.$.$.$.$.$.$.$.$.$.$.$.$.$.$.$.$.$.$.$.$._ , , , , , , , , , , , , , < < z z f z z L L L - L z L z z L f z z z f L f z L z z - L * L c z z z z z z z f z z z z n Q $.$.$.$.$.$.$.$.$.$.$.$.$.$.$.$.$.$.$.$.$.$.$.$.$.$.$.+.$.$.+.$.$.$.$.$.$.$.$.$.$.$.$.$._ , , , , , , , , , , , , , , 4 z L z z z z L z z f z z L f z f z f L z L z z z f L f z z z f z f z f z f f z z L z z f z ",
"# # # # # # # # # # # # # # # 4 z z z z z z z z z f L z z z z c z f L f L z z f L z f z f z c z z z f L z L z z L z z z 4.v.v.v.p.v.r.v.v.v.v.v.j.n.j.o   . . . . . . . . . . .   X ) $.$.X.$.$.$.$.$.$.$.$.$.$. ., , , , , , , , , , , , , , , - z f z f L z z f L L - L L z L z z f z f L z z L f L f L f L f f L z z f z f L L z z z z X.$.$.$.$.$.$.$.$.$.$.$.$.#.X.# # # # # # # # # # O # # # O } $.$.$.$.$.$.$.$.$.+.$.$.$. ., , , , , , , , , , , , , , < f f z f L z z L z - L z L z L z f L z z z z L L z z z z f L z z z f L z L z z z L z z z Q $.$.$.$.$.$.$.$.$.$.$.$.$.$.$.$.$.$.$.$.$.$.$.$.$.$.$.$.$.$.$.$.$.$.$.$.$.$.$.$.$.$.$.$._ , , , , , , , , , , , , , $ % L f L z z f z z L z L - L z z z f L z L z z z f L f L z L z L f L f L f L f L z z z z f ) $.$.O.$.$.$.$.$.$.$.$.$.$.$.$.$.$.$.$.$.$.$.$.$.$.$.$.$.$.$.$.$.$.X.$.$.$.$.$.$.$.$.$.$._ , , , , , , , , , , , , , , : z z L - L z f L f L z z f L z L z z z z f f L z L z z f L z L z L z L z L L z z f L f L z ",
"# # # # # # # # # # # # # # # 4 f L f L f L f L z L f z z n z L z L f L f z z L z z z z z L L z L z L f z z L z L z L f =.m.v.g.v.r.v.v.v.v.p.v.r.v.r.O   . . . . . . . . . . . X   _ $.$.$.$.$.$.$.$.$.$.$.$.$. ., , , , , , , , , , , , , , , , q W W L f z f z f z z L f z f z f z z L f z f L z L z L z L z z z L f z f z z z L f L L | #.$.$.$.$.$.$.$.$.$.$.$.$.} O # # O $ $ O O # # # # # $ #  .$.$.$.$.$.$.$.$.$.$.$.+.} } , , , , , , , , , , , , , , , y y L z z L f z f z f z f z f z z z L f z z z z z z L f z z z L z L f z z L z L z L f z Q $.$.$.$.$.$.+.O.#.+.$.$.$.$.$.$.$.$.$.$.$.$.$.$.$.$.$.$.$.$.$.$.$.$.$.$.$.$.$.$.$.$.$.$. ., , , , , , , , , , , , , , , < < z L f L z f z f z f z f L f z z L z L f z L f L f z c z L z L z L z L z f L f z L z Q $.$.$.$.$.$.$.$.$.$.$.$.$.$.$.+.$.$.$.$.$.$.$.$.$.$.$.$.$.$.$.$.$.$.$.$.$.$.$.$.$.$.$.$._ , , , , , , , , , , , , , , < z L z L L - L f z z L f L c z z L z z L z L z L f z z L z z z z z z z z z f z z L f L f z ",
"# # # # # # # # # # # # # # # f z z z z z z z z z f L z L f f L z f z z L z z f L f L f L L * L f z z z f L f z f z z z 4.v.v.v.v.v.v.v.v.v.v.v.v.v.r.O . . . . . . . . . . . . . . _ $.$.$.$.$.$.$.$.$.$.$.$.%. ., , , , , , , , , , , , , , , < W - - z L z L z L f L z z z L z L f L z z z L f z f z f z f z f L z z z L f L z f z z L X.$.$.$.$.$.$.$.$.$.$.$.$.$.{ $ # # # O O # # # # # # # O + { $.$.$.$.$.O.$.$.$.$.$.$.+.( , , , , , , , , , , , , , , , f n z f L z z z L z L z L z L L f z f L z L f L f z f L z L f f z z z f L f z f z z z n Q $.$.$.$.$.+.#.O.O.O.$.$.$.X.$.$.$.$.$.$.$.$.$.$.$.$.$.$.$.$.$.$.$.$.$.$.$.$.$.$.$.$.$.$._ , , , , , , , , , , , , , , , N N z f z z z L z L z L z L z z f L f z z z z f z z L z L z c z f z f z f z z z L z z z Q $.$.$.$.$.$.$.$.$.$.$.$.$.$.$.$.$.$.$.$.$.O.$.$.$.$.$.$.$.$.$.$.$.$.$.$.$.$.$.$.} $.$.$. ., , , , , , , , , , , , , , < z - L z z L z L z z f z z L f z f f L f z f z z z f L f z L f L f L f L f L z z f z z L z ",
"# # # # # # # O # O # # # + O f z L f z z L f z z z z z z n z L z L z z f L f L f z z L - L * L z f L f z z z f z f L f 4.v.a.v.v.v.p.v.v.r.v.v.g.x.p.O   . . . . . . . . . . . . . F $.$.$.$.$.$.$.$.$.$.$.$.O. ., , , , , , , , , , , , , , , - z W - L - z L L z z z L f L z L z z z L f L z z z L f z z L f z f z f L z z z z L z L L X.X.$.$.$.$.$.$.$.$.$.$.$.#.{ O # O $ # # # # # # # + + O $  .$.$.O.$.$.$.$.$.$.$.$.$.+.} , , , , , , , , , , , , , , , f z L z f z f L f z z L f z z f L z L f z f L f L z L f z f L z f L f z z z f z f L f n Q $.$.$.$.+.+.O.O.O.O.$.$.$.$.$.$.$.$.$.$.$.$.$.$.$.$.$.$.$.$.$.$.$.$.$.$.$.$.$.$.$.$.$.$.{ , , , , , , , , , , , , , , < N N z L z z L f z z L f z z L z L z z f L f z L z z f L c L L - L f z z L f z z f z z z F $.$.$.$.$.$.$.$.$.$.$.$.$.$.$.$.$.$.$.$.$.$.$.$.$.$.$.$.$.$.$.$.$.$.$.$.$.$.$.$.$.$.$.$.{ , , , , , , , , , , , , , , < z z z - L z z f z z L z z c L n z z z z f z f L f z z z f f z z L f z z L f L f L z z f z ",
"# # # # # # # # # # # # # + O - z f L z z f L z L f L f L n z f z f L f z z z z L z z f L z L z z L z z f L z L z L z z =.v.v.v.v.r.v.v.v.v.p.v.v.x.y.O . . . . . . . . . . . . . . F $.$.$.$.$.$.$.$.$.$.$.$.$.O., , , , , , , , , , , , , , , z z - Q z z L - f z f L z z f z f z f L z z f z f L z z f L z z z L z L f z f L z L z z Q X.#.X.$.$.$.$.$.$.$.$.$.$.$.$.$ # O O # # # # # # # # $ O $ _ $.$.$.$.$.$.$.$.$.$.$.+.+.} , , , , , , , , , , , , , , < f z z z L z L z z f L z z f L z z z f L z z z z z z f L z z z z L z z f L z L z L z z n R $.$.$.$.+.#.+.O.#.O.$.$.$.$.$.$.$.$.$.$.$.$.$.$.$.$.$.$.$.$.$.$.$.$.$.| $.$.O.$.$.$.$.$._ , , , , , , , , , , , , , , , N N z f L L z z f L z z f L f z f z z L z z z f L f z z L - L L z z f L z z L f L z z n Q $.$.$.$.$.$.$.$.$.$.$.$.$.$.$.$.$.$.$.+.$.$.$.$.$.$.$.$.O.$.$.O.$.$.$.$.$.$.$.$.$.$.$.$._ , , , , , , , , , , , , , , 4 z L z L z L f L z z f L f L z z L f L z L z L z z f L z L L z z f L z z f z z z z L f L z ",
"# # # # # # # # # # # # # # # f z z z L f z z z f L L z z z z L z L f L z z z z f L f z z z L L L f z z L f z z L f z z 4.v.v.j.v.p.v.v.v.v.r.v.g.m.y.O     . . . . . . . . . . . . _ #.$.$.$.$.$.$.$.$.$.$.$.$. ., , , , , $ , , , , , , , , , - z L z z L z L z z L f z z L f z z L f z z L f z f z z L f z f L z L z z f z z z L z z F $.$.$.$.$.$.$.$.$.$.$.$.$.$. .+ + $ O # # # # # # # # O O + { O.O.$.$.$.O.$.$.+.$.$.$.+.} , , , , , , , , , , , , , , , y n z z f z f L z L f z z L z z L f z z L f z z L f z z L f z L f z z L f z z L f z z L R $.$.$.+.$.$.$.$.$.$.$.$.$.$.$.$.X.$.$.$.$.$.$.$.$.$.$.$.$.$.$.$.$.$.$.$.$.$.$.$.$.$.$.$._ , , , , , , , , , , , , , , , z z z z z z L z L f z z L z z f z f L z L f z L f L z L L z c L z z L f z f f z z L f z ) $.$.$.$.$.$.$.$.$.$.$.$.$.$.$.$.$.$.$.$.$.$.$.$.$.O.O.O.+.$.$.$.$.$.$.$.$.$.$.$.$.$.$.$._ , , , , , $ , , , , , , , , < z z L L z f z z L f z z L f z f f n z z z L f z z L f z z f L f z z L f L z z z z f L f z ",
"# # # # # # # # # # # # # # # - L f z f L z L f z z z z z L z c z f z z L f L f z z L z L z - L z z z z z z z z z z z z 4.v.v.v.v.v.r.v.v.p.v.v.g.m.y.O     . . . . . . . . . . . . ( $.$.$.$.$.$.O.$.$.$.$.$.$.O., , , , , , , , , , , , , , , z z z z L - z L f L z z f L z z f L z z f L z z z L f L z z z L f z f z z L f L z L z L R $.$.$.$.$.$.$.$.$.$.$.$.$.$. .$ + O O # # O O # # # # O $ $  .O.$.$.$.$.$.$.$.$.$.$.$.+.} , , , , , , , , , , , , , , , f z z z L z L f z z z f L f z z f L z z f L z z f L z z f L z z z f L z z f L z z f L z R $.$.$.$.$.$.$.$.$.$.$.$.$.$.$.+.$.$.$.$.$.$.$.$.$.$.$.$.$.$.$.$.$.$.$.$.$.$.$.$.$.$.$.$.} , , , , , , , , , , , , , , < z n z z L z f z z z f L f z z L z L f z z z z f z z L L - L L - f L z z z L L z z f L z ) $.$.$.$.$.$.$.$.$.$.X.$.$.$.$.$.$.$.$.$.$.$.$.$.$.#.O.O.#.$.$.$.$.$.$.$.$.$.$.$.$.$.$.$. ., , , , , , , , , , , , , , < z z z z L L z z f L z z f L z R z z z f L z z f L z z f L z z L z z f z z L f L f z z L z ",
"# # # # # # # # # # # # # # O - z z z L z z z z z L z z z z L c z L z z f z z L z z f z L z L L L f z z L f z z L f z z <.v.v.v.v.v.v.v.v.v.v.v.v.m.r.O   . . . . . . . . . . . . . ( $.$.$.$.$.$.$.$.$.$.$.$.$.O., , , , , , , , , , , , , , , z z L L z z L z z f z f z f z f z f z f z f z f L z z z L f L z z z L f L z z z z z z z n $.$.$.$.$.$.$.$.$.$.$.$.$.$. .+ O O $ # $ O $ # # # # O $ O { $.$.$.$.$.$.$.$.$.$.$.$.O.} , , , , , , , , , , , , , , % 4 z f L f z z z f L f z z z z z z z z z z z z z z z z z z z z L z L z L z L z L z L z z Q $.$.$.$.$.$.$.$.$.O.$.$.$.$.$.$.$.$.$.$.$.$.$.$.$.$.$.$.$.$.$.$.$.$.$.$.$.$.$.$.$.$.$.$.{ , , , , , , , , , , , , , , < y n L L z z z f L f z z z f L f z z z f L f z L z z - L * L L z z z L f L z f L f L f L R $.$.$.$.$.$.$.$.$.$.$.$.$.$.$.$.$.$.$.$.$.$.$.$.$.O.O.O.O.$.$.O.$.$.$.$.$.$.$.$.$.$.$.$._ , , , , , , , , , , , , , , < z L L z - f L f L f L f L c z z z z z L z L z L z L z L z z z f z z L z z f z z L z z f z ",
"# O # # # # # # # # # # # # # * L L z L L L L L z L R z R n f L z f L f L z z f L f L z L - - z f f f f f f f f f f f f 4.V.v.V.v.v.v.v.v.v.v.v.V.V.g.O . . . . . . . . . . . . . . _ $.$.$.$.$.$.$.$.O.$.$.$.$.O., , , , , , < , , , , , , , , - z z z L z - L z L z L z L z L z L z L z L z L f z f L z z f z f L z z f z f L L z z n n $.$.$.O.$.$.$.$.$.$.$.$.$.$. .$ O + + O + O O + + + + O + $ _ $.$.$.$.$.$.$.$.$.$.$.$.O.} , , , , , , , , , , , , , , < f z L z z f L z L z z f L z z L f L f L f L f L f L f L f L f f z f z f z f z f z f z z R $.$.$.$.$.$.$.$.$.$.$.$.$.$.$.$.$.$.$.$.$.$.$.$.$.$.$.$.$.$.$.$.$.$.$.$.$.$.$.$.$.$.$.&.{ , , , , , , , , , , , , , , , n n z z z L z L z z f L z L z z f L z L z z z f L f L z L z c z f L z z f z z z z z z z Q $.$.$.$.$.$.$.$.$.$.$.$.$.$.$.$.$.$.$.$.O.$.$.$.O.+.O.#.+.$.$.$.$.$.$.$.$.$.$.$.$.$.$.$.( , , , , , , , , , , , , , , < z z z z L z z z z z z z z L f L f L z f z f z f z f z f z L f L z z f L f L z z f L f L z ",
"# # # # # # # # # # # # # # # $ % $ $ $ $ & $ $ & $ + & & O - - L f z f z z L f z f z z z X.X.X.X.X.| | X.X.X.| } $. .+.&.*.&.&.%.%.%.&.%.%.%.&.%.&.$.O . . . . . . . . . . . . . . y ..{ { { ..] ] } ' ' { ' } ' < < < 1 < < < < 1 < 1 < < < 1 - L f L f L f L L z L z L z L z L z L z L z L z z f z z L f z f z z L f z f z z z z L z L ] | ] ] ] } ' } ' ' { ] ] ] ] $ $ $ $ $ $ $ # $ $ % # $ $ $ ' { ' } ' { ' ' } ' ' } ] }  .< < & 4 < 1 < < 1 < 1 1 < < & z z z L - z z L z L f z z L f f z L z L z L z L z L z L z L z z f z f z f z f z f z f f R ' }  .} ' } ] } ' ' { } } ' { { { } ] ] ] ] } ' } ' { { ' | | ] ] ] ' ' } { { ' ' } ' } ) 1 < 1 1 < < < < 1 < 1 < < < 1 z f z f z f L z L f z z L z L f z z L z L f z L f L f z c f L z L f L f z f f L f L z z n ] { ' ' } { ' } ' { ' } ' { { ' } { { ' } { ' ' } +.{ } { ] ] } ' ' { } ' ' { } ' ] ] | ) < 1 1 < < 1 < < 1 < < < < < 4 z L z L z L z L z L z L z L z z L z z z z z z z z z z z z f L f z z L f L f z z L f L f z ",
"# # # # # O # # # # # # # # # . . . . . . . . . . . . . . . - - z z z L f L z z z L f L z p.m.m.m.V.V.v.m.V.m.v.n.V.V.V.< o O O O O O O O O O O O O O o . . . . . . . . . . . . . . & n f f f 4 f - f f f f f f f f n f c L f L c z f c c L f c L z z z z z z z f z f z f z f z f z f z f z f z z L f L z z z L f L z z z L f L f L f z c z c - f f f f f f f f z - z z Q L L L - L L L L z L L L L L z f f f f f f f f f f f f q q n y c L z z L f c L f f R y L z L z z L f L f z z z f L f f f z f z f z f z f z f z f z f z z L z L z L z L z L z L z f f f N q f 4 f f f f f f f f f f f f f f f f f f f f f f f f z - f f f f f f f f f f f f z f y f f L c L f c f c c L c L z L z L z L f z z z f L f z z z f L f z z z z f z z L z L z f z z z z z z L z z z z z L z z f f f f f f f f f f f f f f f f f f f f f f f f N 4 z u f f f f f f f f f f f f f - f f z f c L f n c n c L f R z f R z f z f z f z f z f z f z c L z z L f L f L f L f L f L f z z L z z f z z L z z f z z L z ",
"# # # # # # # # # # # # # # # o . . . . . . . . . . . . . . * R L f L z z f z f L z z z L r.v.v.v.v.v.v.v.v.p.v.v.v.g.n.N # # # # # # O # # # # O # O o . . . . . . . . . . . . . . 2 n z f f f L f L z z L f L z z L f f z f L z z z L f z z L f z f z z L f z z z L f z z L f z z L f z z L f L z z z L f L z z f z f L z z z z z z f L z L z L z f z L f L z z L z L - L L - Q - z L L z L f z z f z f z z L f n z z f n z z z z n n z z z f f z L z L z f y L z z z L z L z z f L f z z z f z z L f z z L f z z L f z z L f L f z z L f z z L f z z z z f z L z z z L f L z f z z z z z f f f z f L f z z z z L y n f z f L f n z L z z f z f z z L n z L f f z z L z z L f z z z z L f z z z f L f z z z f L z L z z f L f z L z z f L c L L f L f L f L z z L f z L L L f f n f z f z z L f f z L z z f z f z L f z z z z z L z z z L z z f z z L z z f f z L z z z z z z f L z L f z f L z L L f z z L f z z L f z z L f L f n z f z z L f z z L f z z L z z f z z L z z f L f L z z f z ",
"# # # # # # # # # # # # # # O o . . . . . . . . . . . . . X * R z z f z z L z L f z f L z 6.v.v.g.v.v.p.v.v.v.v.v.g.g.g.W O O O # # # # # # # # O # O . . . . . . . . . . . . . . . , n z R y f z z f z z z z z L f L z L z z z f L z f L z z f L z L z z f L z f L z z f L z z f L z z f L z z f z f L z z f z z L z L f z f L f L z L c z - L f z z z z z f z z z L - Q - z z L L L - L z z z f L L z z z z f z z L z z z f L z n n n f L z L z z f z z z z n L - L L f z f z z L z z f L z L f L z z f L z z f L z z f L z z z z f L z z f L z z f L z z L z f z z z z z f z f f z z z z z f L z z z f z z z z z z z L z z z z z z f L z L z z z f L L z z z L z z f L z z z f L f L z z f L z L z z f L z L f z f z z L z z z f L f z z L - f L z z z z f z z f L z z f z z z z L z z z z f z n z f L z L z z z z z f L f L z z z z z f L f n z z z z z z n z f L f L f L f z z z f L z z z z c z z f L z z f L z z f L z z L z n f L z z f L z z f L z z f L f L z z f L f z z z z L f L z ",
"# O # # # # # # # # # # # # # o . . . . . . . . . . . . . X * c L f z f L z L z z z L f L 6.v.g.v.v.v.v.v.v.v.v.v.v.g.v.q O $ $ # # # # # # # # # # O o . . . . . . . . . . . . . . % R z f z z L f z f L z L z f z c z z L f z z f z z z L f L f L f z f z z z z f z z L f z f z f z z L f z f z z L f z z L f L z L z z f z z z z L z L z z z z z L f z z L f L L z z z L - L L L z z L f z f z f z z z L f L L L f z z z L z z z L z z L z z z f z f z z L f z z L z L z L z L f z z L f z z z f z z L f z f z f z z L f z f L z L f z z L z L z L f f z z z z z L f z z L f f L f L z z z L f z z z f L f L L z z L - L - L z z z L f z z z L z L c L f z f f L f z L f z f z f z z z z L z L f z z L f z z z f z f L z L f z L f L z L L z L f L f z z L f z z z L L c z f z z L f z L f L z L z z f z z z z z z L z z L z L z z L f z z L z f z f z z L f z L f L z z z z z L f z z L f z L f z z L f z f z f z z L f z f f z z z z L f L f L f z z L f L f z z L f z z L z z z z f L f z ",
"# # # # # # # # # # # # # # # o . . . . . . . . . . . . . X * c z z z L f z f z f L z z L r.v.v.v.r.p.v.p.v.r.v.g.v.a.v.W + O O # # # # # # # # # # O X . . . . . . . . . . . . . . % n z L f L z z z L f z f z L z L z z f L z z L f L z f z z z z L z L z L f z L f L z z z L z L f L z z z L f L z z f L z z f z f z z L f L f L f z c f L f f L z z f L z z z z f L z L L z - L - L z z z L z L f L z f z z z z L z f L f z z L z z z z f L z L z L L z z z L L - L f z f z z z f L z z f L z L f L z z z L z L f L z z z L f z z z f L f z f z z z L z L f f L z z f L z z z z z z L f z f L z L f z z z z L z z L L z L z z L z f L z L f f z f L z z z L z z L z z z z L z L f L f L f z z z f L z z f L z L z L f z z z z f z z L L * L L z z z f L z z L f z f z c z L L z z z z f z z z z f L L z L f L f z f f L f z L z z f L z z f z L z L L z z z z f z z L f L f z f L z z f L z f L f L z z z L z L f L z z z L L f f L z f z z z z L z z f z z L z z f L z z f L f L f z z L z ",
"# # # # # # # # # # # # # # O o . . . . . . . . . . . . . . * c L f L z z z L f z f z f z r.m.v.v.v.v.v.v.v.v.v.v.v.v.v.q + # # # # # # # # # # # # O X . . . . . . . . . . . . . . % f L z z z L f L z z z L f f L c z z z z z L z z z z L z z z z f z f z f L L z z z L f L z L z z z L f L z z f z f z f z f z z L f L z z z z z z z L - z L z f z f z f z f L z z z L z z L - L L z L f L z L z z z z L z z z z f z z z z f z z L L L z L z L f z z z f L f L - L z z z L f L z L z L z L z L z z z L f L z L z z z L f L z z f L f z z z f z f L f f z f L z f z f z f z f z L f z f L z L f z f L z L f z z z z z z - L z f L z L f z f L f L z L L f L z z z f z L f L z L z z z z z z f L z L z L z L z L f z z z f L f z L z z - L * L f z z f z f z f f L z L z L z f z f L f z L z z L z z z f z f L f L z L z z z f f L f L f L f L L f z z z f L f z L z z f z z L z z z z z z z z z f z z L f L z L z z z L f L z L z z z z L z z z z f z z L z z f L f L f L f L f z z L z z f z ",
"# # # # # # # # # O # # # # O o . . . . . . . . . . . . . . & L z z f z f L z z z L z L L r.m.g.v.v.r.v.v.r.v.p.v.v.r.v.N O # O # # # # # # # # # # # X . . . . . . . . . . . . . . % R f z f L z z f z f L z z z z L f L f L f f z f L z f L f L f L z L z z z f z f L z z f z f z f L z z f z z L z L z L z L f L z z f z f L f L z f L L z f z L z L z L z L f z f L - L z z L z z L z z f z f z f L z f L f L f L z f L z L L z z z f z f z z z f L z L z z L z f z f L z z f z f z f z f z f z f L z z f z f z f L z z f z z L z z f L z L z L z z L z z z z L z L z L z L z f L z z z z f L z z z z f L z z L L z z L z L z z z f L z z z z z z f z z f z L f L z z z f z f z f L f L z L f z f z f z f z z z f L z L z z z f L f L z L z L f z L z L z L z z z f f L z L z L z z z f L f f z f L L z z z z z z f f L z L z z z z z z z z z z f L z L z z z f L f L z z f L f L f L f L f z L f L z z f z f z f L z z f z c z f L z f L f L f L z z f L f z z z z z z z z L z z f L f L z ",
"# # # O # # # # # # # # # # # o . . . . . . . . . . . . . . - L L f z f z z L f L z L z Q 6.v.p.p.v.v.v.v.v.v.v.r.v.v.p.4 # $ O # # # # # # # # # # O o . . . . . . . . . . . . . . $ L L L z z L f z f z z L f z z c L L z L z z z L f z f z z f z z z z L f z z z L f z f z z L f z f z z L f L z L z L z L z z z L f z f z z z L f L c z z L L z L z L z L z z z L f z z z L L f z f z z L f z z L f z f z z z z L z L f z z z f z f z f z f L f z z L z L f z z L z L z L f L z L z L z L z z z L f z f z z L f z f z z L f L f z z L z L f f z z z z L f z f L f L f L f L z L f z z z z L f z z z z L f z L z z z f L f L z L f z z z z L z z L f z z L f f z z L f L f z z z L z L f z z z f z f z f z f L f z z L z L f z L f L f z c z L f z f z f z f z L f z z L f z z L f L f z z L z z L f z f z z z z L z L f z z z f z f z f z f L f z z L z L f z L f L f z z L z z z z z z z z L c L f z f z z L f z f z z L f L f R f f z z L z L f L f z z L z z z z z z z z f z z L f L f z ",
"# # # # # # # # # # # # # # O o . . . . . . . . . . . . . o & L z z z L f L z z z L - z z r.v.v.v.v.r.v.v.p.v.r.v.v.v.v.N O O O # # # # # # # # # # # o . . . . . . . . . . . . . . & L z z - L z z z L f L z z z f L z f z f z f L z z z L f L L z L f z f L z f L z z z L f L z z z L f L z z f z f z f z f z f L z z z L f L z f z z L z z f f z f z f z f z f L z z z L L - z z z L f L z z f L z z z L f L f L f z z z f L z L z L z L z L z z f L f z z z L L - L L z z L f z f z f z f z f L z z z L f L z z z L f L z z z z f L f z z z L z L f z f L z z z z z z z z z z f L z L f z f L z L f z f L z z z L L z z z z z f L z L f z f f L f L f L z z L z z f z z L z f L f z z z f L z L z L z L z L z z f L f z z z z f z z L z L z f L z L z L z L z f L z L c z z z f z z L z z f f L z z z L f L f L f z z z f L z L z L z L z L z z f L f z z z z f z z L z z f L f L f L f L f f L z z z L f L z z z L f L z z L z z z z z z f z f z z L z z f L f L f L f L f L z z f z z L z ",
"# # # # # # # # O # # # # # # o . . . . . . . . . . . . . . - L L f L z z f z f z L z L z r.v.v.r.v.v.v.v.v.v.v.a.v.a.v.q O $ $ # # # # # # # # # # @ . . . . . . . . . . . . . . . % L - L L z L f L z z f z f L f c z z z L f z f z f L z z z f z f L z z z z z f z f L z z z L f L z z f z f z z L f z z L f z f z f L z z z z L z z * L - L z z L f z z L f z f z f L - z L L f L z z f z f z f z f L z z z z z z f L z L z L f z z L f z z L z L z z f L f L - L z - L z - z z L f z z L f z f z f L z z z L f L z z f z f L z L z z f L f f z f L z z z z z L f z z L f z z z z z f L z L f z f L z z z z z L z z z L f z z z z z f L z L z z z f z f z f f L f L z z f z z z z f L z L z L f z z L f z z L z L z z f L f z L z z f L c L L f z z L f z z z z z z z c L f z L z z f L f L z f z f L z z z z z z f L z L z L f z z L f z z L z L z z f L f z L z z f L f L f z z L f z z L z c z f L z z z L f L z z f z f c z z L f L z L z L z z f L f L f z z L f z z L f L f L z z f z ",
"# # # # # # # # # # # # # # # o . . . . . . . . . . . . . o & L z z f z z L z L L - z z z p.v.j.v.v.p.v.r.v.p.v.v.v.v.v.N O O O # O # # # # # # # # O o . . . . . . . . . . . . . . $ L L z z L z z f z z L z L z z L z f L z z z L z L f z f L L z z z L f L f z L z L f z f L z z f z z L z L f L z z f L z z z L z L f z f L z f L f L L L z f L z z f L z z z L z L z L z z z z f z z L z L z L z L f z f L f L z L f z f z z z f L z z f L f z f z z L z z L z f z L z z L f L z z f L z z z L z L f z f L z z f z z L z L f z f z z L z z L z z z L f L f z f L z z f L z L f L f z z z f L z z z L f L f z f L z z f L z L f L f z z z f f L z L z L z L z z z z L f L z f L z L f z f z z z f L z z f L f z f z z L z z z f L f z z L - L z f L z z f L L f L f L L z z z f L f z z z z z L z L f z f L f L z L f z f z z z f L z z f L f z f z z L z z z f L f z z z z L z z f L z z f z L z L f z f L z z f z z L z L L f n z z z z f z f L f z z z z L z z f L z z f z z z z L f L z ",
"# # # # # # # # # # # # O # O o . . . . . . . . . . . . . o & L L f z f L z L z z z L - z p.m.v.r.v.p.v.v.v.p.v.v.v.g.g.L # # O # # # # # # # # # # @ . . . . . . . . . . . . . . . & L z z L - L f z f L z L z L z L f L f z f L z L z z f z z f z z z z z z z L z L z z f z z L f z f L z L z z f z z L f z f L z L z z f z z z L f L L z L z z f z z L f z f L - z L L L - L L f z f L z L z L z L z z f z z z z L z z f z f L z L f z z L z z f z f L z L f L z z f L z L z z f z z L f z f L z L z z f z z L f z f L z L z z f z f L z L f f z z z f L f L z z z L f z z z f L f L z z z L f z z z L z L z z z z L f z z z f L f L z z z L z L f c z f z f z z z z f L f z z z L z z f z f L z L f z z L z z f z f L z L f z L f L z L L z f z z z z z L z z f z f f c z z z L f L z z z z L z L z z f z z z z L z z f z f L z L f z z L z z f z f L z L f z L f L z z z z f L f z z L f L z f L z z f z z L f z f L z L z L z R z z z z L z L f L z z z z f L f z z L f L z z z z f L f z ",
"# # # # # # # # # # # # # # # o . . . . . . . . . . . . . . & L z z z L f z f L L z z L z r.v.v.v.v.v.v.v.v.v.v.g.v.v.v.f O # # # # # # O # # # # # O o . . . . . . . . . . . . . . $ L L z z L z z z L f z f z f z L z z z z L f z f z z L f L L z L f L L z z f z f z z L f L z z z L f z f z z L f L z z z L f z f z z L f L z f z z c z f z z L f L z L z L z L z z z z L z z z z L f z f z f z f z z L f L f L f z z L z L f z z z f L f z z L z L f z z z L z z L f z f z z L f L z z z L f z f z z L f L z z z L f z f z z L z L f z z z L z L f z z z z L f z f L z L f z z z z L f z f L z L f z L - z L f z z L z L f z z z z L f z f z f z L z L z L L f L f z z L z f L f z z L z L f z z z f L f z z L z L f z z z z f z z L L * L L f f L f L f z z L z L z L f L z f z z L f L f f z f z z L f L f L f z z L z L f z z z f L f z z L z L f z z z z f z z L f L f z z L z z f z z z L f z z L f L z z z L f z f z c z y z L f z f z f z z L f L f z z L z z f z z L f L f z z L z ",
"# # # # # # # # # # # # # # + o . . . . . . . . . . . . . . : L L f L z z z L - z L L z L r.v.v.v.v.v.v.v.p.r.v.v.v.n.g.y O # # O # # # # # # # # # O o . . . . . . . . . . . . . . & - z f L f L f L z z z L f L z c z L f L z z z L f L z z z f z f L z z z z z z L f L z z z L f L z z z L f L z z z L f L z z z L f L z z z z L z z L - L f L z z z L - z L L z - L L z z z L f L z z z L f z z L f L z z z z z z f L f z z z f L f z z z f L f z z z f L f L z L z z z L f L z z z L f L z z z L f L z z z L f L z z z L f L f z z z f L f f z f L z L f z f L z L f z f L z L f z f L z L f z f L z L z L z z L - f z f L z L f z f L z L z L z c L f z z f z z L z z f z z z z f L f z z z f L f z z z f L f z z z f L f z L z z - L * L L z z z z z z f L f z z z f z z z L z z f z z L z z L f L z z z z z z f L f z z z f L f z z z f L f z z z f L f z L z z f z z L z z f z z L z z L c L f L z z z L f L z z z L f L f y z f L z L z L z z f z z L z z f z z L z z f z z L z z f z ",
"# # # # # # # O # # # # # # + o . . . . . . . . . . . . . o : z z z f z f L z z L - L z z 6.v.v.p.v.r.v.v.v.v.v.g.v.g.n.n O # # # # # # # # # # # # O o . . . . . . . . . . . . . . & L z L z z z z f z f L z z f z c L z z f z f L z z f z f L L z z z z L z z f L z z f z f L z z f z f L z z f z f L z z f z f L z z f z f L z f L f L L z z f z f L z z L - L z L z z L - L z z f z f L z z f L z z f z f L f L z L z z f L z L z z f L z L z z f L z L z z L z f z f L z z f z f L z z f z f L z z f z f L z z f z f L z z z z f L z L z z L z z z z f L z z z z f L z z z z f L z z z z f L z z z L - L - L L z L L z z z z f L z z z z f z f L L z z f L L z z f L f L z f L z L z z f L z L z z f L z L z z f L z L z z z f L f L z L z c z f L f L z L z z f L z L f L z f L f L z z f f L z z f z f L f L z L z z f L z L z z f L z L z z f L z L z z z f L f L z z f L f L z z f L z f L z z f z f L z z f z f L z z L z R z z z z f z f L f L z z f L f L z z f L f L z z f L f L z "
};
