/* XPM */
static char *xpm_[] = {
/* columns rows colors chars-per-pixel */
"32 32 10 1 ",
"  c #0F663B",
". c #208030",
"X c #47A632",
"o c #8DC746",
"O c #CEEB5E",
"+ c #9FB7D4",
"@ c #8A90E6",
"# c #C5DFEB",
"$ c azure",
"% c None",
/* pixels */
"%%%%%%%%%%%%%%%%%%%%%%%%%%%%%%%%",
"%%%%%%%%%%%%%%%%%%%%%%%%%%%%%%%%",
"%%%%%%%%%%%%%%%%%%%%%%%%%%%%%%%%",
"%%%%%%%%%%%%X.%%%%%%%.%%%%%%%%%%",
"%%%%%%%%%%%XOo.%%%%.XO.%%%%%%%%%",
"%%%%%%%%%X.oXX.X.X.XOo %%%%%%%%%",
"%%%%%%%%XoX. +##+@ .XX. %%..%%%%",
"%%%%%%%.o@++#$#$#+@ ++@..oO.%%%%",
"%%%%%%.X@#$#$$$#$#++#$#$+.o %%%%",
"%%%%.. .+$#$$$$$$$@$$#$##@X.%%%%",
"%%%%  @+@+$$$#$#+#+#$$#$#+. .%%%",
"%% .o+$#$#+$#+#$#$#+#$$#+@Xo %%%",
"%% OX$#$$$#+#$$$$#$##+#+@ .X.%%%",
"%%.o+#$$$#$#$$$$$$$#$$#$#+ . %%%",
"%% X#$$$#$##$$$$$$#$#$$#$+@  .%%",
"%% .+#$#$#+##$#$#$+#$$$#+@.Oo %%",
"%%%.@+#$#+#$##$#+##$#+#+@.oX. %%",
"%%% .@+@+$$#+#+#$$+#+#$$+ X.X %%",
"%%%.X+#$#$#+#$#$$$$@#$$#$@X. %%%",
"%%% X@+#$#XX+#$$$#$+$$#$#+.  %%%",
"%%% . .XXXO.+$#$#$#+#+$#+. . %%%",
"%%%% .XoOOX @+##$#+.+#+@.O  %%%%",
"%%%% X..XX.X @+##+.O  @.oXo %%%%",
"%%%%% XX..X. @@+@.OXoX.X.X. %%%%",
"%%%%%%  X.   ..XooX.X. ..  %%%%%",
"%%%%%%%% X.X  . ... .  . %%%%%%%",
"%%%%%%%%%    .X.XXX.X.  %%%%%%%%",
"%%%%%%%%%%%%%         %%%%%%%%%%",
"%%%%%%%%%%%%%%%%%%%%%%%%%%%%%%%%",
"%%%%%%%%%%%%%%%%%%%%%%%%%%%%%%%%",
"%%%%%%%%%%%%%%%%%%%%%%%%%%%%%%%%",
"%%%%%%%%%%%%%%%%%%%%%%%%%%%%%%%%"
};
