/* XPM */
static char *xpm_[] = {
/* columns rows colors chars-per-pixel */
"32 32 8 1 ",
"  c #4D2E2E",
". c #734139",
"X c #99573D",
"o c #B86B3B",
"O c #D48435",
"+ c #F0B43C",
"@ c #F7C088",
"# c None",
/* pixels */
"################################",
"################################",
"################################",
"################################",
"################################",
"#########################. #####",
"########################oo. ####",
"###########oooooo#####oo+Oo.####",
"#########ooOO+O+Oooooo++Oo.#####",
"########oO+O+O+O+O+O++OOoX######",
"#######oO+O++@+@++O+O+oXo.######",
"######oO+O++@+@+@++O+oXoX#######",
"######oOO+O++@@@++O+OOoX.#######",
"#####ooO+O++@+@+@++OOooX.#######",
"#####oOoO+O++@+@++OOoOoo.#######",
"#####XoOoO+O+O+O+O+OOooX.#######",
"#####oOoX+OoO+O+O+OOoOooX.######",
"#####XoXoOo+Oo+OOOOoOooXo.######",
"#####XOXOoOOo+OooOoOooXXX.######",
"######oXoXOXOOXOOoOooXo.o.######",
"######X.X.XOoXOOoXooXoXXo.######",
"######.oXo.ooXoOXooXoX.o.#######",
"######. oXo.XoX.ooXoX.Xo.#######",
"###### .oXoXo..XoXoX.Xo.########",
"####### .. .ooXX.X.Xoo.#########",
"########  .#..oooooo..##########",
"##############......############",
"################################",
"################################",
"################################",
"################################",
"################################"
};
