/* XPM */
static char *xpm_[] = {
/* columns rows colors chars-per-pixel */
"32 32 11 1 ",
"  c #0F663B",
". c #8A2450",
"X c #AD284B",
"o c #CC3542",
"O c #E65C5C",
"+ c #208030",
"@ c #47A632",
"# c #F29179",
"$ c #8DC746",
"% c #F7C088",
"& c None",
/* pixels */
"&&&&&&&&&&&&&&&&&&&&&&&&&&&&&&&&",
"&&&&&&&&&&&&&&&&&&&&&&&&&&&&&&&&",
"&&&&&&&&&&&&&&&&&&&&&&&&&&&&&&&&",
"&&&&&&&&&&&&&&&&&&&&&&&&&&&&&&&&",
"&&&&&&&&&&&&&&&&&&&&&&&&&&&&&&&&",
"&&&&&&&&&&&&&&&+&&&&&&&&&&&&&&&&",
"&&&&&&&&&XXXXXX$+XXXXX.&&&&&&&&&",
"&&&&&&&.XooOOOo$ oO#OoXX.&&&&&&&",
"&&&&&&XoO#O#o$X@+X$O%#OoX.&&&&&&",
"&&&&&XoXo##OX+@+ @+X#%oXoX.&&&&&",
"&&&&&XoO##Oo$@+  +.oO##OoX.&&&&&",
"&&&&XoOoO##OX.@..@$XO#OoO.X.&&&&",
"&&&&.XXoO#%#OoXoOXXo###OoXX.&&&&",
"&&&&XXoO#%%%#OoOoOoO#OoOX.X.&&&&",
"&&&&.XoOO#%###O%#O##O#Xo.Xo.&&&&",
"&&&&.XXooO#O##O#Oo#OoOoXX.X.&&&&",
"&&&&&.XoooOO#OOOoOOoXooX.Xo.&&&&",
"&&&&&.XXoXooOOOoooooXoX..o.&&&&&",
"&&&&&&.XoXoooXoXooXXXXX..o.&&&&&",
"&&&&&&.XXXXXoXXXXoXXXX..o.&&&&&&",
"&&&&&&&.o.XXXXXXXX.X...Xo.&&&&&&",
"&&&&&&&&.o..XXXX......oo.&&&&&&&",
"&&&&&&&&&.oooXX...XXoo..&&&&&&&&",
"&&&&&&&&&&...ooooooo..&&&&&&&&&&",
"&&&&&&&&&&&&&.......&&&&&&&&&&&&",
"&&&&&&&&&&&&&&&&&&&&&&&&&&&&&&&&",
"&&&&&&&&&&&&&&&&&&&&&&&&&&&&&&&&",
"&&&&&&&&&&&&&&&&&&&&&&&&&&&&&&&&",
"&&&&&&&&&&&&&&&&&&&&&&&&&&&&&&&&",
"&&&&&&&&&&&&&&&&&&&&&&&&&&&&&&&&",
"&&&&&&&&&&&&&&&&&&&&&&&&&&&&&&&&",
"&&&&&&&&&&&&&&&&&&&&&&&&&&&&&&&&"
};
