/* XPM */
static char *xpm_[] = {
/* columns rows colors chars-per-pixel */
"32 32 10 1 ",
"  c #99373F",
". c #E96835",
"X c #C75243",
"o c #208030",
"O c #47A632",
"+ c #F08D54",
"@ c #8DC746",
"# c #CEEB5E",
"$ c #F7C088",
"% c None",
/* pixels */
"%%%%%%%%%%%%%%%%%%%%%%%%%%%%%%%%",
"%%%%%%%%%%%%%%%%%%%%%%%%%%%%%%%%",
"%%%%%%%%%%%%%%%%O@%%%%%%%%%%%%%%",
"%%%%%%%%%%%%%%%O#O%%%%%%%%%%%%%%",
"%%%%%%%%%%%%%%%O@o%%%%%%%%%%%%%%",
"%%%%%%%%%%%X..X#OX..X%%%%%%%%%%%",
"%%%%%%%%..X+ +O#o+X +XXX%%%%%%%%",
"%%%%%%..+$+.X O@o  +$+$$XX%%%%%%",
"%%%%%.+$+X X O@oOo  X X+$+X%%%%%",
"%%%%.+$+X+++X ooo X.+++X+$+ %%%%",
"%%%.+$+.+$+X.X   X+X+$++.+$X %%%",
"%%X.$+.+$+.+$+X+X+$+X+$+..+.X %%",
"%%X+$.+$$.+$$.+$+.+$+.+$+X.+X %%",
"%%X$+.$$+.$$+.$$+.+$$.+$+.X+X %%",
"%X.$+.+$+.$++.$+$+X+$+.++.X.XX %",
"%X$+X+$.X.$++.$$+..+$+.X$.XXXX %",
"%X++.+.+.+$.X$$+..X.++X.+.X XX %",
"%X+.X$+.X$+X.+$.+XX+$+.X..X X  %",
"% .XX+.XX+..X+++..X.+.XX.XX  X %",
"%X..X.+XX..XX+$..XX.+.X ..X X  %",
"% .XX+.XX+X.X+++X.X+.XXX.XX  X %",
"%%X.X +X ..X .+..X .+XX .XX X %%",
"%% XXX.XXX.XXX.+XXX+.X .XX  X %%",
"%%% X .XX .XX +.XX .XX XXX X %%%",
"%%%% X . X X  XXX X.XX X  X %%%%",
"%%%%%  XX  .X .X  X X X X  %%%%%",
"%%%%%%%  XX   X X  X X   %%%%%%%",
"%%%%%%%%%   XX X XX    %%%%%%%%%",
"%%%%%%%%%%%%       %%%%%%%%%%%%%",
"%%%%%%%%%%%%%%%%%%%%%%%%%%%%%%%%",
"%%%%%%%%%%%%%%%%%%%%%%%%%%%%%%%%",
"%%%%%%%%%%%%%%%%%%%%%%%%%%%%%%%%"
};
